{
 "compressionlevel": -1,
 "width": 44,
 "height": 86,
 "tilewidth": 32,
 "tileheight": 32,
 "infinite": false,
 "orientation": "orthogonal",
 "renderorder": "right-down",
 "type": "map",
 "version": "1.10",
 "tiledversion": "1.10.2",
 "nextlayerid": 100,
 "nextobjectid": 111,
 "tilesets": [
  {
   "columns": 6,
   "firstgid": 1,
   "image": "tilesets/WA_Special_Zones.png",
   "imageheight": 64,
   "imagewidth": 192,
   "margin": 0,
   "name": "WA_Special_Zones",
   "spacing": 0,
   "tilecount": 12,
   "tileheight": 32,
   "tiles": [
    {
     "id": 2,
     "properties": [
      {
       "name": "collides",
       "type": "bool",
       "value": true
      }
     ]
    }
   ],
   "tilewidth": 32
  },
  {
   "columns": 12,
   "firstgid": 13,
   "image": "tilesets/WA_Decoration.png",
   "imageheight": 256,
   "imagewidth": 384,
   "margin": 0,
   "name": "WA_Decoration",
   "spacing": 0,
   "tilecount": 96,
   "tileheight": 32,
   "tilewidth": 32
  },
  {
   "columns": 10,
   "firstgid": 109,
   "image": "tilesets/WA_Miscellaneous.png",
   "imageheight": 352,
   "imagewidth": 320,
   "margin": 0,
   "name": "WA_Miscellaneous",
   "spacing": 0,
   "tilecount": 110,
   "tileheight": 32,
   "tilewidth": 32
  },
  {
   "columns": 12,
   "firstgid": 219,
   "image": "tilesets/WA_Other_Furniture.png",
   "imageheight": 416,
   "imagewidth": 384,
   "margin": 0,
   "name": "WA_Other_Furniture",
   "spacing": 0,
   "tilecount": 156,
   "tileheight": 32,
   "tilewidth": 32
  },
  {
   "columns": 25,
   "firstgid": 375,
   "image": "tilesets/WA_Room_Builder.png",
   "imageheight": 1280,
   "imagewidth": 800,
   "margin": 0,
   "name": "WA_Room_Builder",
   "spacing": 0,
   "tilecount": 1000,
   "tileheight": 32,
   "tilewidth": 32
  },
  {
   "columns": 13,
   "firstgid": 1375,
   "image": "tilesets/WA_Seats.png",
   "imageheight": 448,
   "imagewidth": 416,
   "margin": 0,
   "name": "WA_Seats",
   "spacing": 0,
   "tilecount": 182,
   "tileheight": 32,
   "tilewidth": 32
  },
  {
   "columns": 10,
   "firstgid": 1557,
   "image": "tilesets/WA_Tables.png",
   "imageheight": 864,
   "imagewidth": 320,
   "margin": 0,
   "name": "WA_Tables",
   "spacing": 0,
   "tilecount": 270,
   "tileheight": 32,
   "tilewidth": 32
  },
  {
   "columns": 6,
   "firstgid": 1827,
   "image": "tilesets/WA_Logo_Long.png",
   "imageheight": 32,
   "imagewidth": 192,
   "margin": 0,
   "name": "WA_Logo_Long",
   "spacing": 0,
   "tilecount": 6,
   "tileheight": 32,
   "tilewidth": 32
  },
  {
   "columns": 25,
   "firstgid": 1833,
   "image": "tilesets/WA_Exterior.png",
   "imageheight": 1088,
   "imagewidth": 800,
   "margin": 0,
   "name": "WA_Exterior",
   "spacing": 0,
   "tilecount": 850,
   "tileheight": 32,
   "tilewidth": 32
  },
  {
   "columns": 13,
   "firstgid": 2683,
   "image": "tilesets/WA_User_Interface.png",
   "imageheight": 672,
   "imagewidth": 416,
   "margin": 0,
   "name": "WA_User_Interface",
   "spacing": 0,
   "tilecount": 273,
   "tileheight": 32,
   "tilewidth": 32
  }
 ],
 "layers": [
  {
   "name": "floor",
   "type": "tilelayer",
   "visible": true,
   "opacity": 1,
   "x": 0,
   "y": 0,
   "width": 44,
   "height": 86,
   "data": [
    725,
    725,
    725,
    725,
    725,
    725,
    725,
    725,
    725,
    725,
    725,
    725,
    725,
    725,
    725,
    725,
    725,
    725,
    725,
    725,
    725,
    725,
    725,
    725,
    725,
    725,
    725,
    725,
    725,
    725,
    725,
    725,
    725,
    725,
    725,
    725,
    725,
    725,
    725,
    725,
    725,
    725,
    725,
    725,
    725,
    725,
    725,
    725,
    725,
    725,
    725,
    725,
    725,
    725,
    725,
    725,
    725,
    725,
    725,
    725,
    725,
    725,
    725,
    725,
    725,
    725,
    725,
    725,
    725,
    725,
    725,
    725,
    725,
    725,
    725,
    725,
    725,
    725,
    725,
    725,
    725,
    725,
    725,
    725,
    725,
    725,
    725,
    725,
    725,
    725,
    725,
    725,
    725,
    725,
    725,
    725,
    725,
    725,
    725,
    725,
    725,
    725,
    725,
    725,
    725,
    725,
    725,
    725,
    725,
    725,
    725,
    725,
    725,
    725,
    725,
    725,
    725,
    725,
    725,
    725,
    725,
    725,
    725,
    725,
    725,
    725,
    725,
    725,
    725,
    725,
    725,
    725,
    725,
    725,
    725,
    725,
    725,
    725,
    725,
    725,
    725,
    725,
    725,
    725,
    725,
    725,
    725,
    725,
    725,
    725,
    725,
    725,
    725,
    725,
    725,
    725,
    725,
    725,
    725,
    725,
    725,
    725,
    725,
    725,
    725,
    725,
    725,
    725,
    725,
    725,
    725,
    725,
    725,
    725,
    725,
    725,
    725,
    725,
    725,
    725,
    725,
    725,
    725,
    725,
    725,
    725,
    725,
    725,
    725,
    725,
    725,
    725,
    725,
    725,
    725,
    725,
    725,
    725,
    725,
    725,
    725,
    725,
    725,
    725,
    725,
    725,
    725,
    725,
    725,
    725,
    725,
    725,
    725,
    725,
    725,
    725,
    725,
    725,
    725,
    725,
    725,
    725,
    725,
    725,
    725,
    725,
    725,
    725,
    725,
    725,
    725,
    725,
    725,
    725,
    725,
    725,
    725,
    725,
    725,
    725,
    725,
    725,
    725,
    725,
    725,
    725,
    725,
    725,
    725,
    725,
    725,
    725,
    725,
    725,
    725,
    725,
    725,
    725,
    725,
    725,
    725,
    725,
    725,
    725,
    725,
    725,
    725,
    725,
    725,
    725,
    725,
    725,
    725,
    725,
    725,
    725,
    725,
    725,
    725,
    725,
    725,
    725,
    725,
    725,
    725,
    725,
    725,
    725,
    725,
    725,
    725,
    725,
    725,
    725,
    725,
    725,
    725,
    725,
    725,
    725,
    725,
    725,
    725,
    725,
    725,
    725,
    725,
    725,
    725,
    725,
    725,
    725,
    725,
    725,
    725,
    725,
    725,
    725,
    725,
    725,
    725,
    725,
    725,
    725,
    725,
    725,
    725,
    725,
    725,
    725,
    725,
    725,
    725,
    725,
    725,
    725,
    725,
    725,
    725,
    725,
    725,
    725,
    725,
    725,
    725,
    725,
    725,
    725,
    725,
    725,
    725,
    725,
    725,
    725,
    725,
    725,
    725,
    725,
    725,
    725,
    725,
    725,
    725,
    725,
    725,
    725,
    725,
    725,
    725,
    725,
    725,
    725,
    725,
    725,
    725,
    725,
    725,
    725,
    725,
    725,
    725,
    725,
    725,
    725,
    725,
    725,
    725,
    725,
    725,
    725,
    725,
    725,
    725,
    725,
    725,
    725,
    725,
    725,
    725,
    725,
    725,
    725,
    725,
    725,
    725,
    725,
    725,
    725,
    725,
    725,
    725,
    725,
    725,
    725,
    725,
    725,
    725,
    725,
    725,
    725,
    725,
    725,
    725,
    725,
    725,
    725,
    725,
    725,
    725,
    725,
    725,
    725,
    725,
    725,
    725,
    725,
    725,
    725,
    725,
    725,
    725,
    725,
    725,
    725,
    725,
    725,
    725,
    725,
    725,
    725,
    725,
    725,
    725,
    725,
    725,
    725,
    725,
    725,
    725,
    725,
    725,
    725,
    725,
    725,
    725,
    725,
    725,
    725,
    725,
    725,
    725,
    725,
    725,
    725,
    725,
    725,
    725,
    725,
    725,
    725,
    725,
    725,
    725,
    725,
    725,
    725,
    725,
    725,
    725,
    725,
    725,
    725,
    725,
    725,
    725,
    725,
    725,
    725,
    725,
    725,
    725,
    725,
    725,
    725,
    725,
    725,
    725,
    725,
    725,
    725,
    725,
    725,
    725,
    725,
    725,
    725,
    725,
    725,
    725,
    725,
    725,
    725,
    725,
    725,
    725,
    725,
    725,
    725,
    725,
    725,
    725,
    725,
    725,
    725,
    725,
    725,
    725,
    725,
    725,
    725,
    725,
    725,
    725,
    725,
    725,
    725,
    725,
    725,
    725,
    725,
    725,
    725,
    725,
    725,
    725,
    725,
    725,
    725,
    725,
    725,
    725,
    725,
    725,
    725,
    725,
    725,
    725,
    725,
    725,
    725,
    725,
    725,
    725,
    725,
    725,
    725,
    725,
    725,
    725,
    725,
    725,
    725,
    725,
    725,
    725,
    725,
    725,
    725,
    725,
    725,
    725,
    725,
    725,
    725,
    725,
    725,
    725,
    725,
    725,
    725,
    725,
    725,
    725,
    725,
    725,
    725,
    725,
    725,
    725,
    725,
    725,
    725,
    725,
    725,
    725,
    725,
    725,
    725,
    725,
    725,
    725,
    725,
    725,
    725,
    725,
    725,
    725,
    725,
    725,
    725,
    725,
    725,
    725,
    725,
    725,
    725,
    725,
    725,
    725,
    725,
    725,
    725,
    725,
    725,
    725,
    725,
    725,
    725,
    725,
    725,
    725,
    725,
    725,
    725,
    725,
    725,
    725,
    725,
    725,
    725,
    725,
    725,
    725,
    725,
    725,
    725,
    725,
    725,
    725,
    725,
    725,
    725,
    725,
    725,
    725,
    725,
    725,
    725,
    725,
    725,
    725,
    725,
    725,
    725,
    725,
    725,
    725,
    725,
    725,
    725,
    725,
    725,
    725,
    725,
    725,
    725,
    725,
    725,
    725,
    725,
    725,
    725,
    725,
    725,
    725,
    725,
    725,
    725,
    725,
    725,
    725,
    725,
    725,
    725,
    725,
    725,
    725,
    725,
    725,
    725,
    725,
    725,
    725,
    725,
    725,
    725,
    725,
    725,
    725,
    725,
    725,
    725,
    725,
    725,
    725,
    725,
    725,
    725,
    725,
    725,
    725,
    725,
    725,
    725,
    725,
    725,
    725,
    725,
    725,
    725,
    725,
    725,
    725,
    725,
    725,
    725,
    725,
    725,
    725,
    725,
    725,
    725,
    725,
    725,
    725,
    725,
    725,
    725,
    725,
    725,
    725,
    725,
    725,
    725,
    725,
    725,
    725,
    725,
    725,
    725,
    725,
    725,
    725,
    725,
    725,
    725,
    725,
    725,
    725,
    725,
    725,
    725,
    725,
    725,
    725,
    725,
    725,
    725,
    725,
    725,
    725,
    725,
    725,
    725,
    725,
    725,
    725,
    725,
    725,
    725,
    725,
    725,
    725,
    725,
    725,
    725,
    725,
    725,
    725,
    725,
    725,
    725,
    725,
    725,
    725,
    725,
    725,
    725,
    725,
    725,
    725,
    725,
    725,
    725,
    725,
    725,
    725,
    725,
    725,
    725,
    725,
    725,
    725,
    725,
    725,
    725,
    725,
    725,
    725,
    725,
    725,
    725,
    725,
    725,
    725,
    725,
    725,
    725,
    725,
    725,
    725,
    725,
    725,
    725,
    725,
    725,
    725,
    725,
    725,
    725,
    725,
    725,
    725,
    725,
    725,
    725,
    725,
    725,
    725,
    725,
    725,
    725,
    725,
    725,
    725,
    725,
    725,
    725,
    725,
    725,
    725,
    725,
    725,
    725,
    725,
    725,
    725,
    725,
    725,
    725,
    725,
    725,
    725,
    725,
    725,
    725,
    725,
    725,
    725,
    725,
    725,
    725,
    725,
    725,
    725,
    725,
    725,
    725,
    725,
    725,
    725,
    725,
    725,
    725,
    725,
    725,
    725,
    725,
    725,
    725,
    725,
    725,
    725,
    725,
    725,
    725,
    725,
    725,
    725,
    725,
    725,
    725,
    725,
    725,
    725,
    725,
    725,
    725,
    725,
    725,
    725,
    725,
    725,
    725,
    725,
    725,
    725,
    725,
    725,
    725,
    725,
    725,
    725,
    725,
    725,
    725,
    725,
    725,
    725,
    725,
    725,
    725,
    725,
    725,
    725,
    725,
    725,
    725,
    725,
    725,
    725,
    725,
    725,
    725,
    725,
    725,
    725,
    725,
    725,
    725,
    725,
    725,
    725,
    725,
    725,
    725,
    725,
    725,
    725,
    725,
    725,
    725,
    725,
    725,
    725,
    725,
    725,
    725,
    725,
    725,
    725,
    725,
    725,
    725,
    725,
    725,
    725,
    725,
    725,
    725,
    725,
    725,
    725,
    725,
    725,
    725,
    725,
    725,
    725,
    725,
    725,
    725,
    725,
    725,
    725,
    725,
    725,
    725,
    725,
    725,
    725,
    725,
    725,
    725,
    725,
    725,
    725,
    725,
    725,
    725,
    725,
    725,
    725,
    725,
    725,
    725,
    725,
    725,
    725,
    725,
    725,
    725,
    725,
    725,
    725,
    725,
    725,
    725,
    725,
    725,
    725,
    725,
    725,
    725,
    725,
    725,
    725,
    725,
    725,
    725,
    725,
    725,
    725,
    725,
    725,
    725,
    725,
    725,
    725,
    725,
    725,
    725,
    725,
    725,
    725,
    725,
    725,
    725,
    725,
    725,
    725,
    725,
    725,
    725,
    725,
    725,
    725,
    725,
    725,
    725,
    725,
    725,
    725,
    725,
    725,
    725,
    725,
    725,
    725,
    725,
    725,
    725,
    725,
    725,
    725,
    725,
    725,
    725,
    725,
    725,
    725,
    725,
    725,
    725,
    725,
    725,
    725,
    725,
    725,
    725,
    725,
    725,
    725,
    725,
    725,
    725,
    725,
    725,
    725,
    725,
    725,
    725,
    725,
    725,
    725,
    725,
    725,
    725,
    725,
    725,
    725,
    725,
    725,
    725,
    725,
    725,
    725,
    725,
    725,
    725,
    725,
    725,
    725,
    725,
    725,
    725,
    725,
    725,
    725,
    725,
    725,
    725,
    725,
    725,
    725,
    725,
    725,
    725,
    725,
    725,
    725,
    725,
    725,
    725,
    725,
    725,
    725,
    725,
    725,
    725,
    725,
    725,
    725,
    725,
    725,
    725,
    725,
    725,
    725,
    725,
    725,
    725,
    725,
    725,
    725,
    725,
    725,
    725,
    725,
    725,
    725,
    725,
    725,
    725,
    725,
    725,
    725,
    725,
    725,
    725,
    725,
    725,
    725,
    725,
    725,
    725,
    725,
    725,
    725,
    725,
    725,
    725,
    725,
    725,
    725,
    725,
    725,
    725,
    725,
    725,
    725,
    725,
    725,
    725,
    725,
    725,
    725,
    725,
    725,
    725,
    725,
    725,
    725,
    725,
    725,
    725,
    725,
    725,
    725,
    725,
    725,
    725,
    725,
    725,
    725,
    725,
    725,
    725,
    725,
    725,
    725,
    725,
    725,
    725,
    725,
    725,
    725,
    725,
    725,
    725,
    725,
    725,
    725,
    725,
    725,
    725,
    725,
    725,
    725,
    725,
    725,
    725,
    725,
    725,
    725,
    725,
    725,
    725,
    725,
    725,
    725,
    725,
    725,
    725,
    725,
    725,
    725,
    725,
    725,
    725,
    725,
    725,
    725,
    725,
    725,
    725,
    725,
    725,
    725,
    725,
    725,
    725,
    725,
    725,
    725,
    725,
    725,
    725,
    725,
    725,
    725,
    725,
    725,
    725,
    725,
    725,
    725,
    725,
    725,
    725,
    725,
    725,
    725,
    725,
    725,
    725,
    725,
    725,
    725,
    725,
    725,
    725,
    725,
    725,
    725,
    725,
    725,
    725,
    725,
    725,
    725,
    725,
    725,
    725,
    725,
    725,
    725,
    725,
    725,
    725,
    725,
    725,
    725,
    725,
    725,
    725,
    725,
    725,
    725,
    725,
    725,
    725,
    725,
    725,
    725,
    725,
    725,
    725,
    725,
    725,
    725,
    725,
    725,
    725,
    725,
    725,
    725,
    725,
    725,
    725,
    725,
    725,
    725,
    725,
    725,
    725,
    725,
    725,
    725,
    725,
    725,
    725,
    725,
    725,
    725,
    725,
    725,
    725,
    725,
    725,
    725,
    725,
    725,
    725,
    725,
    725,
    725,
    725,
    725,
    725,
    725,
    725,
    725,
    725,
    725,
    725,
    725,
    725,
    725,
    725,
    725,
    725,
    725,
    725,
    725,
    725,
    725,
    725,
    725,
    725,
    725,
    725,
    725,
    725,
    725,
    725,
    725,
    725,
    725,
    725,
    725,
    725,
    725,
    725,
    725,
    725,
    725,
    725,
    725,
    725,
    725,
    725,
    725,
    725,
    725,
    725,
    725,
    725,
    725,
    725,
    725,
    725,
    725,
    725,
    725,
    725,
    725,
    725,
    725,
    725,
    725,
    725,
    725,
    725,
    725,
    725,
    725,
    725,
    725,
    725,
    725,
    725,
    725,
    725,
    725,
    725,
    725,
    725,
    725,
    725,
    725,
    725,
    725,
    725,
    725,
    725,
    725,
    725,
    725,
    725,
    725,
    725,
    725,
    725,
    725,
    725,
    725,
    725,
    725,
    725,
    725,
    725,
    725,
    725,
    725,
    725,
    725,
    725,
    725,
    725,
    725,
    725,
    725,
    725,
    725,
    725,
    725,
    725,
    725,
    725,
    725,
    725,
    725,
    725,
    725,
    725,
    725,
    725,
    725,
    725,
    725,
    725,
    725,
    725,
    725,
    725,
    725,
    725,
    725,
    725,
    725,
    725,
    725,
    725,
    725,
    725,
    725,
    725,
    725,
    725,
    725,
    725,
    725,
    725,
    725,
    725,
    725,
    725,
    725,
    725,
    725,
    725,
    725,
    725,
    725,
    725,
    725,
    725,
    725,
    725,
    725,
    725,
    725,
    725,
    725,
    725,
    725,
    725,
    725,
    725,
    725,
    725,
    725,
    725,
    725,
    725,
    725,
    725,
    725,
    725,
    725,
    725,
    725,
    725,
    725,
    725,
    725,
    725,
    725,
    725,
    725,
    725,
    725,
    725,
    725,
    725,
    725,
    725,
    725,
    725,
    725,
    725,
    725,
    725,
    725,
    725,
    725,
    725,
    725,
    725,
    725,
    725,
    725,
    725,
    725,
    725,
    725,
    725,
    725,
    725,
    725,
    725,
    725,
    725,
    725,
    725,
    725,
    725,
    725,
    725,
    725,
    725,
    725,
    725,
    725,
    725,
    725,
    725,
    725,
    725,
    725,
    725,
    725,
    725,
    725,
    725,
    725,
    725,
    725,
    725,
    725,
    725,
    725,
    725,
    725,
    725,
    725,
    725,
    725,
    725,
    725,
    725,
    725,
    725,
    725,
    725,
    725,
    725,
    725,
    725,
    725,
    725,
    725,
    725,
    725,
    725,
    725,
    725,
    725,
    725,
    725,
    725,
    725,
    725,
    725,
    725,
    725,
    725,
    725,
    725,
    725,
    725,
    725,
    725,
    725,
    725,
    725,
    725,
    725,
    725,
    725,
    725,
    725,
    725,
    725,
    725,
    725,
    725,
    725,
    725,
    725,
    725,
    725,
    725,
    725,
    725,
    725,
    725,
    725,
    725,
    725,
    725,
    725,
    725,
    725,
    725,
    725,
    725,
    725,
    725,
    725,
    725,
    725,
    725,
    725,
    725,
    725,
    725,
    725,
    725,
    725,
    725,
    725,
    725,
    725,
    725,
    725,
    725,
    725,
    725,
    725,
    725,
    725,
    725,
    725,
    725,
    725,
    725,
    725,
    725,
    725,
    725,
    725,
    725,
    725,
    725,
    725,
    725,
    725,
    725,
    725,
    725,
    725,
    725,
    725,
    725,
    725,
    725,
    725,
    725,
    725,
    725,
    725,
    725,
    725,
    725,
    725,
    725,
    725,
    725,
    725,
    725,
    725,
    725,
    725,
    725,
    725,
    725,
    725,
    725,
    725,
    725,
    725,
    725,
    725,
    725,
    725,
    725,
    725,
    725,
    725,
    725,
    725,
    725,
    725,
    725,
    725,
    725,
    725,
    725,
    725,
    725,
    725,
    725,
    725,
    725,
    725,
    725,
    725,
    725,
    725,
    725,
    725,
    725,
    725,
    725,
    725,
    725,
    725,
    725,
    725,
    725,
    725,
    725,
    725,
    725,
    725,
    725,
    725,
    725,
    725,
    725,
    725,
    725,
    725,
    725,
    725,
    725,
    725,
    725,
    725,
    725,
    725,
    725,
    725,
    725,
    725,
    725,
    725,
    725,
    725,
    725,
    725,
    725,
    725,
    725,
    725,
    725,
    725,
    725,
    725,
    725,
    725,
    725,
    725,
    725,
    725,
    725,
    725,
    725,
    725,
    725,
    725,
    725,
    725,
    725,
    725,
    725,
    725,
    725,
    725,
    725,
    725,
    725,
    725,
    725,
    725,
    725,
    725,
    725,
    725,
    725,
    725,
    725,
    725,
    725,
    725,
    725,
    725,
    725,
    725,
    725,
    725,
    725,
    725,
    725,
    725,
    725,
    725,
    725,
    725,
    725,
    725,
    725,
    725,
    725,
    725,
    725,
    725,
    725,
    725,
    725,
    725,
    725,
    725,
    725,
    725,
    725,
    725,
    725,
    725,
    725,
    725,
    725,
    725,
    725,
    725,
    725,
    725,
    725,
    725,
    725,
    725,
    725,
    725,
    725,
    725,
    725,
    725,
    725,
    725,
    725,
    725,
    725,
    725,
    725,
    725,
    725,
    725,
    725,
    725,
    725,
    725,
    725,
    725,
    725,
    725,
    725,
    725,
    725,
    725,
    725,
    725,
    725,
    725,
    725,
    725,
    725,
    725,
    725,
    725,
    725,
    725,
    725,
    725,
    725,
    725,
    725,
    725,
    725,
    725,
    725,
    725,
    725,
    725,
    725,
    725,
    725,
    725,
    725,
    725,
    725,
    725,
    725,
    725,
    725,
    725,
    725,
    725,
    725,
    725,
    725,
    725,
    725,
    725,
    725,
    725,
    725,
    725,
    725,
    725,
    725,
    725,
    725,
    725,
    725,
    725,
    725,
    725,
    725,
    725,
    725,
    725,
    725,
    725,
    725,
    725,
    725,
    725,
    725,
    725,
    725,
    725,
    725,
    725,
    725,
    725,
    725,
    725,
    725,
    725,
    725,
    725,
    725,
    725,
    725,
    725,
    725,
    725,
    725,
    725,
    725,
    725,
    725,
    725,
    725,
    725,
    725,
    725,
    725,
    725,
    725,
    725,
    725,
    725,
    725,
    725,
    725,
    725,
    725,
    725,
    725,
    725,
    725,
    725,
    725,
    725,
    725,
    725,
    725,
    725,
    725,
    725,
    725,
    725,
    725,
    725,
    725,
    725,
    725,
    725,
    725,
    725,
    725,
    725,
    725,
    725,
    725,
    725,
    725,
    725,
    725,
    725,
    725,
    725,
    725,
    725,
    725,
    725,
    725,
    725,
    725,
    725,
    725,
    725,
    725,
    725,
    725,
    725,
    725,
    725,
    725,
    725,
    725,
    725,
    725,
    725,
    725,
    725,
    725,
    725,
    725,
    725,
    725,
    725,
    725,
    725,
    725,
    725,
    725,
    725,
    725,
    725,
    725,
    725,
    725,
    725,
    725,
    725,
    725,
    725,
    725,
    725,
    725,
    725,
    725,
    725,
    725,
    725,
    725,
    725,
    725,
    725,
    725,
    725,
    725,
    725,
    725,
    725,
    725,
    725,
    725,
    725,
    725,
    725,
    725,
    725,
    725,
    725,
    725,
    725,
    725,
    725,
    725,
    725,
    725,
    725,
    725,
    725,
    725,
    725,
    725,
    725,
    725,
    725,
    725,
    725,
    725,
    725,
    725,
    725,
    725,
    725,
    725,
    725,
    725,
    725,
    725,
    725,
    725,
    725,
    725,
    725,
    725,
    725,
    725,
    725,
    725,
    725,
    725,
    725,
    725,
    725,
    725,
    725,
    725,
    725,
    725,
    725,
    725,
    725,
    725,
    725,
    725,
    725,
    725,
    725,
    725,
    725,
    725,
    725,
    725,
    725,
    725,
    725,
    725,
    725,
    725,
    725,
    725,
    725,
    725,
    725,
    725,
    725,
    725,
    725,
    725,
    725,
    725,
    725,
    725,
    725,
    725,
    725,
    725,
    725,
    725,
    725,
    725,
    725,
    725,
    725,
    725,
    725,
    725,
    725,
    725,
    725,
    725,
    725,
    725,
    725,
    725,
    725,
    725,
    725,
    725,
    725,
    725,
    725,
    725,
    725,
    725,
    725,
    725,
    725,
    725,
    725,
    725,
    725,
    725,
    725,
    725,
    725,
    725,
    725,
    725,
    725,
    725,
    725,
    725,
    725,
    725,
    725,
    725,
    725,
    725,
    725,
    725,
    725,
    725,
    725,
    725,
    725,
    725,
    725,
    725,
    725,
    725,
    725,
    725,
    725,
    725,
    725,
    725,
    725,
    725,
    725,
    725,
    725,
    725,
    725,
    725,
    725,
    725,
    725,
    725,
    725,
    725,
    725,
    725,
    725,
    725,
    725,
    725,
    725,
    725,
    725,
    725,
    725,
    725,
    725,
    725,
    725,
    725,
    725,
    725,
    725,
    725,
    725,
    725,
    725,
    725,
    725,
    725,
    725,
    725,
    725,
    725,
    725,
    725,
    725,
    725,
    725,
    725,
    725,
    725,
    725,
    725,
    725,
    725,
    725,
    725,
    725,
    725,
    725,
    725,
    725,
    725,
    725,
    725,
    725,
    725,
    725,
    725,
    725,
    725,
    725,
    725,
    725,
    725,
    725,
    725,
    725,
    725,
    725,
    725,
    725,
    725,
    725,
    725,
    725,
    725,
    725,
    725,
    725,
    725,
    725,
    725,
    725,
    725,
    725,
    725,
    725,
    725,
    725,
    725,
    725,
    725,
    725,
    725,
    725,
    725,
    725,
    725,
    725,
    725,
    725,
    725,
    725,
    725,
    725,
    725,
    725,
    725,
    725,
    725,
    725,
    725,
    725,
    725,
    725,
    725,
    725,
    725,
    725,
    725,
    725,
    725,
    725,
    725,
    725,
    725,
    725,
    725,
    725,
    725,
    725,
    725,
    725,
    725,
    725,
    725,
    725,
    725,
    725,
    725,
    725,
    725,
    725,
    725,
    725,
    725,
    725,
    725,
    725,
    725,
    725,
    725,
    725,
    725,
    725,
    725,
    725,
    725,
    725,
    725,
    725,
    725,
    725,
    725,
    725,
    725,
    725,
    725,
    725,
    725,
    725,
    725,
    725,
    725,
    725,
    725,
    725,
    725,
    725,
    725,
    725,
    725,
    725,
    725,
    725,
    725,
    725,
    725,
    725,
    725,
    725,
    725,
    725,
    725,
    725,
    725,
    725,
    725,
    725,
    725,
    725,
    725,
    725,
    725,
    725,
    725,
    725,
    725,
    725,
    725,
    725,
    725,
    725,
    725,
    725,
    725,
    725,
    725,
    725,
    725,
    725,
    725,
    725,
    725,
    725,
    725,
    725,
    725,
    725,
    725,
    725,
    725,
    725,
    725,
    725,
    725,
    725,
    725,
    725,
    725,
    725,
    725,
    725,
    725,
    725,
    725,
    725,
    725,
    725,
    725,
    725,
    725,
    725,
    725,
    725,
    725,
    725,
    725,
    725,
    725,
    725,
    725,
    725,
    725,
    725,
    725,
    725,
    725,
    725,
    725,
    725,
    725,
    725,
    725,
    725,
    725,
    725,
    725,
    725,
    725,
    725,
    725,
    725,
    725,
    725,
    725,
    725,
    725,
    725,
    725,
    725,
    725,
    725,
    725,
    725,
    725,
    725,
    725,
    725,
    725,
    725,
    725,
    725,
    725,
    725,
    725,
    725,
    725,
    725,
    725,
    725,
    725,
    725,
    725,
    725,
    725,
    725,
    725,
    725,
    725,
    725,
    725,
    725,
    725,
    725,
    725,
    725,
    725,
    725,
    725,
    725,
    725,
    725,
    725,
    725,
    725,
    725,
    725,
    725,
    725,
    725,
    725,
    725,
    725,
    725,
    725,
    725,
    725,
    725,
    725,
    725,
    725,
    725,
    725,
    725,
    725,
    725,
    725,
    725,
    725,
    725,
    725,
    725,
    725,
    725,
    725,
    725,
    725,
    725,
    725,
    725,
    725,
    725,
    725,
    725,
    725,
    725,
    725,
    725,
    725,
    725,
    725,
    725,
    725,
    725,
    725,
    725,
    725,
    725,
    725,
    725,
    725,
    725,
    725,
    725,
    725,
    725,
    725,
    725,
    725,
    725,
    725,
    725,
    725,
    725,
    725,
    725,
    725,
    725,
    725,
    725,
    725,
    725,
    725,
    725,
    725,
    725,
    725,
    725,
    725,
    725,
    725,
    725,
    725,
    725,
    725,
    725,
    725,
    725,
    725,
    725,
    725,
    725,
    725,
    725,
    725,
    725,
    725,
    725,
    725,
    725,
    725,
    725,
    725,
    725,
    725,
    725,
    725,
    725,
    725,
    725,
    725,
    725,
    725,
    725,
    725,
    725,
    725,
    725,
    725,
    725,
    725,
    725,
    725,
    725,
    725,
    725,
    725,
    725,
    725,
    725,
    725,
    725,
    725,
    725,
    725,
    725,
    725,
    725,
    725,
    725,
    725,
    725,
    725,
    725,
    725,
    725,
    725,
    725,
    725,
    725,
    725,
    725,
    725,
    725,
    725,
    725,
    725,
    725,
    725,
    725,
    725,
    725,
    725,
    725,
    725,
    725,
    725,
    725,
    725,
    725,
    725,
    725,
    725,
    725,
    725,
    725,
    725,
    725,
    725,
    725,
    725,
    725,
    725,
    725,
    725,
    725,
    725,
    725,
    725,
    725,
    725,
    725,
    725,
    725,
    725,
    725,
    725,
    725,
    725,
    725,
    725,
    725,
    725,
    725,
    725,
    725,
    725,
    725,
    725,
    725,
    725,
    725,
    725,
    725,
    725,
    725,
    725,
    725,
    725,
    725,
    725,
    725,
    725,
    725,
    725,
    725,
    725,
    725,
    725,
    725,
    725,
    725,
    725,
    725,
    725,
    725,
    725,
    725,
    725,
    725,
    725,
    725,
    725,
    725,
    725,
    725,
    725,
    725,
    725,
    725,
    725,
    725,
    725,
    725,
    725,
    725,
    725,
    725,
    725,
    725,
    725,
    725,
    725,
    725,
    725,
    725,
    725,
    725,
    725,
    725,
    725,
    725,
    725,
    725,
    725,
    725,
    725,
    725,
    725,
    725,
    725,
    725,
    725,
    725,
    725,
    725,
    725,
    725,
    725,
    725,
    725,
    725,
    725,
    725,
    725,
    725,
    725,
    725,
    725,
    725,
    725,
    725,
    725,
    725,
    725,
    725,
    725,
    725,
    725,
    725,
    725,
    725,
    725,
    725,
    725,
    725,
    725,
    725,
    725,
    725,
    725,
    725,
    725,
    725,
    725,
    725,
    725,
    725,
    725,
    725,
    725,
    725,
    725,
    725,
    725,
    725,
    725,
    725,
    725,
    725,
    725,
    725,
    725,
    725,
    725,
    725,
    725,
    725,
    725,
    725,
    725,
    725,
    725,
    725,
    725,
    725,
    725,
    725,
    725,
    725,
    725,
    725,
    725,
    725,
    725,
    725,
    725,
    725,
    725,
    725,
    725,
    725,
    725,
    725,
    725,
    725,
    725,
    725,
    725,
    725,
    725,
    725,
    725,
    725,
    725,
    725,
    725,
    725,
    725,
    725,
    725,
    725,
    725,
    725,
    725,
    725,
    725,
    725,
    725,
    725,
    725,
    725,
    725,
    725,
    725,
    725,
    725,
    725,
    725,
    725,
    725,
    725,
    725,
    725,
    725,
    725,
    725,
    725,
    725,
    725,
    725,
    725,
    725,
    725,
    725,
    725,
    725,
    725,
    725,
    725,
    725,
    725,
    725,
    725,
    725,
    725,
    725,
    725,
    725,
    725,
    725,
    725,
    725,
    725,
    725,
    725,
    725,
    725,
    725,
    725,
    725,
    725,
    725,
    725,
    725,
    725,
    725,
    725,
    725,
    725,
    725,
    725,
    725,
    725,
    725,
    725,
    725,
    725,
    725,
    725,
    725,
    725,
    725,
    725,
    725,
    725,
    725,
    725,
    725,
    725,
    725,
    725,
    725,
    725,
    725,
    725,
    725,
    725,
    725,
    725,
    725,
    725,
    725,
    725,
    725,
    725,
    725,
    725,
    725,
    725,
    725,
    725,
    725,
    725,
    725,
    725,
    725,
    725,
    725,
    725,
    725,
    725,
    725,
    725,
    725,
    725,
    725,
    725,
    725,
    725,
    725,
    725,
    725,
    725,
    725,
    725,
    725,
    725,
    725,
    725,
    725,
    725,
    725,
    725,
    725,
    725,
    725,
    725,
    725,
    725,
    725,
    725,
    725,
    725,
    725,
    725,
    725,
    725,
    725,
    725,
    725,
    725,
    725,
    725,
    725,
    725,
    725,
    725,
    725,
    725,
    725,
    725,
    725,
    725,
    725,
    725,
    725,
    725,
    725,
    725,
    725,
    725,
    725,
    725,
    725,
    725,
    725,
    725,
    725,
    725,
    725,
    725,
    725,
    725,
    725,
    725,
    725,
    725,
    725,
    725,
    725,
    725,
    725,
    725,
    725,
    725,
    725,
    725,
    725,
    725,
    725,
    725,
    725,
    725,
    725,
    725,
    725,
    725,
    725,
    725,
    725,
    725,
    725,
    725,
    725,
    725,
    725,
    725,
    725,
    725,
    725,
    725,
    725,
    725,
    725,
    725,
    725,
    725,
    725,
    725,
    725,
    725,
    725,
    725,
    725,
    725,
    725,
    725,
    725,
    725,
    725,
    725,
    725,
    725,
    725,
    725,
    725,
    725,
    725,
    725,
    725,
    725,
    725,
    725,
    725,
    725,
    725,
    725,
    725,
    725,
    725,
    725,
    725,
    725,
    725,
    725,
    725,
    725,
    725,
    725,
    725,
    725,
    725,
    725,
    725,
    725,
    725,
    725,
    725,
    725,
    725,
    725,
    725,
    725,
    725,
    725,
    725,
    725,
    725,
    725,
    725,
    725,
    725,
    725,
    725,
    725,
    725,
    725,
    725,
    725,
    725,
    725,
    725,
    725,
    725,
    725,
    725,
    725,
    725,
    725,
    725,
    725,
    725,
    725,
    725,
    725,
    725,
    725,
    725,
    725,
    725,
    725,
    725,
    725,
    725,
    725,
    725,
    725,
    725,
    725,
    725,
    725,
    725,
    725,
    725,
    725,
    725,
    725,
    725,
    725,
    725,
    725,
    725,
    725,
    725,
    725,
    725,
    725,
    725,
    725,
    725,
    725,
    725,
    725,
    725,
    725,
    725,
    725,
    725,
    725,
    725,
    725,
    725,
    725,
    725,
    725,
    725,
    725,
    725,
    725,
    725,
    725,
    725,
    725,
    725,
    725,
    725,
    725,
    725,
    725,
    725,
    725,
    725,
    725,
    725,
    725,
    725,
    725,
    725,
    725,
    725,
    725,
    725,
    725,
    725,
    725,
    725,
    725,
    725,
    725,
    725,
    725,
    725,
    725,
    725,
    725,
    725,
    725,
    725,
    725,
    725,
    725,
    725,
    725,
    725,
    725,
    725,
    725,
    725,
    725,
    725,
    725,
    725,
    725,
    725,
    725,
    725,
    725,
    725,
    725,
    725,
    725,
    725,
    725,
    725,
    725,
    725,
    725,
    725,
    725,
    725,
    725,
    725,
    725,
    725,
    725,
    725,
    725,
    725,
    725,
    725,
    725,
    725,
    725,
    725,
    725,
    725,
    725,
    725,
    725,
    725,
    725,
    725,
    725,
    725,
    725,
    725,
    725,
    725,
    725,
    725,
    725,
    725,
    725,
    725,
    725,
    725,
    725,
    725,
    725,
    725,
    725,
    725,
    725,
    725,
    725,
    725,
    725,
    725,
    725,
    725,
    725,
    725,
    725,
    725,
    725,
    725,
    725,
    725,
    725,
    725,
    725,
    725,
    725,
    725,
    725,
    725,
    725,
    725,
    725,
    725,
    725,
    725,
    725,
    725,
    725,
    725,
    725,
    725,
    725,
    725,
    725,
    725,
    725,
    725,
    725,
    725,
    725,
    725,
    725,
    725,
    725,
    725,
    725,
    725,
    725,
    725,
    725,
    725,
    725,
    725,
    725,
    725,
    725,
    725,
    725,
    725,
    725,
    725,
    725,
    725,
    725,
    725,
    725,
    725,
    725,
    725,
    725,
    725,
    725,
    725,
    725,
    725,
    725,
    725,
    725,
    725,
    725,
    725,
    725,
    725,
    725,
    725,
    725,
    725,
    725,
    725,
    725,
    725,
    725,
    725,
    725,
    725,
    725,
    725,
    725,
    725,
    725,
    725,
    725,
    725,
    725,
    725,
    725,
    725,
    725,
    725,
    725,
    725,
    725,
    725,
    725,
    725,
    725,
    725,
    725,
    725,
    725,
    725,
    725,
    725,
    725,
    725,
    725,
    725
   ]
  },
  {
   "name": "collisions",
   "type": "tilelayer",
   "visible": false,
   "opacity": 1,
   "x": 0,
   "y": 0,
   "width": 44,
   "height": 86,
   "data": [
    3,
    3,
    3,
    3,
    3,
    3,
    3,
    3,
    3,
    3,
    3,
    3,
    3,
    3,
    3,
    3,
    3,
    3,
    3,
    3,
    3,
    3,
    3,
    3,
    3,
    3,
    3,
    3,
    3,
    3,
    3,
    3,
    3,
    3,
    3,
    3,
    3,
    3,
    3,
    3,
    3,
    3,
    3,
    3,
    3,
    0,
    0,
    0,
    0,
    0,
    0,
    0,
    0,
    0,
    0,
    0,
    0,
    0,
    0,
    0,
    0,
    0,
    0,
    0,
    0,
    0,
    0,
    0,
    0,
    0,
    0,
    0,
    0,
    0,
    0,
    0,
    0,
    0,
    0,
    0,
    0,
    0,
    0,
    0,
    0,
    0,
    0,
    3,
    3,
    0,
    0,
    0,
    0,
    0,
    0,
    0,
    0,
    0,
    0,
    0,
    0,
    0,
    0,
    0,
    0,
    0,
    0,
    0,
    0,
    0,
    0,
    0,
    0,
    0,
    0,
    0,
    0,
    0,
    0,
    0,
    0,
    0,
    0,
    0,
    0,
    0,
    0,
    0,
    0,
    0,
    0,
    3,
    3,
    0,
    0,
    0,
    0,
    0,
    0,
    0,
    0,
    0,
    0,
    0,
    0,
    0,
    0,
    0,
    0,
    0,
    0,
    0,
    0,
    0,
    0,
    0,
    0,
    0,
    0,
    0,
    0,
    0,
    0,
    0,
    0,
    0,
    0,
    0,
    0,
    0,
    0,
    0,
    0,
    0,
    0,
    3,
    3,
    0,
    0,
    0,
    0,
    0,
    0,
    0,
    0,
    0,
    0,
    0,
    0,
    0,
    0,
    0,
    0,
    0,
    0,
    0,
    0,
    0,
    0,
    0,
    0,
    0,
    0,
    0,
    0,
    0,
    0,
    0,
    0,
    0,
    0,
    0,
    0,
    0,
    0,
    0,
    0,
    0,
    0,
    3,
    3,
    0,
    0,
    0,
    0,
    0,
    0,
    0,
    0,
    0,
    0,
    0,
    0,
    0,
    0,
    0,
    0,
    0,
    0,
    0,
    0,
    0,
    0,
    0,
    0,
    0,
    0,
    0,
    0,
    0,
    0,
    0,
    0,
    0,
    0,
    0,
    0,
    0,
    0,
    0,
    0,
    0,
    0,
    3,
    3,
    0,
    0,
    0,
    0,
    0,
    0,
    0,
    0,
    0,
    0,
    0,
    0,
    0,
    0,
    0,
    0,
    0,
    0,
    0,
    0,
    0,
    0,
    0,
    0,
    0,
    0,
    0,
    0,
    0,
    0,
    0,
    0,
    0,
    0,
    0,
    0,
    0,
    0,
    0,
    0,
    0,
    0,
    3,
    3,
    0,
    0,
    0,
    0,
    0,
    0,
    0,
    0,
    0,
    0,
    0,
    0,
    0,
    0,
    0,
    0,
    0,
    0,
    0,
    0,
    0,
    0,
    0,
    0,
    0,
    0,
    0,
    0,
    0,
    0,
    0,
    0,
    0,
    0,
    0,
    0,
    0,
    0,
    0,
    0,
    0,
    0,
    3,
    3,
    0,
    0,
    0,
    0,
    0,
    0,
    0,
    0,
    0,
    0,
    0,
    0,
    0,
    0,
    0,
    0,
    0,
    0,
    0,
    0,
    0,
    0,
    0,
    0,
    0,
    0,
    0,
    0,
    0,
    0,
    0,
    0,
    0,
    0,
    0,
    0,
    0,
    0,
    0,
    0,
    0,
    0,
    3,
    3,
    0,
    0,
    0,
    0,
    0,
    0,
    0,
    0,
    0,
    0,
    0,
    0,
    0,
    0,
    0,
    0,
    0,
    0,
    0,
    0,
    0,
    0,
    0,
    0,
    0,
    0,
    0,
    0,
    0,
    0,
    0,
    0,
    0,
    0,
    0,
    0,
    0,
    0,
    0,
    0,
    0,
    0,
    3,
    3,
    0,
    0,
    0,
    0,
    0,
    0,
    0,
    0,
    0,
    0,
    0,
    0,
    0,
    0,
    0,
    0,
    0,
    0,
    0,
    0,
    0,
    0,
    0,
    0,
    0,
    0,
    0,
    0,
    0,
    0,
    0,
    0,
    0,
    0,
    0,
    0,
    0,
    0,
    0,
    0,
    0,
    0,
    3,
    3,
    0,
    0,
    0,
    0,
    0,
    0,
    0,
    0,
    0,
    0,
    0,
    0,
    0,
    0,
    0,
    0,
    0,
    0,
    0,
    0,
    0,
    0,
    0,
    0,
    0,
    0,
    0,
    0,
    0,
    0,
    0,
    0,
    0,
    0,
    0,
    0,
    0,
    0,
    0,
    0,
    0,
    0,
    3,
    3,
    0,
    0,
    0,
    0,
    0,
    0,
    0,
    0,
    0,
    0,
    0,
    0,
    0,
    0,
    0,
    0,
    0,
    0,
    0,
    0,
    0,
    0,
    0,
    0,
    0,
    0,
    0,
    0,
    0,
    0,
    0,
    0,
    0,
    0,
    0,
    0,
    0,
    0,
    0,
    0,
    0,
    0,
    3,
    3,
    0,
    0,
    0,
    0,
    0,
    0,
    0,
    0,
    0,
    0,
    0,
    0,
    0,
    0,
    0,
    0,
    0,
    0,
    0,
    0,
    0,
    0,
    0,
    0,
    0,
    0,
    0,
    0,
    0,
    0,
    0,
    0,
    0,
    0,
    0,
    0,
    0,
    0,
    0,
    0,
    0,
    0,
    3,
    3,
    0,
    0,
    0,
    0,
    0,
    0,
    0,
    0,
    0,
    0,
    0,
    0,
    0,
    0,
    0,
    0,
    0,
    0,
    0,
    0,
    0,
    0,
    0,
    0,
    0,
    0,
    0,
    0,
    0,
    0,
    0,
    0,
    0,
    0,
    0,
    0,
    0,
    0,
    0,
    0,
    0,
    0,
    3,
    3,
    0,
    0,
    0,
    0,
    0,
    0,
    0,
    0,
    0,
    0,
    0,
    0,
    0,
    0,
    0,
    0,
    0,
    0,
    0,
    0,
    0,
    0,
    0,
    0,
    0,
    0,
    0,
    0,
    0,
    0,
    0,
    0,
    0,
    0,
    0,
    0,
    0,
    0,
    0,
    0,
    0,
    0,
    3,
    3,
    0,
    0,
    0,
    0,
    0,
    0,
    0,
    0,
    0,
    0,
    0,
    0,
    0,
    0,
    0,
    0,
    0,
    0,
    0,
    0,
    0,
    0,
    0,
    0,
    0,
    0,
    0,
    0,
    0,
    0,
    0,
    0,
    0,
    0,
    0,
    0,
    0,
    0,
    0,
    0,
    0,
    0,
    3,
    3,
    0,
    0,
    0,
    0,
    0,
    0,
    0,
    0,
    0,
    0,
    0,
    0,
    0,
    0,
    0,
    0,
    0,
    0,
    0,
    0,
    0,
    0,
    0,
    0,
    0,
    0,
    0,
    0,
    0,
    0,
    0,
    0,
    0,
    0,
    0,
    0,
    0,
    0,
    0,
    0,
    0,
    0,
    3,
    3,
    0,
    0,
    0,
    0,
    0,
    0,
    0,
    0,
    0,
    0,
    0,
    0,
    0,
    0,
    0,
    0,
    0,
    0,
    0,
    0,
    0,
    0,
    0,
    0,
    0,
    0,
    0,
    0,
    0,
    0,
    0,
    0,
    0,
    0,
    0,
    0,
    0,
    0,
    0,
    0,
    0,
    0,
    3,
    3,
    0,
    0,
    0,
    0,
    0,
    0,
    0,
    0,
    0,
    0,
    0,
    0,
    0,
    0,
    0,
    0,
    0,
    0,
    0,
    0,
    0,
    0,
    0,
    0,
    0,
    0,
    0,
    0,
    0,
    0,
    0,
    0,
    0,
    0,
    0,
    0,
    0,
    0,
    0,
    0,
    0,
    0,
    3,
    3,
    0,
    0,
    0,
    0,
    0,
    0,
    0,
    0,
    0,
    0,
    0,
    0,
    0,
    0,
    0,
    0,
    0,
    0,
    0,
    0,
    0,
    0,
    0,
    0,
    0,
    0,
    0,
    0,
    0,
    0,
    0,
    0,
    0,
    0,
    0,
    0,
    0,
    0,
    0,
    0,
    0,
    0,
    3,
    3,
    0,
    0,
    0,
    0,
    0,
    0,
    0,
    0,
    0,
    0,
    0,
    0,
    0,
    0,
    0,
    0,
    0,
    0,
    0,
    0,
    0,
    0,
    0,
    0,
    0,
    0,
    0,
    0,
    0,
    0,
    0,
    0,
    0,
    0,
    0,
    0,
    0,
    0,
    0,
    0,
    0,
    0,
    3,
    3,
    0,
    0,
    0,
    0,
    0,
    0,
    0,
    0,
    0,
    0,
    0,
    0,
    0,
    0,
    0,
    0,
    0,
    0,
    0,
    0,
    0,
    0,
    0,
    0,
    0,
    0,
    0,
    0,
    0,
    0,
    0,
    0,
    0,
    0,
    0,
    0,
    0,
    0,
    0,
    0,
    0,
    0,
    3,
    3,
    0,
    0,
    0,
    0,
    0,
    0,
    0,
    0,
    0,
    0,
    0,
    0,
    0,
    0,
    0,
    0,
    0,
    0,
    0,
    0,
    0,
    0,
    0,
    0,
    0,
    0,
    0,
    0,
    0,
    0,
    0,
    0,
    0,
    0,
    0,
    0,
    0,
    0,
    0,
    0,
    0,
    0,
    3,
    3,
    0,
    0,
    0,
    0,
    0,
    0,
    0,
    0,
    0,
    0,
    0,
    0,
    0,
    0,
    0,
    0,
    0,
    0,
    0,
    0,
    0,
    0,
    0,
    0,
    0,
    0,
    0,
    0,
    0,
    0,
    0,
    0,
    0,
    0,
    0,
    0,
    0,
    0,
    0,
    0,
    0,
    0,
    3,
    3,
    0,
    0,
    0,
    0,
    0,
    0,
    0,
    0,
    0,
    0,
    0,
    0,
    0,
    0,
    0,
    0,
    0,
    0,
    0,
    0,
    0,
    0,
    0,
    0,
    0,
    0,
    0,
    0,
    0,
    0,
    0,
    0,
    0,
    0,
    0,
    0,
    0,
    0,
    0,
    0,
    0,
    0,
    3,
    3,
    0,
    0,
    0,
    0,
    0,
    0,
    0,
    0,
    0,
    0,
    0,
    0,
    0,
    0,
    0,
    0,
    0,
    0,
    0,
    0,
    0,
    0,
    0,
    0,
    0,
    0,
    0,
    0,
    0,
    0,
    0,
    0,
    0,
    0,
    0,
    0,
    0,
    0,
    0,
    0,
    0,
    0,
    3,
    3,
    0,
    0,
    0,
    0,
    0,
    0,
    0,
    0,
    0,
    0,
    0,
    0,
    0,
    0,
    0,
    0,
    0,
    0,
    0,
    0,
    0,
    0,
    0,
    0,
    0,
    0,
    0,
    0,
    0,
    0,
    0,
    0,
    0,
    0,
    0,
    0,
    0,
    0,
    0,
    0,
    0,
    0,
    3,
    3,
    0,
    0,
    0,
    0,
    0,
    0,
    0,
    0,
    0,
    0,
    0,
    0,
    0,
    0,
    0,
    0,
    0,
    0,
    0,
    0,
    0,
    0,
    0,
    0,
    0,
    0,
    0,
    0,
    0,
    0,
    0,
    0,
    0,
    0,
    0,
    0,
    0,
    0,
    0,
    0,
    0,
    0,
    3,
    3,
    0,
    0,
    0,
    0,
    0,
    0,
    0,
    0,
    0,
    0,
    0,
    0,
    0,
    0,
    0,
    0,
    0,
    0,
    0,
    0,
    0,
    0,
    0,
    0,
    0,
    0,
    0,
    0,
    0,
    0,
    0,
    0,
    0,
    0,
    0,
    0,
    0,
    0,
    0,
    0,
    0,
    0,
    3,
    3,
    0,
    0,
    0,
    0,
    0,
    0,
    0,
    0,
    0,
    0,
    0,
    0,
    0,
    0,
    0,
    0,
    0,
    0,
    0,
    0,
    0,
    0,
    0,
    0,
    0,
    0,
    0,
    0,
    0,
    0,
    0,
    0,
    0,
    0,
    0,
    0,
    0,
    0,
    0,
    0,
    0,
    0,
    3,
    3,
    0,
    0,
    0,
    0,
    0,
    0,
    0,
    0,
    0,
    0,
    0,
    0,
    0,
    0,
    0,
    0,
    0,
    0,
    0,
    0,
    0,
    0,
    0,
    0,
    0,
    0,
    0,
    0,
    0,
    0,
    0,
    0,
    0,
    0,
    0,
    0,
    0,
    0,
    0,
    0,
    0,
    0,
    3,
    3,
    0,
    0,
    0,
    0,
    0,
    0,
    0,
    0,
    0,
    0,
    0,
    0,
    0,
    0,
    0,
    0,
    0,
    0,
    0,
    0,
    0,
    0,
    0,
    0,
    0,
    0,
    0,
    0,
    0,
    0,
    0,
    0,
    0,
    0,
    0,
    0,
    0,
    0,
    0,
    0,
    0,
    0,
    3,
    3,
    0,
    0,
    0,
    0,
    0,
    0,
    0,
    0,
    0,
    0,
    0,
    0,
    0,
    0,
    0,
    0,
    0,
    0,
    0,
    0,
    0,
    0,
    0,
    0,
    0,
    0,
    0,
    0,
    0,
    0,
    0,
    0,
    0,
    0,
    0,
    0,
    0,
    0,
    0,
    0,
    0,
    0,
    3,
    3,
    0,
    0,
    0,
    0,
    0,
    0,
    0,
    0,
    0,
    0,
    0,
    0,
    0,
    0,
    0,
    0,
    0,
    0,
    0,
    0,
    0,
    0,
    0,
    0,
    0,
    0,
    0,
    0,
    0,
    0,
    0,
    0,
    0,
    0,
    0,
    0,
    0,
    0,
    0,
    0,
    0,
    0,
    3,
    3,
    0,
    0,
    0,
    0,
    0,
    0,
    0,
    0,
    0,
    0,
    0,
    0,
    0,
    0,
    0,
    0,
    0,
    0,
    0,
    0,
    0,
    0,
    0,
    0,
    0,
    0,
    0,
    0,
    0,
    0,
    0,
    0,
    0,
    0,
    0,
    0,
    0,
    0,
    0,
    0,
    0,
    0,
    3,
    3,
    0,
    0,
    0,
    0,
    0,
    0,
    0,
    0,
    0,
    0,
    0,
    0,
    0,
    0,
    0,
    0,
    0,
    0,
    0,
    0,
    0,
    0,
    0,
    0,
    0,
    0,
    0,
    0,
    0,
    0,
    0,
    0,
    0,
    0,
    0,
    0,
    0,
    0,
    0,
    0,
    0,
    0,
    3,
    3,
    0,
    0,
    0,
    0,
    0,
    0,
    0,
    0,
    0,
    0,
    0,
    0,
    0,
    0,
    0,
    0,
    0,
    0,
    0,
    0,
    0,
    0,
    0,
    0,
    0,
    0,
    0,
    0,
    0,
    0,
    0,
    0,
    0,
    0,
    0,
    0,
    0,
    0,
    0,
    0,
    0,
    0,
    3,
    3,
    0,
    0,
    0,
    0,
    0,
    0,
    0,
    0,
    0,
    0,
    0,
    0,
    0,
    0,
    0,
    0,
    0,
    0,
    0,
    0,
    0,
    0,
    0,
    0,
    0,
    0,
    0,
    0,
    0,
    0,
    0,
    0,
    0,
    0,
    0,
    0,
    0,
    0,
    0,
    0,
    0,
    0,
    3,
    3,
    0,
    0,
    0,
    0,
    0,
    0,
    0,
    0,
    0,
    0,
    0,
    0,
    0,
    0,
    0,
    0,
    0,
    0,
    0,
    0,
    0,
    0,
    0,
    0,
    0,
    0,
    0,
    0,
    0,
    0,
    0,
    0,
    0,
    0,
    0,
    0,
    0,
    0,
    0,
    0,
    0,
    0,
    3,
    3,
    0,
    0,
    0,
    0,
    0,
    0,
    0,
    0,
    0,
    0,
    0,
    0,
    0,
    0,
    0,
    0,
    0,
    0,
    0,
    0,
    0,
    0,
    0,
    0,
    0,
    0,
    0,
    0,
    0,
    0,
    0,
    0,
    0,
    0,
    0,
    0,
    0,
    0,
    0,
    0,
    0,
    0,
    3,
    3,
    0,
    0,
    0,
    0,
    0,
    0,
    0,
    0,
    0,
    0,
    0,
    0,
    0,
    0,
    0,
    0,
    0,
    0,
    0,
    0,
    0,
    0,
    0,
    0,
    0,
    0,
    0,
    0,
    0,
    0,
    0,
    0,
    0,
    0,
    0,
    0,
    0,
    0,
    0,
    0,
    0,
    0,
    3,
    3,
    0,
    0,
    0,
    0,
    0,
    0,
    0,
    0,
    0,
    0,
    0,
    0,
    0,
    0,
    0,
    0,
    0,
    0,
    0,
    0,
    0,
    0,
    0,
    0,
    0,
    0,
    0,
    0,
    0,
    0,
    0,
    0,
    0,
    0,
    0,
    0,
    0,
    0,
    0,
    0,
    0,
    0,
    3,
    3,
    0,
    0,
    0,
    0,
    0,
    0,
    0,
    0,
    0,
    0,
    0,
    0,
    0,
    0,
    0,
    0,
    0,
    0,
    0,
    0,
    0,
    0,
    0,
    0,
    0,
    0,
    0,
    0,
    0,
    0,
    0,
    0,
    0,
    0,
    0,
    0,
    0,
    0,
    0,
    0,
    0,
    0,
    3,
    3,
    0,
    0,
    0,
    0,
    0,
    0,
    0,
    0,
    0,
    0,
    0,
    0,
    0,
    0,
    0,
    0,
    0,
    0,
    0,
    0,
    0,
    0,
    0,
    0,
    0,
    0,
    0,
    0,
    0,
    0,
    0,
    0,
    0,
    0,
    0,
    0,
    0,
    0,
    0,
    0,
    0,
    0,
    3,
    3,
    0,
    0,
    0,
    0,
    0,
    0,
    0,
    0,
    0,
    0,
    0,
    0,
    0,
    0,
    0,
    0,
    0,
    0,
    0,
    0,
    0,
    0,
    0,
    0,
    0,
    0,
    0,
    0,
    0,
    0,
    0,
    0,
    0,
    0,
    0,
    0,
    0,
    0,
    0,
    0,
    0,
    0,
    3,
    3,
    0,
    0,
    0,
    0,
    0,
    0,
    0,
    0,
    0,
    0,
    0,
    0,
    0,
    0,
    0,
    0,
    0,
    0,
    0,
    0,
    0,
    0,
    0,
    0,
    0,
    0,
    0,
    0,
    0,
    0,
    0,
    0,
    0,
    0,
    0,
    0,
    0,
    0,
    0,
    0,
    0,
    0,
    3,
    3,
    0,
    0,
    0,
    0,
    0,
    0,
    0,
    0,
    0,
    0,
    0,
    0,
    0,
    0,
    0,
    0,
    0,
    0,
    0,
    0,
    0,
    0,
    0,
    0,
    0,
    0,
    0,
    0,
    0,
    0,
    0,
    0,
    0,
    0,
    0,
    0,
    0,
    0,
    0,
    0,
    0,
    0,
    3,
    3,
    0,
    0,
    0,
    0,
    0,
    0,
    0,
    0,
    0,
    0,
    0,
    0,
    0,
    0,
    0,
    0,
    0,
    0,
    0,
    0,
    0,
    0,
    0,
    0,
    0,
    0,
    0,
    0,
    0,
    0,
    0,
    0,
    0,
    0,
    0,
    0,
    0,
    0,
    0,
    0,
    0,
    0,
    3,
    3,
    0,
    0,
    0,
    0,
    0,
    0,
    0,
    0,
    0,
    0,
    0,
    0,
    0,
    0,
    0,
    0,
    0,
    0,
    0,
    0,
    0,
    0,
    0,
    0,
    0,
    0,
    0,
    0,
    0,
    0,
    0,
    0,
    0,
    0,
    0,
    0,
    0,
    0,
    0,
    0,
    0,
    0,
    3,
    3,
    0,
    0,
    0,
    0,
    0,
    0,
    0,
    0,
    0,
    0,
    0,
    0,
    0,
    0,
    0,
    0,
    0,
    0,
    0,
    0,
    0,
    0,
    0,
    0,
    0,
    0,
    0,
    0,
    0,
    0,
    0,
    0,
    0,
    0,
    0,
    0,
    0,
    0,
    0,
    0,
    0,
    0,
    3,
    3,
    0,
    0,
    0,
    0,
    0,
    0,
    0,
    0,
    0,
    0,
    0,
    0,
    0,
    0,
    0,
    0,
    0,
    0,
    0,
    0,
    0,
    0,
    0,
    0,
    0,
    0,
    0,
    0,
    0,
    0,
    0,
    0,
    0,
    0,
    0,
    0,
    0,
    0,
    0,
    0,
    0,
    0,
    3,
    3,
    0,
    0,
    0,
    0,
    0,
    0,
    0,
    0,
    0,
    0,
    0,
    0,
    0,
    0,
    0,
    0,
    0,
    0,
    0,
    0,
    0,
    0,
    0,
    0,
    0,
    0,
    0,
    0,
    0,
    0,
    0,
    0,
    0,
    0,
    0,
    0,
    0,
    0,
    0,
    0,
    0,
    0,
    3,
    3,
    0,
    0,
    0,
    0,
    0,
    0,
    0,
    0,
    0,
    0,
    0,
    0,
    0,
    0,
    0,
    0,
    0,
    0,
    0,
    0,
    0,
    0,
    0,
    0,
    0,
    0,
    0,
    0,
    0,
    0,
    0,
    0,
    0,
    0,
    0,
    0,
    0,
    0,
    0,
    0,
    0,
    0,
    3,
    3,
    0,
    0,
    0,
    0,
    0,
    0,
    0,
    0,
    0,
    0,
    0,
    0,
    0,
    0,
    0,
    0,
    0,
    0,
    0,
    0,
    0,
    0,
    0,
    0,
    0,
    0,
    0,
    0,
    0,
    0,
    0,
    0,
    0,
    0,
    0,
    0,
    0,
    0,
    0,
    0,
    0,
    0,
    3,
    3,
    0,
    0,
    0,
    0,
    0,
    0,
    0,
    0,
    0,
    0,
    0,
    0,
    0,
    0,
    0,
    0,
    0,
    0,
    0,
    0,
    0,
    0,
    0,
    0,
    0,
    0,
    0,
    0,
    0,
    0,
    0,
    0,
    0,
    0,
    0,
    0,
    0,
    0,
    0,
    0,
    0,
    0,
    3,
    3,
    0,
    0,
    0,
    0,
    0,
    0,
    0,
    0,
    0,
    0,
    0,
    0,
    0,
    0,
    0,
    0,
    0,
    0,
    0,
    0,
    0,
    0,
    0,
    0,
    0,
    0,
    0,
    0,
    0,
    0,
    0,
    0,
    0,
    0,
    0,
    0,
    0,
    0,
    0,
    0,
    0,
    0,
    3,
    3,
    0,
    0,
    0,
    0,
    0,
    0,
    0,
    0,
    0,
    0,
    0,
    0,
    0,
    0,
    0,
    0,
    0,
    0,
    0,
    0,
    0,
    0,
    0,
    0,
    0,
    0,
    0,
    0,
    0,
    0,
    0,
    0,
    0,
    0,
    0,
    0,
    0,
    0,
    0,
    0,
    0,
    0,
    3,
    3,
    0,
    0,
    0,
    0,
    0,
    0,
    0,
    0,
    0,
    0,
    0,
    0,
    0,
    0,
    0,
    0,
    0,
    0,
    0,
    0,
    0,
    0,
    0,
    0,
    0,
    0,
    0,
    0,
    0,
    0,
    0,
    0,
    0,
    0,
    0,
    0,
    0,
    0,
    0,
    0,
    0,
    0,
    3,
    3,
    0,
    0,
    0,
    0,
    0,
    0,
    0,
    0,
    0,
    0,
    0,
    0,
    0,
    0,
    0,
    0,
    0,
    0,
    0,
    0,
    0,
    0,
    0,
    0,
    0,
    0,
    0,
    0,
    0,
    0,
    0,
    0,
    0,
    0,
    0,
    0,
    0,
    0,
    0,
    0,
    0,
    0,
    3,
    3,
    0,
    0,
    0,
    0,
    0,
    0,
    0,
    0,
    0,
    0,
    0,
    0,
    0,
    0,
    0,
    0,
    0,
    0,
    0,
    0,
    0,
    0,
    0,
    0,
    0,
    0,
    0,
    0,
    0,
    0,
    0,
    0,
    0,
    0,
    0,
    0,
    0,
    0,
    0,
    0,
    0,
    0,
    3,
    3,
    0,
    0,
    0,
    0,
    0,
    0,
    0,
    0,
    0,
    0,
    0,
    0,
    0,
    0,
    0,
    0,
    0,
    0,
    0,
    0,
    0,
    0,
    0,
    0,
    0,
    0,
    0,
    0,
    0,
    0,
    0,
    0,
    0,
    0,
    0,
    0,
    0,
    0,
    0,
    0,
    0,
    0,
    3,
    3,
    0,
    0,
    0,
    0,
    0,
    0,
    0,
    0,
    0,
    0,
    0,
    0,
    0,
    0,
    0,
    0,
    0,
    0,
    0,
    0,
    0,
    0,
    0,
    0,
    0,
    0,
    0,
    0,
    0,
    0,
    0,
    0,
    0,
    0,
    0,
    0,
    0,
    0,
    0,
    0,
    0,
    0,
    3,
    3,
    0,
    0,
    0,
    0,
    0,
    0,
    0,
    0,
    0,
    0,
    0,
    0,
    0,
    0,
    0,
    0,
    0,
    0,
    0,
    0,
    0,
    0,
    0,
    0,
    0,
    0,
    0,
    0,
    0,
    0,
    0,
    0,
    0,
    0,
    0,
    0,
    0,
    0,
    0,
    0,
    0,
    0,
    3,
    3,
    0,
    0,
    0,
    0,
    0,
    0,
    0,
    0,
    0,
    0,
    0,
    0,
    0,
    0,
    0,
    0,
    0,
    0,
    0,
    0,
    0,
    0,
    0,
    0,
    0,
    0,
    0,
    0,
    0,
    0,
    0,
    0,
    0,
    0,
    0,
    0,
    0,
    0,
    0,
    0,
    0,
    0,
    3,
    3,
    0,
    0,
    0,
    0,
    0,
    0,
    0,
    0,
    0,
    0,
    0,
    0,
    0,
    0,
    0,
    0,
    0,
    0,
    0,
    0,
    0,
    0,
    0,
    0,
    0,
    0,
    0,
    0,
    0,
    0,
    0,
    0,
    0,
    0,
    0,
    0,
    0,
    0,
    0,
    0,
    0,
    0,
    3,
    3,
    0,
    0,
    0,
    0,
    0,
    0,
    0,
    0,
    0,
    0,
    0,
    0,
    0,
    0,
    0,
    0,
    0,
    0,
    0,
    0,
    0,
    0,
    0,
    0,
    0,
    0,
    0,
    0,
    0,
    0,
    0,
    0,
    0,
    0,
    0,
    0,
    0,
    0,
    0,
    0,
    0,
    0,
    3,
    3,
    0,
    0,
    0,
    0,
    0,
    0,
    0,
    0,
    0,
    0,
    0,
    0,
    0,
    0,
    0,
    0,
    0,
    0,
    0,
    0,
    0,
    0,
    0,
    0,
    0,
    0,
    0,
    0,
    0,
    0,
    0,
    0,
    0,
    0,
    0,
    0,
    0,
    0,
    0,
    0,
    0,
    0,
    3,
    3,
    0,
    0,
    0,
    0,
    0,
    0,
    0,
    0,
    0,
    0,
    0,
    0,
    0,
    0,
    0,
    0,
    0,
    0,
    0,
    0,
    0,
    0,
    0,
    0,
    0,
    0,
    0,
    0,
    0,
    0,
    0,
    0,
    0,
    0,
    0,
    0,
    0,
    0,
    0,
    0,
    0,
    0,
    3,
    3,
    0,
    0,
    0,
    0,
    0,
    0,
    0,
    0,
    0,
    0,
    0,
    0,
    0,
    0,
    0,
    0,
    0,
    0,
    0,
    0,
    0,
    0,
    0,
    0,
    0,
    0,
    0,
    0,
    0,
    0,
    0,
    0,
    0,
    0,
    0,
    0,
    0,
    0,
    0,
    0,
    0,
    0,
    3,
    3,
    0,
    0,
    0,
    0,
    0,
    0,
    0,
    0,
    0,
    0,
    0,
    0,
    0,
    0,
    0,
    0,
    0,
    0,
    0,
    0,
    0,
    0,
    0,
    0,
    0,
    0,
    0,
    0,
    0,
    0,
    0,
    0,
    0,
    0,
    0,
    0,
    0,
    0,
    0,
    0,
    0,
    0,
    3,
    3,
    0,
    0,
    0,
    0,
    0,
    0,
    0,
    0,
    0,
    0,
    0,
    0,
    0,
    0,
    0,
    0,
    0,
    0,
    0,
    0,
    0,
    0,
    0,
    0,
    0,
    0,
    0,
    0,
    0,
    0,
    0,
    0,
    0,
    0,
    0,
    0,
    0,
    0,
    0,
    0,
    0,
    0,
    3,
    3,
    0,
    0,
    0,
    0,
    0,
    0,
    0,
    0,
    0,
    0,
    0,
    0,
    0,
    0,
    0,
    0,
    0,
    0,
    0,
    0,
    0,
    0,
    0,
    0,
    0,
    0,
    0,
    0,
    0,
    0,
    0,
    0,
    0,
    0,
    0,
    0,
    0,
    0,
    0,
    0,
    0,
    0,
    3,
    3,
    0,
    0,
    0,
    0,
    0,
    0,
    0,
    0,
    0,
    0,
    0,
    0,
    0,
    0,
    0,
    0,
    0,
    0,
    0,
    0,
    0,
    0,
    0,
    0,
    0,
    0,
    0,
    0,
    0,
    0,
    0,
    0,
    0,
    0,
    0,
    0,
    0,
    0,
    0,
    0,
    0,
    0,
    3,
    3,
    0,
    0,
    0,
    0,
    0,
    0,
    0,
    0,
    0,
    0,
    0,
    0,
    0,
    0,
    0,
    0,
    0,
    0,
    0,
    0,
    0,
    0,
    0,
    0,
    0,
    0,
    0,
    0,
    0,
    0,
    0,
    0,
    0,
    0,
    0,
    0,
    0,
    0,
    0,
    0,
    0,
    0,
    3,
    3,
    0,
    0,
    0,
    0,
    0,
    0,
    0,
    0,
    0,
    0,
    0,
    0,
    0,
    0,
    0,
    0,
    0,
    0,
    0,
    0,
    0,
    0,
    0,
    0,
    0,
    0,
    0,
    0,
    0,
    0,
    0,
    0,
    0,
    0,
    0,
    0,
    0,
    0,
    0,
    0,
    0,
    0,
    3,
    3,
    0,
    0,
    0,
    0,
    0,
    0,
    0,
    0,
    0,
    0,
    0,
    0,
    0,
    0,
    0,
    0,
    0,
    0,
    0,
    0,
    0,
    0,
    0,
    0,
    0,
    0,
    0,
    0,
    0,
    0,
    0,
    0,
    0,
    0,
    0,
    0,
    0,
    0,
    0,
    0,
    0,
    0,
    3,
    3,
    0,
    0,
    0,
    0,
    0,
    0,
    0,
    0,
    0,
    0,
    0,
    0,
    0,
    0,
    0,
    0,
    0,
    0,
    0,
    0,
    0,
    0,
    0,
    0,
    0,
    0,
    0,
    0,
    0,
    0,
    0,
    0,
    0,
    0,
    0,
    0,
    0,
    0,
    0,
    0,
    0,
    0,
    3,
    3,
    0,
    0,
    0,
    0,
    0,
    0,
    0,
    0,
    0,
    0,
    0,
    0,
    0,
    0,
    0,
    0,
    0,
    0,
    0,
    0,
    0,
    0,
    0,
    0,
    0,
    0,
    0,
    0,
    0,
    0,
    0,
    0,
    0,
    0,
    0,
    0,
    0,
    0,
    0,
    0,
    0,
    0,
    3,
    3,
    0,
    0,
    0,
    0,
    0,
    0,
    0,
    0,
    0,
    0,
    0,
    0,
    0,
    0,
    0,
    0,
    0,
    0,
    0,
    0,
    0,
    0,
    0,
    0,
    0,
    0,
    0,
    0,
    0,
    0,
    0,
    0,
    0,
    0,
    0,
    0,
    0,
    0,
    0,
    0,
    0,
    0,
    3,
    3,
    0,
    0,
    0,
    0,
    0,
    0,
    0,
    0,
    0,
    0,
    0,
    0,
    0,
    0,
    0,
    0,
    0,
    0,
    0,
    0,
    0,
    0,
    0,
    0,
    0,
    0,
    0,
    0,
    0,
    0,
    0,
    0,
    0,
    0,
    0,
    0,
    0,
    0,
    0,
    0,
    0,
    0,
    3,
    3,
    0,
    0,
    0,
    0,
    0,
    0,
    0,
    0,
    0,
    0,
    0,
    0,
    0,
    0,
    0,
    0,
    0,
    0,
    0,
    0,
    0,
    0,
    0,
    0,
    0,
    0,
    0,
    0,
    0,
    0,
    0,
    0,
    0,
    0,
    0,
    0,
    0,
    0,
    0,
    0,
    0,
    0,
    3,
    3,
    0,
    0,
    0,
    0,
    0,
    0,
    0,
    0,
    0,
    0,
    0,
    0,
    0,
    0,
    0,
    0,
    0,
    0,
    0,
    0,
    0,
    0,
    0,
    0,
    0,
    0,
    0,
    0,
    0,
    0,
    0,
    0,
    0,
    0,
    0,
    0,
    0,
    0,
    0,
    0,
    0,
    0,
    3,
    3,
    0,
    0,
    0,
    0,
    0,
    0,
    0,
    0,
    0,
    0,
    0,
    0,
    0,
    0,
    0,
    0,
    0,
    0,
    0,
    0,
    0,
    0,
    0,
    0,
    0,
    0,
    0,
    0,
    0,
    0,
    0,
    0,
    0,
    0,
    0,
    0,
    0,
    0,
    0,
    0,
    0,
    0,
    3,
    3,
    0,
    0,
    0,
    0,
    0,
    0,
    0,
    0,
    0,
    0,
    0,
    0,
    0,
    0,
    0,
    0,
    0,
    0,
    0,
    0,
    0,
    0,
    0,
    0,
    0,
    0,
    0,
    0,
    0,
    0,
    0,
    0,
    0,
    0,
    0,
    0,
    0,
    0,
    0,
    0,
    0,
    0,
    3,
    3,
    3,
    3,
    3,
    3,
    3,
    3,
    3,
    3,
    3,
    3,
    3,
    3,
    3,
    3,
    3,
    3,
    3,
    3,
    3,
    3,
    3,
    3,
    3,
    3,
    3,
    3,
    3,
    3,
    3,
    3,
    3,
    3,
    3,
    3,
    3,
    3,
    3,
    3,
    3,
    3,
    3,
    3,
    3
   ]
  },
  {
   "name": "start",
   "type": "tilelayer",
   "visible": true,
   "opacity": 1,
   "x": 0,
   "y": 0,
   "width": 44,
   "height": 86,
   "data": [
    0,
    0,
    0,
    0,
    0,
    0,
    0,
    0,
    0,
    0,
    0,
    0,
    0,
    0,
    0,
    0,
    0,
    0,
    0,
    0,
    0,
    0,
    0,
    0,
    0,
    0,
    0,
    0,
    0,
    0,
    0,
    0,
    0,
    0,
    0,
    0,
    0,
    0,
    0,
    0,
    0,
    0,
    0,
    0,
    0,
    0,
    0,
    0,
    0,
    0,
    0,
    0,
    0,
    0,
    0,
    0,
    0,
    0,
    0,
    0,
    0,
    0,
    0,
    0,
    2,
    2,
    2,
    2,
    0,
    0,
    0,
    0,
    0,
    0,
    0,
    0,
    0,
    0,
    0,
    0,
    0,
    0,
    0,
    0,
    0,
    0,
    0,
    0,
    0,
    0,
    0,
    0,
    0,
    0,
    0,
    0,
    0,
    0,
    0,
    0,
    0,
    0,
    0,
    0,
    0,
    0,
    0,
    0,
    0,
    0,
    0,
    0,
    0,
    0,
    0,
    0,
    0,
    0,
    0,
    0,
    0,
    0,
    0,
    0,
    0,
    0,
    0,
    0,
    0,
    0,
    0,
    0,
    0,
    0,
    0,
    0,
    0,
    0,
    0,
    0,
    0,
    0,
    0,
    0,
    0,
    0,
    0,
    0,
    0,
    0,
    0,
    0,
    0,
    0,
    0,
    0,
    0,
    0,
    0,
    0,
    0,
    0,
    0,
    0,
    0,
    0,
    0,
    0,
    0,
    0,
    0,
    0,
    0,
    0,
    0,
    0,
    0,
    0,
    0,
    0,
    0,
    0,
    0,
    0,
    0,
    0,
    0,
    0,
    0,
    0,
    0,
    0,
    0,
    0,
    0,
    0,
    0,
    0,
    0,
    0,
    0,
    0,
    0,
    0,
    0,
    0,
    0,
    0,
    0,
    0,
    0,
    0,
    0,
    0,
    0,
    0,
    0,
    0,
    0,
    0,
    0,
    0,
    0,
    0,
    0,
    0,
    0,
    0,
    0,
    0,
    0,
    0,
    0,
    0,
    0,
    0,
    0,
    0,
    0,
    0,
    0,
    0,
    0,
    0,
    0,
    0,
    0,
    0,
    0,
    0,
    0,
    0,
    0,
    0,
    0,
    0,
    0,
    0,
    0,
    0,
    0,
    0,
    0,
    0,
    0,
    0,
    0,
    0,
    0,
    0,
    0,
    0,
    0,
    0,
    0,
    0,
    0,
    0,
    0,
    0,
    0,
    0,
    0,
    0,
    0,
    0,
    0,
    0,
    0,
    0,
    0,
    0,
    0,
    0,
    0,
    0,
    0,
    0,
    0,
    0,
    0,
    0,
    0,
    0,
    0,
    0,
    0,
    0,
    0,
    0,
    0,
    0,
    0,
    0,
    0,
    0,
    0,
    0,
    0,
    0,
    0,
    0,
    0,
    0,
    0,
    0,
    0,
    0,
    0,
    0,
    0,
    0,
    0,
    0,
    0,
    0,
    0,
    0,
    0,
    0,
    0,
    0,
    0,
    0,
    0,
    0,
    0,
    0,
    0,
    0,
    0,
    0,
    0,
    0,
    0,
    0,
    0,
    0,
    0,
    0,
    0,
    0,
    0,
    0,
    0,
    0,
    0,
    0,
    0,
    0,
    0,
    0,
    0,
    0,
    0,
    0,
    0,
    0,
    0,
    0,
    0,
    0,
    0,
    0,
    0,
    0,
    0,
    0,
    0,
    0,
    0,
    0,
    0,
    0,
    0,
    0,
    0,
    0,
    0,
    0,
    0,
    0,
    0,
    0,
    0,
    0,
    0,
    0,
    0,
    0,
    0,
    0,
    0,
    0,
    0,
    0,
    0,
    0,
    0,
    0,
    0,
    0,
    0,
    0,
    0,
    0,
    0,
    0,
    0,
    0,
    0,
    0,
    0,
    0,
    0,
    0,
    0,
    0,
    0,
    0,
    0,
    0,
    0,
    0,
    0,
    0,
    0,
    0,
    0,
    0,
    0,
    0,
    0,
    0,
    0,
    0,
    0,
    0,
    0,
    0,
    0,
    0,
    0,
    0,
    0,
    0,
    0,
    0,
    0,
    0,
    0,
    0,
    0,
    0,
    0,
    0,
    0,
    0,
    0,
    0,
    0,
    0,
    0,
    0,
    0,
    0,
    0,
    0,
    0,
    0,
    0,
    0,
    0,
    0,
    0,
    0,
    0,
    0,
    0,
    0,
    0,
    0,
    0,
    0,
    0,
    0,
    0,
    0,
    0,
    0,
    0,
    0,
    0,
    0,
    0,
    0,
    0,
    0,
    0,
    0,
    0,
    0,
    0,
    0,
    0,
    0,
    0,
    0,
    0,
    0,
    0,
    0,
    0,
    0,
    0,
    0,
    0,
    0,
    0,
    0,
    0,
    0,
    0,
    0,
    0,
    0,
    0,
    0,
    0,
    0,
    0,
    0,
    0,
    0,
    0,
    0,
    0,
    0,
    0,
    0,
    0,
    0,
    0,
    0,
    0,
    0,
    0,
    0,
    0,
    0,
    0,
    0,
    0,
    0,
    0,
    0,
    0,
    0,
    0,
    0,
    0,
    0,
    0,
    0,
    0,
    0,
    0,
    0,
    0,
    0,
    0,
    0,
    0,
    0,
    0,
    0,
    0,
    0,
    0,
    0,
    0,
    0,
    0,
    0,
    0,
    0,
    0,
    0,
    0,
    0,
    0,
    0,
    0,
    0,
    0,
    0,
    0,
    0,
    0,
    0,
    0,
    0,
    0,
    0,
    0,
    0,
    0,
    0,
    0,
    0,
    0,
    0,
    0,
    0,
    0,
    0,
    0,
    0,
    0,
    0,
    0,
    0,
    0,
    0,
    0,
    0,
    0,
    0,
    0,
    0,
    0,
    0,
    0,
    0,
    0,
    0,
    0,
    0,
    0,
    0,
    0,
    0,
    0,
    0,
    0,
    0,
    0,
    0,
    0,
    0,
    0,
    0,
    0,
    0,
    0,
    0,
    0,
    0,
    0,
    0,
    0,
    0,
    0,
    0,
    0,
    0,
    0,
    0,
    0,
    0,
    0,
    0,
    0,
    0,
    0,
    0,
    0,
    0,
    0,
    0,
    0,
    0,
    0,
    0,
    0,
    0,
    0,
    0,
    0,
    0,
    0,
    0,
    0,
    0,
    0,
    0,
    0,
    0,
    0,
    0,
    0,
    0,
    0,
    0,
    0,
    0,
    0,
    0,
    0,
    0,
    0,
    0,
    0,
    0,
    0,
    0,
    0,
    0,
    0,
    0,
    0,
    0,
    0,
    0,
    0,
    0,
    0,
    0,
    0,
    0,
    0,
    0,
    0,
    0,
    0,
    0,
    0,
    0,
    0,
    0,
    0,
    0,
    0,
    0,
    0,
    0,
    0,
    0,
    0,
    0,
    0,
    0,
    0,
    0,
    0,
    0,
    0,
    0,
    0,
    0,
    0,
    0,
    0,
    0,
    0,
    0,
    0,
    0,
    0,
    0,
    0,
    0,
    0,
    0,
    0,
    0,
    0,
    0,
    0,
    0,
    0,
    0,
    0,
    0,
    0,
    0,
    0,
    0,
    0,
    0,
    0,
    0,
    0,
    0,
    0,
    0,
    0,
    0,
    0,
    0,
    0,
    0,
    0,
    0,
    0,
    0,
    0,
    0,
    0,
    0,
    0,
    0,
    0,
    0,
    0,
    0,
    0,
    0,
    0,
    0,
    0,
    0,
    0,
    0,
    0,
    0,
    0,
    0,
    0,
    0,
    0,
    0,
    0,
    0,
    0,
    0,
    0,
    0,
    0,
    0,
    0,
    0,
    0,
    0,
    0,
    0,
    0,
    0,
    0,
    0,
    0,
    0,
    0,
    0,
    0,
    0,
    0,
    0,
    0,
    0,
    0,
    0,
    0,
    0,
    0,
    0,
    0,
    0,
    0,
    0,
    0,
    0,
    0,
    0,
    0,
    0,
    0,
    0,
    0,
    0,
    0,
    0,
    0,
    0,
    0,
    0,
    0,
    0,
    0,
    0,
    0,
    0,
    0,
    0,
    0,
    0,
    0,
    0,
    0,
    0,
    0,
    0,
    0,
    0,
    0,
    0,
    0,
    0,
    0,
    0,
    0,
    0,
    0,
    0,
    0,
    0,
    0,
    0,
    0,
    0,
    0,
    0,
    0,
    0,
    0,
    0,
    0,
    0,
    0,
    0,
    0,
    0,
    0,
    0,
    0,
    0,
    0,
    0,
    0,
    0,
    0,
    0,
    0,
    0,
    0,
    0,
    0,
    0,
    0,
    0,
    0,
    0,
    0,
    0,
    0,
    0,
    0,
    0,
    0,
    0,
    0,
    0,
    0,
    0,
    0,
    0,
    0,
    0,
    0,
    0,
    0,
    0,
    0,
    0,
    0,
    0,
    0,
    0,
    0,
    0,
    0,
    0,
    0,
    0,
    0,
    0,
    0,
    0,
    0,
    0,
    0,
    0,
    0,
    0,
    0,
    0,
    0,
    0,
    0,
    0,
    0,
    0,
    0,
    0,
    0,
    0,
    0,
    0,
    0,
    0,
    0,
    0,
    0,
    0,
    0,
    0,
    0,
    0,
    0,
    0,
    0,
    0,
    0,
    0,
    0,
    0,
    0,
    0,
    0,
    0,
    0,
    0,
    0,
    0,
    0,
    0,
    0,
    0,
    0,
    0,
    0,
    0,
    0,
    0,
    0,
    0,
    0,
    0,
    0,
    0,
    0,
    0,
    0,
    0,
    0,
    0,
    0,
    0,
    0,
    0,
    0,
    0,
    0,
    0,
    0,
    0,
    0,
    0,
    0,
    0,
    0,
    0,
    0,
    0,
    0,
    0,
    0,
    0,
    0,
    0,
    0,
    0,
    0,
    0,
    0,
    0,
    0,
    0,
    0,
    0,
    0,
    0,
    0,
    0,
    0,
    0,
    0,
    0,
    0,
    0,
    0,
    0,
    0,
    0,
    0,
    0,
    0,
    0,
    0,
    0,
    0,
    0,
    0,
    0,
    0,
    0,
    0,
    0,
    0,
    0,
    0,
    0,
    0,
    0,
    0,
    0,
    0,
    0,
    0,
    0,
    0,
    0,
    0,
    0,
    0,
    0,
    0,
    0,
    0,
    0,
    0,
    0,
    0,
    0,
    0,
    0,
    0,
    0,
    0,
    0,
    0,
    0,
    0,
    0,
    0,
    0,
    0,
    0,
    0,
    0,
    0,
    0,
    0,
    0,
    0,
    0,
    0,
    0,
    0,
    0,
    0,
    0,
    0,
    0,
    0,
    0,
    0,
    0,
    0,
    0,
    0,
    0,
    0,
    0,
    0,
    0,
    0,
    0,
    0,
    0,
    0,
    0,
    0,
    0,
    0,
    0,
    0,
    0,
    0,
    0,
    0,
    0,
    0,
    0,
    0,
    0,
    0,
    0,
    0,
    0,
    0,
    0,
    0,
    0,
    0,
    0,
    0,
    0,
    0,
    0,
    0,
    0,
    0,
    0,
    0,
    0,
    0,
    0,
    0,
    0,
    0,
    0,
    0,
    0,
    0,
    0,
    0,
    0,
    0,
    0,
    0,
    0,
    0,
    0,
    0,
    0,
    0,
    0,
    0,
    0,
    0,
    0,
    0,
    0,
    0,
    0,
    0,
    0,
    0,
    0,
    0,
    0,
    0,
    0,
    0,
    0,
    0,
    0,
    0,
    0,
    0,
    0,
    0,
    0,
    0,
    0,
    0,
    0,
    0,
    0,
    0,
    0,
    0,
    0,
    0,
    0,
    0,
    0,
    0,
    0,
    0,
    0,
    0,
    0,
    0,
    0,
    0,
    0,
    0,
    0,
    0,
    0,
    0,
    0,
    0,
    0,
    0,
    0,
    0,
    0,
    0,
    0,
    0,
    0,
    0,
    0,
    0,
    0,
    0,
    0,
    0,
    0,
    0,
    0,
    0,
    0,
    0,
    0,
    0,
    0,
    0,
    0,
    0,
    0,
    0,
    0,
    0,
    0,
    0,
    0,
    0,
    0,
    0,
    0,
    0,
    0,
    0,
    0,
    0,
    0,
    0,
    0,
    0,
    0,
    0,
    0,
    0,
    0,
    0,
    0,
    0,
    0,
    0,
    0,
    0,
    0,
    0,
    0,
    0,
    0,
    0,
    0,
    0,
    0,
    0,
    0,
    0,
    0,
    0,
    0,
    0,
    0,
    0,
    0,
    0,
    0,
    0,
    0,
    0,
    0,
    0,
    0,
    0,
    0,
    0,
    0,
    0,
    0,
    0,
    0,
    0,
    0,
    0,
    0,
    0,
    0,
    0,
    0,
    0,
    0,
    0,
    0,
    0,
    0,
    0,
    0,
    0,
    0,
    0,
    0,
    0,
    0,
    0,
    0,
    0,
    0,
    0,
    0,
    0,
    0,
    0,
    0,
    0,
    0,
    0,
    0,
    0,
    0,
    0,
    0,
    0,
    0,
    0,
    0,
    0,
    0,
    0,
    0,
    0,
    0,
    0,
    0,
    0,
    0,
    0,
    0,
    0,
    0,
    0,
    0,
    0,
    0,
    0,
    0,
    0,
    0,
    0,
    0,
    0,
    0,
    0,
    0,
    0,
    0,
    0,
    0,
    0,
    0,
    0,
    0,
    0,
    0,
    0,
    0,
    0,
    0,
    0,
    0,
    0,
    0,
    0,
    0,
    0,
    0,
    0,
    0,
    0,
    0,
    0,
    0,
    0,
    0,
    0,
    0,
    0,
    0,
    0,
    0,
    0,
    0,
    0,
    0,
    0,
    0,
    0,
    0,
    0,
    0,
    0,
    0,
    0,
    0,
    0,
    0,
    0,
    0,
    0,
    0,
    0,
    0,
    0,
    0,
    0,
    0,
    0,
    0,
    0,
    0,
    0,
    0,
    0,
    0,
    0,
    0,
    0,
    0,
    0,
    0,
    0,
    0,
    0,
    0,
    0,
    0,
    0,
    0,
    0,
    0,
    0,
    0,
    0,
    0,
    0,
    0,
    0,
    0,
    0,
    0,
    0,
    0,
    0,
    0,
    0,
    0,
    0,
    0,
    0,
    0,
    0,
    0,
    0,
    0,
    0,
    0,
    0,
    0,
    0,
    0,
    0,
    0,
    0,
    0,
    0,
    0,
    0,
    0,
    0,
    0,
    0,
    0,
    0,
    0,
    0,
    0,
    0,
    0,
    0,
    0,
    0,
    0,
    0,
    0,
    0,
    0,
    0,
    0,
    0,
    0,
    0,
    0,
    0,
    0,
    0,
    0,
    0,
    0,
    0,
    0,
    0,
    0,
    0,
    0,
    0,
    0,
    0,
    0,
    0,
    0,
    0,
    0,
    0,
    0,
    0,
    0,
    0,
    0,
    0,
    0,
    0,
    0,
    0,
    0,
    0,
    0,
    0,
    0,
    0,
    0,
    0,
    0,
    0,
    0,
    0,
    0,
    0,
    0,
    0,
    0,
    0,
    0,
    0,
    0,
    0,
    0,
    0,
    0,
    0,
    0,
    0,
    0,
    0,
    0,
    0,
    0,
    0,
    0,
    0,
    0,
    0,
    0,
    0,
    0,
    0,
    0,
    0,
    0,
    0,
    0,
    0,
    0,
    0,
    0,
    0,
    0,
    0,
    0,
    0,
    0,
    0,
    0,
    0,
    0,
    0,
    0,
    0,
    0,
    0,
    0,
    0,
    0,
    0,
    0,
    0,
    0,
    0,
    0,
    0,
    0,
    0,
    0,
    0,
    0,
    0,
    0,
    0,
    0,
    0,
    0,
    0,
    0,
    0,
    0,
    0,
    0,
    0,
    0,
    0,
    0,
    0,
    0,
    0,
    0,
    0,
    0,
    0,
    0,
    0,
    0,
    0,
    0,
    0,
    0,
    0,
    0,
    0,
    0,
    0,
    0,
    0,
    0,
    0,
    0,
    0,
    0,
    0,
    0,
    0,
    0,
    0,
    0,
    0,
    0,
    0,
    0,
    0,
    0,
    0,
    0,
    0,
    0,
    0,
    0,
    0,
    0,
    0,
    0,
    0,
    0,
    0,
    0,
    0,
    0,
    0,
    0,
    0,
    0,
    0,
    0,
    0,
    0,
    0,
    0,
    0,
    0,
    0,
    0,
    0,
    0,
    0,
    0,
    0,
    0,
    0,
    0,
    0,
    0,
    0,
    0,
    0,
    0,
    0,
    0,
    0,
    0,
    0,
    0,
    0,
    0,
    0,
    0,
    0,
    0,
    0,
    0,
    0,
    0,
    0,
    0,
    0,
    0,
    0,
    0,
    0,
    0,
    0,
    0,
    0,
    0,
    0,
    0,
    0,
    0,
    0,
    0,
    0,
    0,
    0,
    0,
    0,
    0,
    0,
    0,
    0,
    0,
    0,
    0,
    0,
    0,
    0,
    0,
    0,
    0,
    0,
    0,
    0,
    0,
    0,
    0,
    0,
    0,
    0,
    0,
    0,
    0,
    0,
    0,
    0,
    0,
    0,
    0,
    0,
    0,
    0,
    0,
    0,
    0,
    0,
    0,
    0,
    0,
    0,
    0,
    0,
    0,
    0,
    0,
    0,
    0,
    0,
    0,
    0,
    0,
    0,
    0,
    0,
    0,
    0,
    0,
    0,
    0,
    0,
    0,
    0,
    0,
    0,
    0,
    0,
    0,
    0,
    0,
    0,
    0,
    0,
    0,
    0,
    0,
    0,
    0,
    0,
    0,
    0,
    0,
    0,
    0,
    0,
    0,
    0,
    0,
    0,
    0,
    0,
    0,
    0,
    0,
    0,
    0,
    0,
    0,
    0,
    0,
    0,
    0,
    0,
    0,
    0,
    0,
    0,
    0,
    0,
    0,
    0,
    0,
    0,
    0,
    0,
    0,
    0,
    0,
    0,
    0,
    0,
    0,
    0,
    0,
    0,
    0,
    0,
    0,
    0,
    0,
    0,
    0,
    0,
    0,
    0,
    0,
    0,
    0,
    0,
    0,
    0,
    0,
    0,
    0,
    0,
    0,
    0,
    0,
    0,
    0,
    0,
    0,
    0,
    0,
    0,
    0,
    0,
    0,
    0,
    0,
    0,
    0,
    0,
    0,
    0,
    0,
    0,
    0,
    0,
    0,
    0,
    0,
    0,
    0,
    0,
    0,
    0,
    0,
    0,
    0,
    0,
    0,
    0,
    0,
    0,
    0,
    0,
    0,
    0,
    0,
    0,
    0,
    0,
    0,
    0,
    0,
    0,
    0,
    0,
    0,
    0,
    0,
    0,
    0,
    0,
    0,
    0,
    0,
    0,
    0,
    0,
    0,
    0,
    0,
    0,
    0,
    0,
    0,
    0,
    0,
    0,
    0,
    0,
    0,
    0,
    0,
    0,
    0,
    0,
    0,
    0,
    0,
    0,
    0,
    0,
    0,
    0,
    0,
    0,
    0,
    0,
    0,
    0,
    0,
    0,
    0,
    0,
    0,
    0,
    0,
    0,
    0,
    0,
    0,
    0,
    0,
    0,
    0,
    0,
    0,
    0,
    0,
    0,
    0,
    0,
    0,
    0,
    0,
    0,
    0,
    0,
    0,
    0,
    0,
    0,
    0,
    0,
    0,
    0,
    0,
    0,
    0,
    0,
    0,
    0,
    0,
    0,
    0,
    0,
    0,
    0,
    0,
    0,
    0,
    0,
    0,
    0,
    0,
    0,
    0,
    0,
    0,
    0,
    0,
    0,
    0,
    0,
    0,
    0,
    0,
    0,
    0,
    0,
    0,
    0,
    0,
    0,
    0,
    0,
    0,
    0,
    0,
    0,
    0,
    0,
    0,
    0,
    0,
    0,
    0,
    0,
    0,
    0,
    0,
    0,
    0,
    0,
    0,
    0,
    0,
    0,
    0,
    0,
    0,
    0,
    0,
    0,
    0,
    0,
    0,
    0,
    0,
    0,
    0,
    0,
    0,
    0,
    0,
    0,
    0,
    0,
    0,
    0,
    0,
    0,
    0,
    0,
    0,
    0,
    0,
    0,
    0,
    0,
    0,
    0,
    0,
    0,
    0,
    0,
    0,
    0,
    0,
    0,
    0,
    0,
    0,
    0,
    0,
    0,
    0,
    0,
    0,
    0,
    0,
    0,
    0,
    0,
    0,
    0,
    0,
    0,
    0,
    0,
    0,
    0,
    0,
    0,
    0,
    0,
    0,
    0,
    0,
    0,
    0,
    0,
    0,
    0,
    0,
    0,
    0,
    0,
    0,
    0,
    0,
    0,
    0,
    0,
    0,
    0,
    0,
    0,
    0,
    0,
    0,
    0,
    0,
    0,
    0,
    0,
    0,
    0,
    0,
    0,
    0,
    0,
    0,
    0,
    0,
    0,
    0,
    0,
    0,
    0,
    0,
    0,
    0,
    0,
    0,
    0,
    0,
    0,
    0,
    0,
    0,
    0,
    0,
    0,
    0,
    0,
    0,
    0,
    0,
    0,
    0,
    0,
    0,
    0,
    0,
    0,
    0,
    0,
    0,
    0,
    0,
    0,
    0,
    0,
    0,
    0,
    0,
    0,
    0,
    0,
    0,
    0,
    0,
    0,
    0,
    0,
    0,
    0,
    0,
    0,
    0,
    0,
    0,
    0,
    0,
    0,
    0,
    0,
    0,
    0,
    0,
    0,
    0,
    0,
    0,
    0,
    0,
    0,
    0,
    0,
    0,
    0,
    0,
    0,
    0,
    0,
    0,
    0,
    0,
    0,
    0,
    0,
    0,
    0,
    0,
    0,
    0,
    0,
    0,
    0,
    0,
    0,
    0,
    0,
    0,
    0,
    0,
    0,
    0,
    0,
    0,
    0,
    0,
    0,
    0,
    0,
    0,
    0,
    0,
    0,
    0,
    0,
    0,
    0,
    0,
    0,
    0,
    0,
    0,
    0,
    0,
    0,
    0,
    0,
    0,
    0,
    0,
    0,
    0,
    0,
    0,
    0,
    0,
    0,
    0,
    0,
    0,
    0,
    0,
    0,
    0,
    0,
    0,
    0,
    0,
    0,
    0,
    0,
    0,
    0,
    0,
    0,
    0,
    0,
    0,
    0,
    0,
    0,
    0,
    0,
    0,
    0,
    0,
    0,
    0,
    0,
    0,
    0,
    0,
    0,
    0,
    0,
    0,
    0,
    0,
    0,
    0,
    0,
    0,
    0,
    0,
    0,
    0,
    0,
    0,
    0,
    0,
    0,
    0,
    0,
    0,
    0,
    0,
    0,
    0,
    0,
    0,
    0,
    0,
    0,
    0,
    0,
    0,
    0,
    0,
    0,
    0,
    0,
    0,
    0,
    0,
    0,
    0,
    0,
    0,
    0,
    0,
    0,
    0,
    0,
    0,
    0,
    0,
    0,
    0,
    0,
    0,
    0,
    0,
    0,
    0,
    0,
    0,
    0,
    0,
    0,
    0,
    0,
    0,
    0,
    0,
    0,
    0,
    0,
    0,
    0,
    0,
    0,
    0,
    0,
    0,
    0,
    0,
    0,
    0,
    0,
    0,
    0,
    0,
    0,
    0,
    0,
    0,
    0,
    0,
    0,
    0,
    0,
    0,
    0,
    0,
    0,
    0,
    0,
    0,
    0,
    0,
    0,
    0,
    0,
    0,
    0,
    0,
    0,
    0,
    0,
    0,
    0,
    0,
    0,
    0,
    0,
    0,
    0,
    0,
    0,
    0,
    0,
    0,
    0,
    0,
    0,
    0,
    0,
    0,
    0,
    0,
    0,
    0,
    0,
    0,
    0,
    0,
    0,
    0,
    0,
    0,
    0,
    0,
    0,
    0,
    0,
    0,
    0,
    0,
    0,
    0,
    0,
    0,
    0,
    0,
    0,
    0,
    0,
    0,
    0,
    0,
    0,
    0,
    0,
    0,
    0,
    0,
    0,
    0,
    0,
    0,
    0,
    0,
    0,
    0,
    0,
    0,
    0,
    0,
    0,
    0,
    0,
    0,
    0,
    0,
    0,
    0,
    0,
    0,
    0,
    0,
    0,
    0,
    0,
    0,
    0,
    0,
    0,
    0,
    0,
    0,
    0,
    0,
    0,
    0,
    0,
    0,
    0,
    0,
    0,
    0,
    0,
    0,
    0,
    0,
    0,
    0,
    0,
    0,
    0,
    0,
    0,
    0,
    0,
    0,
    0,
    0,
    0,
    0,
    0,
    0,
    0,
    0,
    0,
    0,
    0,
    0,
    0,
    0,
    0,
    0,
    0,
    0,
    0,
    0,
    0,
    0,
    0,
    0,
    0,
    0,
    0,
    0,
    0,
    0,
    0,
    0,
    0,
    0,
    0,
    0,
    0,
    0,
    0,
    0,
    0,
    0,
    0,
    0,
    0,
    0,
    0,
    0,
    0,
    0,
    0,
    0,
    0,
    0,
    0,
    0,
    0,
    0,
    0,
    0,
    0,
    0,
    0,
    0,
    0,
    0,
    0,
    0,
    0,
    0,
    0,
    0,
    0,
    0,
    0,
    0,
    0,
    0,
    0,
    0,
    0,
    0,
    0,
    0,
    0,
    0,
    0,
    0,
    0,
    0,
    0,
    0,
    0,
    0,
    0,
    0,
    0,
    0,
    0,
    0,
    0,
    0,
    0,
    0,
    0,
    0,
    0,
    0,
    0,
    0,
    0,
    0,
    0,
    0,
    0,
    0,
    0,
    0,
    0,
    0,
    0,
    0,
    0,
    0,
    0,
    0,
    0,
    0,
    0,
    0,
    0,
    0,
    0,
    0,
    0,
    0,
    0,
    0,
    0,
    0,
    0,
    0,
    0,
    0,
    0,
    0,
    0,
    0,
    0,
    0,
    0,
    0,
    0,
    0,
    0,
    0,
    0,
    0,
    0,
    0,
    0,
    0,
    0,
    0,
    0,
    0,
    0,
    0,
    0,
    0,
    0,
    0,
    0,
    0,
    0,
    0,
    0,
    0,
    0,
    0,
    0,
    0,
    0,
    0,
    0,
    0,
    0,
    0,
    0,
    0,
    0,
    0,
    0,
    0,
    0,
    0,
    0,
    0,
    0,
    0,
    0,
    0,
    0,
    0,
    0,
    0,
    0,
    0,
    0,
    0,
    0,
    0,
    0,
    0,
    0,
    0,
    0,
    0,
    0,
    0,
    0,
    0,
    0,
    0,
    0,
    0,
    0,
    0,
    0,
    0,
    0,
    0,
    0,
    0,
    0,
    0,
    0,
    0,
    0,
    0,
    0,
    0,
    0,
    0,
    0,
    0,
    0,
    0,
    0,
    0,
    0,
    0,
    0,
    0,
    0,
    0,
    0,
    0,
    0,
    0,
    0,
    0,
    0,
    0,
    0,
    0,
    0,
    0,
    0,
    0,
    0,
    0,
    0,
    0,
    0,
    0,
    0,
    0,
    0,
    0,
    0,
    0,
    0,
    0,
    0,
    0,
    0,
    0,
    0,
    0,
    0,
    0,
    0,
    0,
    0,
    0,
    0,
    0,
    0,
    0,
    0,
    0,
    0,
    0,
    0,
    0,
    0,
    0,
    0,
    0,
    0,
    0,
    0,
    0,
    0,
    0,
    0,
    0,
    0,
    0,
    0,
    0,
    0,
    0,
    0,
    0,
    0,
    0,
    0,
    0,
    0,
    0,
    0,
    0,
    0,
    0,
    0,
    0,
    0,
    0,
    0,
    0,
    0,
    0,
    0,
    0,
    0,
    0,
    0,
    0,
    0,
    0,
    0,
    0,
    0,
    0,
    0,
    0,
    0,
    0,
    0,
    0,
    0,
    0,
    0,
    0,
    0,
    0,
    0,
    0,
    0,
    0,
    0,
    0,
    0,
    0,
    0,
    0,
    0,
    0,
    0,
    0,
    0,
    0,
    0,
    0,
    0,
    0,
    0,
    0,
    0,
    0,
    0,
    0,
    0,
    0,
    0,
    0,
    0,
    0,
    0,
    0,
    0,
    0,
    0,
    0,
    0,
    0,
    0,
    0,
    0,
    0,
    0,
    0,
    0,
    0,
    0,
    0,
    0,
    0,
    0,
    0,
    0,
    0,
    0,
    0,
    0,
    0,
    0,
    0,
    0,
    0,
    0,
    0,
    0,
    0,
    0,
    0,
    0,
    0,
    0,
    0,
    0,
    0,
    0,
    0,
    0,
    0,
    0,
    0,
    0,
    0,
    0,
    0,
    0,
    0,
    0,
    0,
    0,
    0,
    0,
    0,
    0,
    0,
    0,
    0,
    0,
    0,
    0,
    0,
    0,
    0,
    0,
    0,
    0,
    0,
    0,
    0,
    0,
    0,
    0,
    0,
    0,
    0,
    0,
    0,
    0,
    0,
    0,
    0,
    0,
    0,
    0,
    0,
    0,
    0,
    0,
    0,
    0,
    0,
    0,
    0,
    0,
    0,
    0,
    0,
    0,
    0,
    0,
    0,
    0,
    0,
    0,
    0,
    0,
    0,
    0,
    0,
    0,
    0,
    0,
    0,
    0,
    0,
    0,
    0,
    0,
    0,
    0,
    0,
    0,
    0,
    0,
    0,
    0,
    0,
    0,
    0,
    0,
    0,
    0,
    0,
    0,
    0,
    0,
    0,
    0,
    0,
    0,
    0,
    0,
    0,
    0,
    0,
    0,
    0,
    0,
    0,
    0,
    0,
    0,
    0,
    0,
    0,
    0,
    0,
    0,
    0,
    0,
    0,
    0,
    0,
    0,
    0,
    0,
    0,
    0,
    0,
    0,
    0,
    0,
    0,
    0,
    0,
    0,
    0,
    0,
    0,
    0,
    0,
    0,
    0,
    0,
    0,
    0,
    0,
    0,
    0,
    0,
    0,
    0,
    0,
    0,
    0,
    0,
    0,
    0,
    0,
    0,
    0,
    0,
    0,
    0,
    0,
    0,
    0,
    0,
    0,
    0,
    0,
    0,
    0,
    0,
    0,
    0,
    0,
    0,
    0,
    0,
    0,
    0,
    0,
    0,
    0,
    0,
    0,
    0,
    0,
    0,
    0,
    0,
    0,
    0,
    0,
    0,
    0,
    0,
    0,
    0,
    0,
    0,
    0,
    0,
    0,
    0,
    0,
    0,
    0,
    0,
    0,
    0,
    0,
    0,
    0,
    0,
    0,
    0,
    0,
    0,
    0,
    0,
    0,
    0,
    0,
    0,
    0,
    0,
    0,
    0,
    0,
    0,
    0,
    0,
    0,
    0,
    0,
    0,
    0,
    0,
    0,
    0,
    0,
    0,
    0,
    0,
    0,
    0,
    0,
    0,
    0,
    0,
    0,
    0,
    0,
    0,
    0,
    0,
    0,
    0,
    0,
    0,
    0,
    0,
    0,
    0,
    0,
    0,
    0,
    0,
    0,
    0,
    0,
    0,
    0,
    0,
    0,
    0,
    0,
    0,
    0,
    0,
    0,
    0,
    0,
    0,
    0,
    0,
    0,
    0,
    0,
    0,
    0,
    0,
    0,
    0,
    0,
    0,
    0,
    0,
    0,
    0,
    0,
    0,
    0,
    0,
    0,
    0,
    0,
    0,
    0,
    0,
    0,
    0,
    0,
    0,
    0,
    0,
    0,
    0,
    0,
    0,
    0,
    0,
    0,
    0,
    0,
    0,
    0,
    0,
    0,
    0,
    0,
    0,
    0,
    0,
    0,
    0,
    0,
    0,
    0,
    0,
    0,
    0,
    0,
    0,
    0,
    0,
    0,
    0,
    0,
    0,
    0,
    0,
    0,
    0,
    0,
    0,
    0,
    0,
    0,
    0,
    0,
    0,
    0,
    0,
    0,
    0,
    0,
    0,
    0,
    0,
    0,
    0,
    0,
    0,
    0,
    0,
    0,
    0,
    0,
    0,
    0,
    0,
    0,
    0,
    0,
    0,
    0,
    0,
    0,
    0,
    0,
    0,
    0,
    0,
    0,
    0,
    0,
    0,
    0,
    0,
    0,
    0,
    0,
    0,
    0,
    0,
    0,
    0,
    0,
    0,
    0,
    0,
    0,
    0,
    0,
    0,
    0,
    0,
    0,
    0,
    0,
    0,
    0,
    0,
    0,
    0,
    0,
    0,
    0,
    0,
    0,
    0,
    0,
    0,
    0,
    0,
    0,
    0,
    0,
    0,
    0,
    0,
    0,
    0,
    0,
    0,
    0,
    0,
    0,
    0,
    0,
    0,
    0,
    0,
    0,
    0,
    0,
    0,
    0,
    0,
    0,
    0,
    0,
    0,
    0,
    0,
    0,
    0,
    0,
    0,
    0,
    0,
    0,
    0,
    0,
    0,
    0,
    0,
    0,
    0,
    0,
    0,
    0,
    0,
    0,
    0,
    0,
    0,
    0,
    0,
    0,
    0,
    0,
    0,
    0,
    0,
    0,
    0,
    0,
    0,
    0,
    0,
    0,
    0,
    0,
    0,
    0,
    0,
    0,
    0,
    0,
    0,
    0,
    0,
    0,
    0,
    0,
    0,
    0,
    0,
    0,
    0,
    0,
    0,
    0,
    0,
    0,
    0,
    0,
    0,
    0,
    0,
    0,
    0,
    0,
    0,
    0,
    0,
    0,
    0,
    0,
    0,
    0,
    0,
    0,
    0,
    0,
    0,
    0,
    0,
    0,
    0,
    0,
    0,
    0,
    0,
    0,
    0,
    0,
    0,
    0,
    0,
    0,
    0,
    0,
    0,
    0,
    0,
    0,
    0,
    0,
    0,
    0,
    0,
    0,
    0,
    0,
    0,
    0,
    0,
    0,
    0,
    0,
    0,
    0,
    0,
    0,
    0,
    0
   ]
  },
  {
   "id": 90,
   "name": "floorLayer",
   "type": "objectgroup",
   "class": "floorLayer",
   "visible": true,
   "opacity": 1,
   "x": 0,
   "y": 0,
   "draworder": "topdown",
   "objects": [
    {
     "id": 1,
     "name": "sign-welcome",
     "type": "",
     "x": 96,
     "y": 96,
     "width": 1216,
     "height": 64,
     "rotation": 0,
     "visible": true,
     "text": {
      "text": "🎉 Vibe Code Tours — Cohort 1 Demo Day",
      "fontfamily": "Sans Serif",
      "pixelsize": 18,
      "wrap": true,
      "color": "#ffffff",
      "bold": true
     }
    },
    {
     "id": 2,
     "name": "sign-sponsor",
     "type": "",
     "x": 96,
     "y": 128,
     "width": 1216,
     "height": 64,
     "rotation": 0,
     "visible": true,
     "text": {
      "text": "🤝 Venue by WorkAdventure — thank you!",
      "fontfamily": "Sans Serif",
      "pixelsize": 14,
      "wrap": true,
      "color": "#ffffff",
      "bold": true
     }
    },
    {
     "id": 3,
     "name": "info-personal",
     "type": "area",
     "class": "area",
     "x": 448,
     "y": 192,
     "width": 96,
     "height": 64,
     "rotation": 0,
     "visible": true,
     "ellipse": false,
     "properties": [
      {
       "name": "openWebsite",
       "type": "string",
       "value": "https://vibecode.tours/projects/personal"
      },
      {
       "name": "openWebsiteTrigger",
       "type": "string",
       "value": "onaction"
      },
      {
       "name": "openWebsitePolicy",
       "type": "string",
       "value": "autoplay; fullscreen"
      },
      {
       "name": "openWebsiteWidth",
       "type": "int",
       "value": 50
      },
      {
       "name": "focusable",
       "type": "bool",
       "value": true
      }
     ]
    },
    {
     "id": 4,
     "name": "l-info-personal",
     "type": "",
     "x": 448,
     "y": 160,
     "width": 128,
     "height": 64,
     "rotation": 0,
     "visible": true,
     "text": {
      "text": "🖼️ Personal projects",
      "fontfamily": "Sans Serif",
      "pixelsize": 14,
      "wrap": true,
      "color": "#ffffff",
      "bold": true
     }
    },
    {
     "id": 5,
     "name": "info-teams",
     "type": "area",
     "class": "area",
     "x": 640,
     "y": 192,
     "width": 96,
     "height": 64,
     "rotation": 0,
     "visible": true,
     "ellipse": false,
     "properties": [
      {
       "name": "openWebsite",
       "type": "string",
       "value": "https://vibecode.tours/projects/teams"
      },
      {
       "name": "openWebsiteTrigger",
       "type": "string",
       "value": "onaction"
      },
      {
       "name": "openWebsitePolicy",
       "type": "string",
       "value": "autoplay; fullscreen"
      },
      {
       "name": "openWebsiteWidth",
       "type": "int",
       "value": 50
      },
      {
       "name": "focusable",
       "type": "bool",
       "value": true
      }
     ]
    },
    {
     "id": 6,
     "name": "l-info-teams",
     "type": "",
     "x": 640,
     "y": 160,
     "width": 128,
     "height": 64,
     "rotation": 0,
     "visible": true,
     "text": {
      "text": "🏗️ Team projects",
      "fontfamily": "Sans Serif",
      "pixelsize": 14,
      "wrap": true,
      "color": "#ffffff",
      "bold": true
     }
    },
    {
     "id": 7,
     "name": "info-home",
     "type": "area",
     "class": "area",
     "x": 864,
     "y": 192,
     "width": 96,
     "height": 64,
     "rotation": 0,
     "visible": true,
     "ellipse": false,
     "properties": [
      {
       "name": "openWebsite",
       "type": "string",
       "value": "https://vibecode.tours/"
      },
      {
       "name": "openWebsiteTrigger",
       "type": "string",
       "value": "onaction"
      },
      {
       "name": "openWebsitePolicy",
       "type": "string",
       "value": "autoplay; fullscreen"
      },
      {
       "name": "openWebsiteWidth",
       "type": "int",
       "value": 50
      },
      {
       "name": "focusable",
       "type": "bool",
       "value": true
      }
     ]
    },
    {
     "id": 8,
     "name": "l-info-home",
     "type": "",
     "x": 864,
     "y": 160,
     "width": 96,
     "height": 64,
     "rotation": 0,
     "visible": true,
     "text": {
      "text": "🌐 Site / map",
      "fontfamily": "Sans Serif",
      "pixelsize": 14,
      "wrap": true,
      "color": "#ffffff",
      "bold": true
     }
    },
    {
     "id": 9,
     "name": "sign-stage",
     "type": "",
     "x": 96,
     "y": 288,
     "width": 1216,
     "height": 64,
     "rotation": 0,
     "visible": true,
     "text": {
      "text": "🎬 MAIN STAGE — reels + awards",
      "fontfamily": "Sans Serif",
      "pixelsize": 16,
      "wrap": true,
      "color": "#ffffff",
      "bold": true
     }
    },
    {
     "id": 10,
     "name": "stage-bbb",
     "type": "area",
     "class": "area",
     "x": 160,
     "y": 320,
     "width": 1088,
     "height": 128,
     "rotation": 0,
     "visible": true,
     "ellipse": false,
     "properties": [
      {
       "name": "bbbMeeting",
       "type": "string",
       "value": "demo-day-stage"
      },
      {
       "name": "bbbTrigger",
       "type": "string",
       "value": "onaction"
      },
      {
       "name": "focusable",
       "type": "bool",
       "value": true
      }
     ]
    },
    {
     "id": 11,
     "name": "stage-reel",
     "type": "area",
     "class": "area",
     "x": 608,
     "y": 448,
     "width": 192,
     "height": 64,
     "rotation": 0,
     "visible": true,
     "ellipse": false,
     "properties": [
      {
       "name": "openWebsite",
       "type": "string",
       "value": "https://www.youtube.com/embed/live_stream?channel=REPLACE_CHANNEL"
      },
      {
       "name": "openWebsiteTrigger",
       "type": "string",
       "value": "onaction"
      },
      {
       "name": "openWebsitePolicy",
       "type": "string",
       "value": "autoplay; fullscreen"
      },
      {
       "name": "openWebsiteWidth",
       "type": "int",
       "value": 50
      },
      {
       "name": "focusable",
       "type": "bool",
       "value": true
      }
     ]
    },
    {
     "id": 12,
     "name": "l-stage-reel",
     "type": "",
     "x": 608,
     "y": 416,
     "width": 192,
     "height": 64,
     "rotation": 0,
     "visible": true,
     "text": {
      "text": "▶️ Reel screen (Premiere)",
      "fontfamily": "Sans Serif",
      "pixelsize": 14,
      "wrap": true,
      "color": "#ffffff",
      "bold": true
     }
    },
    {
     "id": 13,
     "name": "sign-teams",
     "type": "",
     "x": 96,
     "y": 544,
     "width": 1216,
     "height": 64,
     "rotation": 0,
     "visible": true,
     "text": {
      "text": "🏗️ TEAM AVENUE — 20 booths (SPACE to open)",
      "fontfamily": "Sans Serif",
      "pixelsize": 16,
      "wrap": true,
      "color": "#ffffff",
      "bold": true
     }
    },
    {
     "id": 14,
     "name": "label-t01",
     "type": "",
     "x": 96,
     "y": 576,
     "width": 256,
     "height": 64,
     "rotation": 0,
     "visible": true,
     "text": {
      "text": "Booth 01 · Yay Thal Pya Zat\nWater Delivery System (Web + API)",
      "fontfamily": "Sans Serif",
      "pixelsize": 12,
      "wrap": true,
      "color": "#ffffff",
      "bold": true
     }
    },
    {
     "id": 15,
     "name": "video-t01",
     "type": "area",
     "class": "area",
     "x": 128,
     "y": 640,
     "width": 96,
     "height": 64,
     "rotation": 0,
     "visible": true,
     "ellipse": false,
     "properties": [
      {
       "name": "openWebsite",
       "type": "string",
       "value": "https://www.youtube.com/embed/PgkMgBNo_CQ?autoplay=1&mute=1&loop=1&playlist=PgkMgBNo_CQ"
      },
      {
       "name": "openWebsiteTrigger",
       "type": "string",
       "value": "onaction"
      },
      {
       "name": "openWebsitePolicy",
       "type": "string",
       "value": "autoplay; fullscreen"
      },
      {
       "name": "openWebsiteWidth",
       "type": "int",
       "value": 50
      },
      {
       "name": "focusable",
       "type": "bool",
       "value": true
      }
     ]
    },
    {
     "id": 16,
     "name": "kiosk-t01",
     "type": "area",
     "class": "area",
     "x": 256,
     "y": 640,
     "width": 64,
     "height": 64,
     "rotation": 0,
     "visible": true,
     "ellipse": false,
     "properties": [
      {
       "name": "openWebsite",
       "type": "string",
       "value": "https://water-delivery-system-prod.vercel.app/"
      },
      {
       "name": "openWebsiteTrigger",
       "type": "string",
       "value": "onaction"
      },
      {
       "name": "openWebsitePolicy",
       "type": "string",
       "value": "autoplay; fullscreen"
      },
      {
       "name": "openWebsiteWidth",
       "type": "int",
       "value": 50
      },
      {
       "name": "focusable",
       "type": "bool",
       "value": true
      }
     ]
    },
    {
     "id": 17,
     "name": "qa-t01",
     "type": "area",
     "class": "area",
     "x": 160,
     "y": 736,
     "width": 128,
     "height": 64,
     "rotation": 0,
     "visible": true,
     "ellipse": false,
     "properties": [
      {
       "name": "jitsiRoom",
       "type": "string",
       "value": "team-01-booth"
      },
      {
       "name": "jitsiTrigger",
       "type": "string",
       "value": "onaction"
      },
      {
       "name": "jitsiConfig",
       "type": "string",
       "value": "{\"startWithAudioMuted\":true}"
      },
      {
       "name": "focusable",
       "type": "bool",
       "value": true
      }
     ]
    },
    {
     "id": 18,
     "name": "label-t02",
     "type": "",
     "x": 416,
     "y": 576,
     "width": 256,
     "height": 64,
     "rotation": 0,
     "visible": true,
     "text": {
      "text": "Booth 02 · SonicSavor\nmood-driven dining web app that turns a user's emotional state into a personalized 3-course meal and matching Music ambience.",
      "fontfamily": "Sans Serif",
      "pixelsize": 12,
      "wrap": true,
      "color": "#ffffff",
      "bold": true
     }
    },
    {
     "id": 19,
     "name": "novideo-t02",
     "type": "",
     "x": 448,
     "y": 640,
     "width": 96,
     "height": 64,
     "rotation": 0,
     "visible": true,
     "text": {
      "text": "(video pending)",
      "fontfamily": "Sans Serif",
      "pixelsize": 14,
      "wrap": true,
      "color": "#ffffff",
      "bold": true
     }
    },
    {
     "id": 20,
     "name": "repo-t02",
     "type": "area",
     "class": "area",
     "x": 576,
     "y": 640,
     "width": 64,
     "height": 64,
     "rotation": 0,
     "visible": true,
     "ellipse": false,
     "properties": [
      {
       "name": "openWebsite",
       "type": "string",
       "value": "https://github.com/vibe-code-tours/Team-02-app"
      },
      {
       "name": "openWebsiteTrigger",
       "type": "string",
       "value": "onaction"
      },
      {
       "name": "openWebsitePolicy",
       "type": "string",
       "value": "autoplay; fullscreen"
      },
      {
       "name": "openWebsiteWidth",
       "type": "int",
       "value": 50
      },
      {
       "name": "focusable",
       "type": "bool",
       "value": true
      }
     ]
    },
    {
     "id": 21,
     "name": "qa-t02",
     "type": "area",
     "class": "area",
     "x": 480,
     "y": 736,
     "width": 128,
     "height": 64,
     "rotation": 0,
     "visible": true,
     "ellipse": false,
     "properties": [
      {
       "name": "jitsiRoom",
       "type": "string",
       "value": "team-02-booth"
      },
      {
       "name": "jitsiTrigger",
       "type": "string",
       "value": "onaction"
      },
      {
       "name": "jitsiConfig",
       "type": "string",
       "value": "{\"startWithAudioMuted\":true}"
      },
      {
       "name": "focusable",
       "type": "bool",
       "value": true
      }
     ]
    },
    {
     "id": 22,
     "name": "label-t03",
     "type": "",
     "x": 736,
     "y": 576,
     "width": 256,
     "height": 64,
     "rotation": 0,
     "visible": true,
     "text": {
      "text": "Booth 03 · Pwe\nEvent Handling web platform",
      "fontfamily": "Sans Serif",
      "pixelsize": 12,
      "wrap": true,
      "color": "#ffffff",
      "bold": true
     }
    },
    {
     "id": 23,
     "name": "novideo-t03",
     "type": "",
     "x": 768,
     "y": 640,
     "width": 96,
     "height": 64,
     "rotation": 0,
     "visible": true,
     "text": {
      "text": "(video pending)",
      "fontfamily": "Sans Serif",
      "pixelsize": 14,
      "wrap": true,
      "color": "#ffffff",
      "bold": true
     }
    },
    {
     "id": 24,
     "name": "kiosk-t03",
     "type": "area",
     "class": "area",
     "x": 896,
     "y": 640,
     "width": 64,
     "height": 64,
     "rotation": 0,
     "visible": true,
     "ellipse": false,
     "properties": [
      {
       "name": "openWebsite",
       "type": "string",
       "value": "https://dev.pwe-mm.site/"
      },
      {
       "name": "openWebsiteTrigger",
       "type": "string",
       "value": "onaction"
      },
      {
       "name": "openWebsitePolicy",
       "type": "string",
       "value": "autoplay; fullscreen"
      },
      {
       "name": "openWebsiteWidth",
       "type": "int",
       "value": 50
      },
      {
       "name": "focusable",
       "type": "bool",
       "value": true
      }
     ]
    },
    {
     "id": 25,
     "name": "qa-t03",
     "type": "area",
     "class": "area",
     "x": 800,
     "y": 736,
     "width": 128,
     "height": 64,
     "rotation": 0,
     "visible": true,
     "ellipse": false,
     "properties": [
      {
       "name": "jitsiRoom",
       "type": "string",
       "value": "team-03-booth"
      },
      {
       "name": "jitsiTrigger",
       "type": "string",
       "value": "onaction"
      },
      {
       "name": "jitsiConfig",
       "type": "string",
       "value": "{\"startWithAudioMuted\":true}"
      },
      {
       "name": "focusable",
       "type": "bool",
       "value": true
      }
     ]
    },
    {
     "id": 26,
     "name": "label-t04",
     "type": "",
     "x": 1056,
     "y": 576,
     "width": 256,
     "height": 64,
     "rotation": 0,
     "visible": true,
     "text": {
      "text": "Booth 04 · Team-04\n",
      "fontfamily": "Sans Serif",
      "pixelsize": 12,
      "wrap": true,
      "color": "#ffffff",
      "bold": true
     }
    },
    {
     "id": 27,
     "name": "novideo-t04",
     "type": "",
     "x": 1088,
     "y": 640,
     "width": 96,
     "height": 64,
     "rotation": 0,
     "visible": true,
     "text": {
      "text": "(video pending)",
      "fontfamily": "Sans Serif",
      "pixelsize": 14,
      "wrap": true,
      "color": "#ffffff",
      "bold": true
     }
    },
    {
     "id": 28,
     "name": "repo-t04",
     "type": "area",
     "class": "area",
     "x": 1216,
     "y": 640,
     "width": 64,
     "height": 64,
     "rotation": 0,
     "visible": true,
     "ellipse": false,
     "properties": [
      {
       "name": "openWebsite",
       "type": "string",
       "value": "https://github.com/vibe-code-tours/Team-04-app"
      },
      {
       "name": "openWebsiteTrigger",
       "type": "string",
       "value": "onaction"
      },
      {
       "name": "openWebsitePolicy",
       "type": "string",
       "value": "autoplay; fullscreen"
      },
      {
       "name": "openWebsiteWidth",
       "type": "int",
       "value": 50
      },
      {
       "name": "focusable",
       "type": "bool",
       "value": true
      }
     ]
    },
    {
     "id": 29,
     "name": "qa-t04",
     "type": "area",
     "class": "area",
     "x": 1120,
     "y": 736,
     "width": 128,
     "height": 64,
     "rotation": 0,
     "visible": true,
     "ellipse": false,
     "properties": [
      {
       "name": "jitsiRoom",
       "type": "string",
       "value": "team-04-booth"
      },
      {
       "name": "jitsiTrigger",
       "type": "string",
       "value": "onaction"
      },
      {
       "name": "jitsiConfig",
       "type": "string",
       "value": "{\"startWithAudioMuted\":true}"
      },
      {
       "name": "focusable",
       "type": "bool",
       "value": true
      }
     ]
    },
    {
     "id": 30,
     "name": "label-t05",
     "type": "",
     "x": 96,
     "y": 864,
     "width": 256,
     "height": 64,
     "rotation": 0,
     "visible": true,
     "text": {
      "text": "Booth 05 · CrossMart\nA comprehensive cross-border e-commerce marketplace tailored for Myanmar",
      "fontfamily": "Sans Serif",
      "pixelsize": 12,
      "wrap": true,
      "color": "#ffffff",
      "bold": true
     }
    },
    {
     "id": 31,
     "name": "novideo-t05",
     "type": "",
     "x": 128,
     "y": 928,
     "width": 96,
     "height": 64,
     "rotation": 0,
     "visible": true,
     "text": {
      "text": "(video pending)",
      "fontfamily": "Sans Serif",
      "pixelsize": 14,
      "wrap": true,
      "color": "#ffffff",
      "bold": true
     }
    },
    {
     "id": 32,
     "name": "kiosk-t05",
     "type": "area",
     "class": "area",
     "x": 256,
     "y": 928,
     "width": 64,
     "height": 64,
     "rotation": 0,
     "visible": true,
     "ellipse": false,
     "properties": [
      {
       "name": "openWebsite",
       "type": "string",
       "value": "https://team-05-app.vercel.app"
      },
      {
       "name": "openWebsiteTrigger",
       "type": "string",
       "value": "onaction"
      },
      {
       "name": "openWebsitePolicy",
       "type": "string",
       "value": "autoplay; fullscreen"
      },
      {
       "name": "openWebsiteWidth",
       "type": "int",
       "value": 50
      },
      {
       "name": "focusable",
       "type": "bool",
       "value": true
      }
     ]
    },
    {
     "id": 33,
     "name": "qa-t05",
     "type": "area",
     "class": "area",
     "x": 160,
     "y": 1024,
     "width": 128,
     "height": 64,
     "rotation": 0,
     "visible": true,
     "ellipse": false,
     "properties": [
      {
       "name": "jitsiRoom",
       "type": "string",
       "value": "team-05-booth"
      },
      {
       "name": "jitsiTrigger",
       "type": "string",
       "value": "onaction"
      },
      {
       "name": "jitsiConfig",
       "type": "string",
       "value": "{\"startWithAudioMuted\":true}"
      },
      {
       "name": "focusable",
       "type": "bool",
       "value": true
      }
     ]
    },
    {
     "id": 34,
     "name": "label-t06",
     "type": "",
     "x": 416,
     "y": 864,
     "width": 256,
     "height": 64,
     "rotation": 0,
     "visible": true,
     "text": {
      "text": "Booth 06 · QRDine\nRestaurant QR Order System",
      "fontfamily": "Sans Serif",
      "pixelsize": 12,
      "wrap": true,
      "color": "#ffffff",
      "bold": true
     }
    },
    {
     "id": 35,
     "name": "novideo-t06",
     "type": "",
     "x": 448,
     "y": 928,
     "width": 96,
     "height": 64,
     "rotation": 0,
     "visible": true,
     "text": {
      "text": "(video pending)",
      "fontfamily": "Sans Serif",
      "pixelsize": 14,
      "wrap": true,
      "color": "#ffffff",
      "bold": true
     }
    },
    {
     "id": 36,
     "name": "kiosk-t06",
     "type": "area",
     "class": "area",
     "x": 576,
     "y": 928,
     "width": 64,
     "height": 64,
     "rotation": 0,
     "visible": true,
     "ellipse": false,
     "properties": [
      {
       "name": "openWebsite",
       "type": "string",
       "value": "https://team-06-app.netlify.app/"
      },
      {
       "name": "openWebsiteTrigger",
       "type": "string",
       "value": "onaction"
      },
      {
       "name": "openWebsitePolicy",
       "type": "string",
       "value": "autoplay; fullscreen"
      },
      {
       "name": "openWebsiteWidth",
       "type": "int",
       "value": 50
      },
      {
       "name": "focusable",
       "type": "bool",
       "value": true
      }
     ]
    },
    {
     "id": 37,
     "name": "qa-t06",
     "type": "area",
     "class": "area",
     "x": 480,
     "y": 1024,
     "width": 128,
     "height": 64,
     "rotation": 0,
     "visible": true,
     "ellipse": false,
     "properties": [
      {
       "name": "jitsiRoom",
       "type": "string",
       "value": "team-06-booth"
      },
      {
       "name": "jitsiTrigger",
       "type": "string",
       "value": "onaction"
      },
      {
       "name": "jitsiConfig",
       "type": "string",
       "value": "{\"startWithAudioMuted\":true}"
      },
      {
       "name": "focusable",
       "type": "bool",
       "value": true
      }
     ]
    },
    {
     "id": 38,
     "name": "label-t07",
     "type": "",
     "x": 736,
     "y": 864,
     "width": 256,
     "height": 64,
     "rotation": 0,
     "visible": true,
     "text": {
      "text": "Booth 07 · ARGUS\nDecentralized Shadow AI Scanner",
      "fontfamily": "Sans Serif",
      "pixelsize": 12,
      "wrap": true,
      "color": "#ffffff",
      "bold": true
     }
    },
    {
     "id": 39,
     "name": "novideo-t07",
     "type": "",
     "x": 768,
     "y": 928,
     "width": 96,
     "height": 64,
     "rotation": 0,
     "visible": true,
     "text": {
      "text": "(video pending)",
      "fontfamily": "Sans Serif",
      "pixelsize": 14,
      "wrap": true,
      "color": "#ffffff",
      "bold": true
     }
    },
    {
     "id": 40,
     "name": "kiosk-t07",
     "type": "area",
     "class": "area",
     "x": 896,
     "y": 928,
     "width": 64,
     "height": 64,
     "rotation": 0,
     "visible": true,
     "ellipse": false,
     "properties": [
      {
       "name": "openWebsite",
       "type": "string",
       "value": "https://argus-scanner.duckdns.org/"
      },
      {
       "name": "openWebsiteTrigger",
       "type": "string",
       "value": "onaction"
      },
      {
       "name": "openWebsitePolicy",
       "type": "string",
       "value": "autoplay; fullscreen"
      },
      {
       "name": "openWebsiteWidth",
       "type": "int",
       "value": 50
      },
      {
       "name": "focusable",
       "type": "bool",
       "value": true
      }
     ]
    },
    {
     "id": 41,
     "name": "qa-t07",
     "type": "area",
     "class": "area",
     "x": 800,
     "y": 1024,
     "width": 128,
     "height": 64,
     "rotation": 0,
     "visible": true,
     "ellipse": false,
     "properties": [
      {
       "name": "jitsiRoom",
       "type": "string",
       "value": "team-07-booth"
      },
      {
       "name": "jitsiTrigger",
       "type": "string",
       "value": "onaction"
      },
      {
       "name": "jitsiConfig",
       "type": "string",
       "value": "{\"startWithAudioMuted\":true}"
      },
      {
       "name": "focusable",
       "type": "bool",
       "value": true
      }
     ]
    },
    {
     "id": 42,
     "name": "label-t08",
     "type": "",
     "x": 1056,
     "y": 864,
     "width": 256,
     "height": 64,
     "rotation": 0,
     "visible": true,
     "text": {
      "text": "Booth 08 · TheChosenOne\nMultiplayer Party Game App",
      "fontfamily": "Sans Serif",
      "pixelsize": 12,
      "wrap": true,
      "color": "#ffffff",
      "bold": true
     }
    },
    {
     "id": 43,
     "name": "video-t08",
     "type": "area",
     "class": "area",
     "x": 1088,
     "y": 928,
     "width": 96,
     "height": 64,
     "rotation": 0,
     "visible": true,
     "ellipse": false,
     "properties": [
      {
       "name": "openWebsite",
       "type": "string",
       "value": "https://www.youtube.com/embed/J6YnDcO0r7c?autoplay=1&mute=1&loop=1&playlist=J6YnDcO0r7c"
      },
      {
       "name": "openWebsiteTrigger",
       "type": "string",
       "value": "onaction"
      },
      {
       "name": "openWebsitePolicy",
       "type": "string",
       "value": "autoplay; fullscreen"
      },
      {
       "name": "openWebsiteWidth",
       "type": "int",
       "value": 50
      },
      {
       "name": "focusable",
       "type": "bool",
       "value": true
      }
     ]
    },
    {
     "id": 44,
     "name": "kiosk-t08",
     "type": "area",
     "class": "area",
     "x": 1216,
     "y": 928,
     "width": 64,
     "height": 64,
     "rotation": 0,
     "visible": true,
     "ellipse": false,
     "properties": [
      {
       "name": "openWebsite",
       "type": "string",
       "value": "https://vibecode.tours/team-08-app/"
      },
      {
       "name": "openWebsiteTrigger",
       "type": "string",
       "value": "onaction"
      },
      {
       "name": "openWebsitePolicy",
       "type": "string",
       "value": "autoplay; fullscreen"
      },
      {
       "name": "openWebsiteWidth",
       "type": "int",
       "value": 50
      },
      {
       "name": "focusable",
       "type": "bool",
       "value": true
      }
     ]
    },
    {
     "id": 45,
     "name": "qa-t08",
     "type": "area",
     "class": "area",
     "x": 1120,
     "y": 1024,
     "width": 128,
     "height": 64,
     "rotation": 0,
     "visible": true,
     "ellipse": false,
     "properties": [
      {
       "name": "jitsiRoom",
       "type": "string",
       "value": "team-08-booth"
      },
      {
       "name": "jitsiTrigger",
       "type": "string",
       "value": "onaction"
      },
      {
       "name": "jitsiConfig",
       "type": "string",
       "value": "{\"startWithAudioMuted\":true}"
      },
      {
       "name": "focusable",
       "type": "bool",
       "value": true
      }
     ]
    },
    {
     "id": 46,
     "name": "label-t09",
     "type": "",
     "x": 96,
     "y": 1152,
     "width": 256,
     "height": 64,
     "rotation": 0,
     "visible": true,
     "text": {
      "text": "Booth 09 · Mhat Tan\n",
      "fontfamily": "Sans Serif",
      "pixelsize": 12,
      "wrap": true,
      "color": "#ffffff",
      "bold": true
     }
    },
    {
     "id": 47,
     "name": "video-t09",
     "type": "area",
     "class": "area",
     "x": 128,
     "y": 1216,
     "width": 96,
     "height": 64,
     "rotation": 0,
     "visible": true,
     "ellipse": false,
     "properties": [
      {
       "name": "openWebsite",
       "type": "string",
       "value": "https://www.youtube.com/embed/-hN5QhOEFMU?autoplay=1&mute=1&loop=1&playlist=-hN5QhOEFMU"
      },
      {
       "name": "openWebsiteTrigger",
       "type": "string",
       "value": "onaction"
      },
      {
       "name": "openWebsitePolicy",
       "type": "string",
       "value": "autoplay; fullscreen"
      },
      {
       "name": "openWebsiteWidth",
       "type": "int",
       "value": 50
      },
      {
       "name": "focusable",
       "type": "bool",
       "value": true
      }
     ]
    },
    {
     "id": 48,
     "name": "repo-t09",
     "type": "area",
     "class": "area",
     "x": 256,
     "y": 1216,
     "width": 64,
     "height": 64,
     "rotation": 0,
     "visible": true,
     "ellipse": false,
     "properties": [
      {
       "name": "openWebsite",
       "type": "string",
       "value": "https://github.com/vibe-code-tours/Team-09-app"
      },
      {
       "name": "openWebsiteTrigger",
       "type": "string",
       "value": "onaction"
      },
      {
       "name": "openWebsitePolicy",
       "type": "string",
       "value": "autoplay; fullscreen"
      },
      {
       "name": "openWebsiteWidth",
       "type": "int",
       "value": 50
      },
      {
       "name": "focusable",
       "type": "bool",
       "value": true
      }
     ]
    },
    {
     "id": 49,
     "name": "qa-t09",
     "type": "area",
     "class": "area",
     "x": 160,
     "y": 1312,
     "width": 128,
     "height": 64,
     "rotation": 0,
     "visible": true,
     "ellipse": false,
     "properties": [
      {
       "name": "jitsiRoom",
       "type": "string",
       "value": "team-09-booth"
      },
      {
       "name": "jitsiTrigger",
       "type": "string",
       "value": "onaction"
      },
      {
       "name": "jitsiConfig",
       "type": "string",
       "value": "{\"startWithAudioMuted\":true}"
      },
      {
       "name": "focusable",
       "type": "bool",
       "value": true
      }
     ]
    },
    {
     "id": 50,
     "name": "label-t10",
     "type": "",
     "x": 416,
     "y": 1152,
     "width": 256,
     "height": 64,
     "rotation": 0,
     "visible": true,
     "text": {
      "text": "Booth 10 · Yoe Yar Zay\nMyanmar Local Product Directory & E-Commerce",
      "fontfamily": "Sans Serif",
      "pixelsize": 12,
      "wrap": true,
      "color": "#ffffff",
      "bold": true
     }
    },
    {
     "id": 51,
     "name": "video-t10",
     "type": "area",
     "class": "area",
     "x": 448,
     "y": 1216,
     "width": 96,
     "height": 64,
     "rotation": 0,
     "visible": true,
     "ellipse": false,
     "properties": [
      {
       "name": "openWebsite",
       "type": "string",
       "value": "https://www.youtube.com/embed/6RTI96442aQ?autoplay=1&mute=1&loop=1&playlist=6RTI96442aQ"
      },
      {
       "name": "openWebsiteTrigger",
       "type": "string",
       "value": "onaction"
      },
      {
       "name": "openWebsitePolicy",
       "type": "string",
       "value": "autoplay; fullscreen"
      },
      {
       "name": "openWebsiteWidth",
       "type": "int",
       "value": 50
      },
      {
       "name": "focusable",
       "type": "bool",
       "value": true
      }
     ]
    },
    {
     "id": 52,
     "name": "kiosk-t10",
     "type": "area",
     "class": "area",
     "x": 576,
     "y": 1216,
     "width": 64,
     "height": 64,
     "rotation": 0,
     "visible": true,
     "ellipse": false,
     "properties": [
      {
       "name": "openWebsite",
       "type": "string",
       "value": "https://yoeyarzay.vercel.app/"
      },
      {
       "name": "openWebsiteTrigger",
       "type": "string",
       "value": "onaction"
      },
      {
       "name": "openWebsitePolicy",
       "type": "string",
       "value": "autoplay; fullscreen"
      },
      {
       "name": "openWebsiteWidth",
       "type": "int",
       "value": 50
      },
      {
       "name": "focusable",
       "type": "bool",
       "value": true
      }
     ]
    },
    {
     "id": 53,
     "name": "qa-t10",
     "type": "area",
     "class": "area",
     "x": 480,
     "y": 1312,
     "width": 128,
     "height": 64,
     "rotation": 0,
     "visible": true,
     "ellipse": false,
     "properties": [
      {
       "name": "jitsiRoom",
       "type": "string",
       "value": "team-10-booth"
      },
      {
       "name": "jitsiTrigger",
       "type": "string",
       "value": "onaction"
      },
      {
       "name": "jitsiConfig",
       "type": "string",
       "value": "{\"startWithAudioMuted\":true}"
      },
      {
       "name": "focusable",
       "type": "bool",
       "value": true
      }
     ]
    },
    {
     "id": 54,
     "name": "label-t11",
     "type": "",
     "x": 736,
     "y": 1152,
     "width": 256,
     "height": 64,
     "rotation": 0,
     "visible": true,
     "text": {
      "text": "Booth 11 · Personal Analytics\nAI-Powered Personal Analytics & Productivity Suite An all-in-one smart dashboard that utilizes edge computer vision and generative AI to seamlessly manage fitness, finances, and cognitive focus.",
      "fontfamily": "Sans Serif",
      "pixelsize": 12,
      "wrap": true,
      "color": "#ffffff",
      "bold": true
     }
    },
    {
     "id": 55,
     "name": "novideo-t11",
     "type": "",
     "x": 768,
     "y": 1216,
     "width": 96,
     "height": 64,
     "rotation": 0,
     "visible": true,
     "text": {
      "text": "(video pending)",
      "fontfamily": "Sans Serif",
      "pixelsize": 14,
      "wrap": true,
      "color": "#ffffff",
      "bold": true
     }
    },
    {
     "id": 56,
     "name": "kiosk-t11",
     "type": "area",
     "class": "area",
     "x": 896,
     "y": 1216,
     "width": 64,
     "height": 64,
     "rotation": 0,
     "visible": true,
     "ellipse": false,
     "properties": [
      {
       "name": "openWebsite",
       "type": "string",
       "value": "https://personal-analytics-amber.vercel.app/"
      },
      {
       "name": "openWebsiteTrigger",
       "type": "string",
       "value": "onaction"
      },
      {
       "name": "openWebsitePolicy",
       "type": "string",
       "value": "autoplay; fullscreen"
      },
      {
       "name": "openWebsiteWidth",
       "type": "int",
       "value": 50
      },
      {
       "name": "focusable",
       "type": "bool",
       "value": true
      }
     ]
    },
    {
     "id": 57,
     "name": "qa-t11",
     "type": "area",
     "class": "area",
     "x": 800,
     "y": 1312,
     "width": 128,
     "height": 64,
     "rotation": 0,
     "visible": true,
     "ellipse": false,
     "properties": [
      {
       "name": "jitsiRoom",
       "type": "string",
       "value": "team-11-booth"
      },
      {
       "name": "jitsiTrigger",
       "type": "string",
       "value": "onaction"
      },
      {
       "name": "jitsiConfig",
       "type": "string",
       "value": "{\"startWithAudioMuted\":true}"
      },
      {
       "name": "focusable",
       "type": "bool",
       "value": true
      }
     ]
    },
    {
     "id": 58,
     "name": "label-t12",
     "type": "",
     "x": 1056,
     "y": 1152,
     "width": 256,
     "height": 64,
     "rotation": 0,
     "visible": true,
     "text": {
      "text": "Booth 12 · Dr.Note\n",
      "fontfamily": "Sans Serif",
      "pixelsize": 12,
      "wrap": true,
      "color": "#ffffff",
      "bold": true
     }
    },
    {
     "id": 59,
     "name": "video-t12",
     "type": "area",
     "class": "area",
     "x": 1088,
     "y": 1216,
     "width": 96,
     "height": 64,
     "rotation": 0,
     "visible": true,
     "ellipse": false,
     "properties": [
      {
       "name": "openWebsite",
       "type": "string",
       "value": "https://www.youtube.com/embed/rk7r3RzZ2go?autoplay=1&mute=1&loop=1&playlist=rk7r3RzZ2go"
      },
      {
       "name": "openWebsiteTrigger",
       "type": "string",
       "value": "onaction"
      },
      {
       "name": "openWebsitePolicy",
       "type": "string",
       "value": "autoplay; fullscreen"
      },
      {
       "name": "openWebsiteWidth",
       "type": "int",
       "value": 50
      },
      {
       "name": "focusable",
       "type": "bool",
       "value": true
      }
     ]
    },
    {
     "id": 60,
     "name": "kiosk-t12",
     "type": "area",
     "class": "area",
     "x": 1216,
     "y": 1216,
     "width": 64,
     "height": 64,
     "rotation": 0,
     "visible": true,
     "ellipse": false,
     "properties": [
      {
       "name": "openWebsite",
       "type": "string",
       "value": "https://dr-note-demo.vercel.app/login"
      },
      {
       "name": "openWebsiteTrigger",
       "type": "string",
       "value": "onaction"
      },
      {
       "name": "openWebsitePolicy",
       "type": "string",
       "value": "autoplay; fullscreen"
      },
      {
       "name": "openWebsiteWidth",
       "type": "int",
       "value": 50
      },
      {
       "name": "focusable",
       "type": "bool",
       "value": true
      }
     ]
    },
    {
     "id": 61,
     "name": "qa-t12",
     "type": "area",
     "class": "area",
     "x": 1120,
     "y": 1312,
     "width": 128,
     "height": 64,
     "rotation": 0,
     "visible": true,
     "ellipse": false,
     "properties": [
      {
       "name": "jitsiRoom",
       "type": "string",
       "value": "team-12-booth"
      },
      {
       "name": "jitsiTrigger",
       "type": "string",
       "value": "onaction"
      },
      {
       "name": "jitsiConfig",
       "type": "string",
       "value": "{\"startWithAudioMuted\":true}"
      },
      {
       "name": "focusable",
       "type": "bool",
       "value": true
      }
     ]
    },
    {
     "id": 62,
     "name": "label-t13",
     "type": "",
     "x": 96,
     "y": 1440,
     "width": 256,
     "height": 64,
     "rotation": 0,
     "visible": true,
     "text": {
      "text": "Booth 13 · ApplyAI\nAI powered resume creating platform",
      "fontfamily": "Sans Serif",
      "pixelsize": 12,
      "wrap": true,
      "color": "#ffffff",
      "bold": true
     }
    },
    {
     "id": 63,
     "name": "novideo-t13",
     "type": "",
     "x": 128,
     "y": 1504,
     "width": 96,
     "height": 64,
     "rotation": 0,
     "visible": true,
     "text": {
      "text": "(video pending)",
      "fontfamily": "Sans Serif",
      "pixelsize": 14,
      "wrap": true,
      "color": "#ffffff",
      "bold": true
     }
    },
    {
     "id": 64,
     "name": "repo-t13",
     "type": "area",
     "class": "area",
     "x": 256,
     "y": 1504,
     "width": 64,
     "height": 64,
     "rotation": 0,
     "visible": true,
     "ellipse": false,
     "properties": [
      {
       "name": "openWebsite",
       "type": "string",
       "value": "https://github.com/team-thirteen13/AutoApply"
      },
      {
       "name": "openWebsiteTrigger",
       "type": "string",
       "value": "onaction"
      },
      {
       "name": "openWebsitePolicy",
       "type": "string",
       "value": "autoplay; fullscreen"
      },
      {
       "name": "openWebsiteWidth",
       "type": "int",
       "value": 50
      },
      {
       "name": "focusable",
       "type": "bool",
       "value": true
      }
     ]
    },
    {
     "id": 65,
     "name": "qa-t13",
     "type": "area",
     "class": "area",
     "x": 160,
     "y": 1600,
     "width": 128,
     "height": 64,
     "rotation": 0,
     "visible": true,
     "ellipse": false,
     "properties": [
      {
       "name": "jitsiRoom",
       "type": "string",
       "value": "team-13-booth"
      },
      {
       "name": "jitsiTrigger",
       "type": "string",
       "value": "onaction"
      },
      {
       "name": "jitsiConfig",
       "type": "string",
       "value": "{\"startWithAudioMuted\":true}"
      },
      {
       "name": "focusable",
       "type": "bool",
       "value": true
      }
     ]
    },
    {
     "id": 66,
     "name": "label-t14",
     "type": "",
     "x": 416,
     "y": 1440,
     "width": 256,
     "height": 64,
     "rotation": 0,
     "visible": true,
     "text": {
      "text": "Booth 14 · Worker Voice\nWorkerVoice Review Platform",
      "fontfamily": "Sans Serif",
      "pixelsize": 12,
      "wrap": true,
      "color": "#ffffff",
      "bold": true
     }
    },
    {
     "id": 67,
     "name": "novideo-t14",
     "type": "",
     "x": 448,
     "y": 1504,
     "width": 96,
     "height": 64,
     "rotation": 0,
     "visible": true,
     "text": {
      "text": "(video pending)",
      "fontfamily": "Sans Serif",
      "pixelsize": 14,
      "wrap": true,
      "color": "#ffffff",
      "bold": true
     }
    },
    {
     "id": 68,
     "name": "kiosk-t14",
     "type": "area",
     "class": "area",
     "x": 576,
     "y": 1504,
     "width": 64,
     "height": 64,
     "rotation": 0,
     "visible": true,
     "ellipse": false,
     "properties": [
      {
       "name": "openWebsite",
       "type": "string",
       "value": "https://workervoice.help/"
      },
      {
       "name": "openWebsiteTrigger",
       "type": "string",
       "value": "onaction"
      },
      {
       "name": "openWebsitePolicy",
       "type": "string",
       "value": "autoplay; fullscreen"
      },
      {
       "name": "openWebsiteWidth",
       "type": "int",
       "value": 50
      },
      {
       "name": "focusable",
       "type": "bool",
       "value": true
      }
     ]
    },
    {
     "id": 69,
     "name": "qa-t14",
     "type": "area",
     "class": "area",
     "x": 480,
     "y": 1600,
     "width": 128,
     "height": 64,
     "rotation": 0,
     "visible": true,
     "ellipse": false,
     "properties": [
      {
       "name": "jitsiRoom",
       "type": "string",
       "value": "team-14-booth"
      },
      {
       "name": "jitsiTrigger",
       "type": "string",
       "value": "onaction"
      },
      {
       "name": "jitsiConfig",
       "type": "string",
       "value": "{\"startWithAudioMuted\":true}"
      },
      {
       "name": "focusable",
       "type": "bool",
       "value": true
      }
     ]
    },
    {
     "id": 70,
     "name": "label-t15",
     "type": "",
     "x": 736,
     "y": 1440,
     "width": 256,
     "height": 64,
     "rotation": 0,
     "visible": true,
     "text": {
      "text": "Booth 15 · ReVive\nGive Your Old Tech a Second Life",
      "fontfamily": "Sans Serif",
      "pixelsize": 12,
      "wrap": true,
      "color": "#ffffff",
      "bold": true
     }
    },
    {
     "id": 71,
     "name": "video-t15",
     "type": "area",
     "class": "area",
     "x": 768,
     "y": 1504,
     "width": 96,
     "height": 64,
     "rotation": 0,
     "visible": true,
     "ellipse": false,
     "properties": [
      {
       "name": "openWebsite",
       "type": "string",
       "value": "https://www.youtube.com/embed/lk3owT9c5NU?autoplay=1&mute=1&loop=1&playlist=lk3owT9c5NU"
      },
      {
       "name": "openWebsiteTrigger",
       "type": "string",
       "value": "onaction"
      },
      {
       "name": "openWebsitePolicy",
       "type": "string",
       "value": "autoplay; fullscreen"
      },
      {
       "name": "openWebsiteWidth",
       "type": "int",
       "value": 50
      },
      {
       "name": "focusable",
       "type": "bool",
       "value": true
      }
     ]
    },
    {
     "id": 72,
     "name": "kiosk-t15",
     "type": "area",
     "class": "area",
     "x": 896,
     "y": 1504,
     "width": 64,
     "height": 64,
     "rotation": 0,
     "visible": true,
     "ellipse": false,
     "properties": [
      {
       "name": "openWebsite",
       "type": "string",
       "value": "https://team-15-app.vercel.app/"
      },
      {
       "name": "openWebsiteTrigger",
       "type": "string",
       "value": "onaction"
      },
      {
       "name": "openWebsitePolicy",
       "type": "string",
       "value": "autoplay; fullscreen"
      },
      {
       "name": "openWebsiteWidth",
       "type": "int",
       "value": 50
      },
      {
       "name": "focusable",
       "type": "bool",
       "value": true
      }
     ]
    },
    {
     "id": 73,
     "name": "qa-t15",
     "type": "area",
     "class": "area",
     "x": 800,
     "y": 1600,
     "width": 128,
     "height": 64,
     "rotation": 0,
     "visible": true,
     "ellipse": false,
     "properties": [
      {
       "name": "jitsiRoom",
       "type": "string",
       "value": "team-15-booth"
      },
      {
       "name": "jitsiTrigger",
       "type": "string",
       "value": "onaction"
      },
      {
       "name": "jitsiConfig",
       "type": "string",
       "value": "{\"startWithAudioMuted\":true}"
      },
      {
       "name": "focusable",
       "type": "bool",
       "value": true
      }
     ]
    },
    {
     "id": 74,
     "name": "label-t16",
     "type": "",
     "x": 1056,
     "y": 1440,
     "width": 256,
     "height": 64,
     "rotation": 0,
     "visible": true,
     "text": {
      "text": "Booth 16 · NerdQuiz\n",
      "fontfamily": "Sans Serif",
      "pixelsize": 12,
      "wrap": true,
      "color": "#ffffff",
      "bold": true
     }
    },
    {
     "id": 75,
     "name": "video-t16",
     "type": "area",
     "class": "area",
     "x": 1088,
     "y": 1504,
     "width": 96,
     "height": 64,
     "rotation": 0,
     "visible": true,
     "ellipse": false,
     "properties": [
      {
       "name": "openWebsite",
       "type": "string",
       "value": "https://www.youtube.com/embed/KwtHhoQuT_M?autoplay=1&mute=1&loop=1&playlist=KwtHhoQuT_M"
      },
      {
       "name": "openWebsiteTrigger",
       "type": "string",
       "value": "onaction"
      },
      {
       "name": "openWebsitePolicy",
       "type": "string",
       "value": "autoplay; fullscreen"
      },
      {
       "name": "openWebsiteWidth",
       "type": "int",
       "value": 50
      },
      {
       "name": "focusable",
       "type": "bool",
       "value": true
      }
     ]
    },
    {
     "id": 76,
     "name": "kiosk-t16",
     "type": "area",
     "class": "area",
     "x": 1216,
     "y": 1504,
     "width": 64,
     "height": 64,
     "rotation": 0,
     "visible": true,
     "ellipse": false,
     "properties": [
      {
       "name": "openWebsite",
       "type": "string",
       "value": "https://nerdquiz-16.netlify.app"
      },
      {
       "name": "openWebsiteTrigger",
       "type": "string",
       "value": "onaction"
      },
      {
       "name": "openWebsitePolicy",
       "type": "string",
       "value": "autoplay; fullscreen"
      },
      {
       "name": "openWebsiteWidth",
       "type": "int",
       "value": 50
      },
      {
       "name": "focusable",
       "type": "bool",
       "value": true
      }
     ]
    },
    {
     "id": 77,
     "name": "qa-t16",
     "type": "area",
     "class": "area",
     "x": 1120,
     "y": 1600,
     "width": 128,
     "height": 64,
     "rotation": 0,
     "visible": true,
     "ellipse": false,
     "properties": [
      {
       "name": "jitsiRoom",
       "type": "string",
       "value": "team-16-booth"
      },
      {
       "name": "jitsiTrigger",
       "type": "string",
       "value": "onaction"
      },
      {
       "name": "jitsiConfig",
       "type": "string",
       "value": "{\"startWithAudioMuted\":true}"
      },
      {
       "name": "focusable",
       "type": "bool",
       "value": true
      }
     ]
    },
    {
     "id": 78,
     "name": "label-t17",
     "type": "",
     "x": 96,
     "y": 1728,
     "width": 256,
     "height": 64,
     "rotation": 0,
     "visible": true,
     "text": {
      "text": "Booth 17 · Adaptive Interview Assessment Platform\n",
      "fontfamily": "Sans Serif",
      "pixelsize": 12,
      "wrap": true,
      "color": "#ffffff",
      "bold": true
     }
    },
    {
     "id": 79,
     "name": "video-t17",
     "type": "area",
     "class": "area",
     "x": 128,
     "y": 1792,
     "width": 96,
     "height": 64,
     "rotation": 0,
     "visible": true,
     "ellipse": false,
     "properties": [
      {
       "name": "openWebsite",
       "type": "string",
       "value": "https://www.youtube.com/embed/oI6tWsShC48?autoplay=1&mute=1&loop=1&playlist=oI6tWsShC48"
      },
      {
       "name": "openWebsiteTrigger",
       "type": "string",
       "value": "onaction"
      },
      {
       "name": "openWebsitePolicy",
       "type": "string",
       "value": "autoplay; fullscreen"
      },
      {
       "name": "openWebsiteWidth",
       "type": "int",
       "value": 50
      },
      {
       "name": "focusable",
       "type": "bool",
       "value": true
      }
     ]
    },
    {
     "id": 80,
     "name": "kiosk-t17",
     "type": "area",
     "class": "area",
     "x": 256,
     "y": 1792,
     "width": 64,
     "height": 64,
     "rotation": 0,
     "visible": true,
     "ellipse": false,
     "properties": [
      {
       "name": "openWebsite",
       "type": "string",
       "value": "https://team-17-app-dulg.vercel.app"
      },
      {
       "name": "openWebsiteTrigger",
       "type": "string",
       "value": "onaction"
      },
      {
       "name": "openWebsitePolicy",
       "type": "string",
       "value": "autoplay; fullscreen"
      },
      {
       "name": "openWebsiteWidth",
       "type": "int",
       "value": 50
      },
      {
       "name": "focusable",
       "type": "bool",
       "value": true
      }
     ]
    },
    {
     "id": 81,
     "name": "qa-t17",
     "type": "area",
     "class": "area",
     "x": 160,
     "y": 1888,
     "width": 128,
     "height": 64,
     "rotation": 0,
     "visible": true,
     "ellipse": false,
     "properties": [
      {
       "name": "jitsiRoom",
       "type": "string",
       "value": "team-17-booth"
      },
      {
       "name": "jitsiTrigger",
       "type": "string",
       "value": "onaction"
      },
      {
       "name": "jitsiConfig",
       "type": "string",
       "value": "{\"startWithAudioMuted\":true}"
      },
      {
       "name": "focusable",
       "type": "bool",
       "value": true
      }
     ]
    },
    {
     "id": 82,
     "name": "label-t18",
     "type": "",
     "x": 416,
     "y": 1728,
     "width": 256,
     "height": 64,
     "rotation": 0,
     "visible": true,
     "text": {
      "text": "Booth 18 · Team-18\n",
      "fontfamily": "Sans Serif",
      "pixelsize": 12,
      "wrap": true,
      "color": "#ffffff",
      "bold": true
     }
    },
    {
     "id": 83,
     "name": "video-t18",
     "type": "area",
     "class": "area",
     "x": 448,
     "y": 1792,
     "width": 96,
     "height": 64,
     "rotation": 0,
     "visible": true,
     "ellipse": false,
     "properties": [
      {
       "name": "openWebsite",
       "type": "string",
       "value": "https://www.youtube.com/embed/xRPsqSfv4S0?autoplay=1&mute=1&loop=1&playlist=xRPsqSfv4S0"
      },
      {
       "name": "openWebsiteTrigger",
       "type": "string",
       "value": "onaction"
      },
      {
       "name": "openWebsitePolicy",
       "type": "string",
       "value": "autoplay; fullscreen"
      },
      {
       "name": "openWebsiteWidth",
       "type": "int",
       "value": 50
      },
      {
       "name": "focusable",
       "type": "bool",
       "value": true
      }
     ]
    },
    {
     "id": 84,
     "name": "kiosk-t18",
     "type": "area",
     "class": "area",
     "x": 576,
     "y": 1792,
     "width": 64,
     "height": 64,
     "rotation": 0,
     "visible": true,
     "ellipse": false,
     "properties": [
      {
       "name": "openWebsite",
       "type": "string",
       "value": "https://fraud-awareness-hub-hpa6.vercel.app/"
      },
      {
       "name": "openWebsiteTrigger",
       "type": "string",
       "value": "onaction"
      },
      {
       "name": "openWebsitePolicy",
       "type": "string",
       "value": "autoplay; fullscreen"
      },
      {
       "name": "openWebsiteWidth",
       "type": "int",
       "value": 50
      },
      {
       "name": "focusable",
       "type": "bool",
       "value": true
      }
     ]
    },
    {
     "id": 85,
     "name": "qa-t18",
     "type": "area",
     "class": "area",
     "x": 480,
     "y": 1888,
     "width": 128,
     "height": 64,
     "rotation": 0,
     "visible": true,
     "ellipse": false,
     "properties": [
      {
       "name": "jitsiRoom",
       "type": "string",
       "value": "team-18-booth"
      },
      {
       "name": "jitsiTrigger",
       "type": "string",
       "value": "onaction"
      },
      {
       "name": "jitsiConfig",
       "type": "string",
       "value": "{\"startWithAudioMuted\":true}"
      },
      {
       "name": "focusable",
       "type": "bool",
       "value": true
      }
     ]
    },
    {
     "id": 86,
     "name": "label-t19",
     "type": "",
     "x": 736,
     "y": 1728,
     "width": 256,
     "height": 64,
     "rotation": 0,
     "visible": true,
     "text": {
      "text": "Booth 19 · SoulScript\n",
      "fontfamily": "Sans Serif",
      "pixelsize": 12,
      "wrap": true,
      "color": "#ffffff",
      "bold": true
     }
    },
    {
     "id": 87,
     "name": "video-t19",
     "type": "area",
     "class": "area",
     "x": 768,
     "y": 1792,
     "width": 96,
     "height": 64,
     "rotation": 0,
     "visible": true,
     "ellipse": false,
     "properties": [
      {
       "name": "openWebsite",
       "type": "string",
       "value": "https://www.youtube.com/embed/l15rIAoLW3U?autoplay=1&mute=1&loop=1&playlist=l15rIAoLW3U"
      },
      {
       "name": "openWebsiteTrigger",
       "type": "string",
       "value": "onaction"
      },
      {
       "name": "openWebsitePolicy",
       "type": "string",
       "value": "autoplay; fullscreen"
      },
      {
       "name": "openWebsiteWidth",
       "type": "int",
       "value": 50
      },
      {
       "name": "focusable",
       "type": "bool",
       "value": true
      }
     ]
    },
    {
     "id": 88,
     "name": "kiosk-t19",
     "type": "area",
     "class": "area",
     "x": 896,
     "y": 1792,
     "width": 64,
     "height": 64,
     "rotation": 0,
     "visible": true,
     "ellipse": false,
     "properties": [
      {
       "name": "openWebsite",
       "type": "string",
       "value": "https://soul-script-nu.vercel.app/"
      },
      {
       "name": "openWebsiteTrigger",
       "type": "string",
       "value": "onaction"
      },
      {
       "name": "openWebsitePolicy",
       "type": "string",
       "value": "autoplay; fullscreen"
      },
      {
       "name": "openWebsiteWidth",
       "type": "int",
       "value": 50
      },
      {
       "name": "focusable",
       "type": "bool",
       "value": true
      }
     ]
    },
    {
     "id": 89,
     "name": "qa-t19",
     "type": "area",
     "class": "area",
     "x": 800,
     "y": 1888,
     "width": 128,
     "height": 64,
     "rotation": 0,
     "visible": true,
     "ellipse": false,
     "properties": [
      {
       "name": "jitsiRoom",
       "type": "string",
       "value": "team-19-booth"
      },
      {
       "name": "jitsiTrigger",
       "type": "string",
       "value": "onaction"
      },
      {
       "name": "jitsiConfig",
       "type": "string",
       "value": "{\"startWithAudioMuted\":true}"
      },
      {
       "name": "focusable",
       "type": "bool",
       "value": true
      }
     ]
    },
    {
     "id": 90,
     "name": "label-t20",
     "type": "",
     "x": 1056,
     "y": 1728,
     "width": 256,
     "height": 64,
     "rotation": 0,
     "visible": true,
     "text": {
      "text": "Booth 20 · Kone Sone Sine\nFundraising Event Managemaent System",
      "fontfamily": "Sans Serif",
      "pixelsize": 12,
      "wrap": true,
      "color": "#ffffff",
      "bold": true
     }
    },
    {
     "id": 91,
     "name": "novideo-t20",
     "type": "",
     "x": 1088,
     "y": 1792,
     "width": 96,
     "height": 64,
     "rotation": 0,
     "visible": true,
     "text": {
      "text": "(video pending)",
      "fontfamily": "Sans Serif",
      "pixelsize": 14,
      "wrap": true,
      "color": "#ffffff",
      "bold": true
     }
    },
    {
     "id": 92,
     "name": "kiosk-t20",
     "type": "area",
     "class": "area",
     "x": 1216,
     "y": 1792,
     "width": 64,
     "height": 64,
     "rotation": 0,
     "visible": true,
     "ellipse": false,
     "properties": [
      {
       "name": "openWebsite",
       "type": "string",
       "value": "https://develop-konesonesine.netlify.app/"
      },
      {
       "name": "openWebsiteTrigger",
       "type": "string",
       "value": "onaction"
      },
      {
       "name": "openWebsitePolicy",
       "type": "string",
       "value": "autoplay; fullscreen"
      },
      {
       "name": "openWebsiteWidth",
       "type": "int",
       "value": 50
      },
      {
       "name": "focusable",
       "type": "bool",
       "value": true
      }
     ]
    },
    {
     "id": 93,
     "name": "qa-t20",
     "type": "area",
     "class": "area",
     "x": 1120,
     "y": 1888,
     "width": 128,
     "height": 64,
     "rotation": 0,
     "visible": true,
     "ellipse": false,
     "properties": [
      {
       "name": "jitsiRoom",
       "type": "string",
       "value": "team-20-booth"
      },
      {
       "name": "jitsiTrigger",
       "type": "string",
       "value": "onaction"
      },
      {
       "name": "jitsiConfig",
       "type": "string",
       "value": "{\"startWithAudioMuted\":true}"
      },
      {
       "name": "focusable",
       "type": "bool",
       "value": true
      }
     ]
    },
    {
     "id": 94,
     "name": "sign-personal",
     "type": "",
     "x": 96,
     "y": 1952,
     "width": 1216,
     "height": 64,
     "rotation": 0,
     "visible": true,
     "text": {
      "text": "🖼️ PERSONAL GALLERY HALL — 78 student projects",
      "fontfamily": "Sans Serif",
      "pixelsize": 16,
      "wrap": true,
      "color": "#ffffff",
      "bold": true
     }
    },
    {
     "id": 95,
     "name": "gallery-a",
     "type": "area",
     "class": "area",
     "x": 224,
     "y": 2016,
     "width": 128,
     "height": 96,
     "rotation": 0,
     "visible": true,
     "ellipse": false,
     "properties": [
      {
       "name": "openWebsite",
       "type": "string",
       "value": "https://vibecode.tours/projects/personal"
      },
      {
       "name": "openWebsiteTrigger",
       "type": "string",
       "value": "onaction"
      },
      {
       "name": "openWebsitePolicy",
       "type": "string",
       "value": "autoplay; fullscreen"
      },
      {
       "name": "openWebsiteWidth",
       "type": "int",
       "value": 50
      },
      {
       "name": "focusable",
       "type": "bool",
       "value": true
      }
     ]
    },
    {
     "id": 96,
     "name": "gallery-b",
     "type": "area",
     "class": "area",
     "x": 640,
     "y": 2016,
     "width": 128,
     "height": 96,
     "rotation": 0,
     "visible": true,
     "ellipse": false,
     "properties": [
      {
       "name": "openWebsite",
       "type": "string",
       "value": "https://vibecode.tours/gallery"
      },
      {
       "name": "openWebsiteTrigger",
       "type": "string",
       "value": "onaction"
      },
      {
       "name": "openWebsitePolicy",
       "type": "string",
       "value": "autoplay; fullscreen"
      },
      {
       "name": "openWebsiteWidth",
       "type": "int",
       "value": 50
      },
      {
       "name": "focusable",
       "type": "bool",
       "value": true
      }
     ]
    },
    {
     "id": 97,
     "name": "gallery-c",
     "type": "area",
     "class": "area",
     "x": 1056,
     "y": 2016,
     "width": 128,
     "height": 96,
     "rotation": 0,
     "visible": true,
     "ellipse": false,
     "properties": [
      {
       "name": "openWebsite",
       "type": "string",
       "value": "https://vibecode.tours/projects/personal"
      },
      {
       "name": "openWebsiteTrigger",
       "type": "string",
       "value": "onaction"
      },
      {
       "name": "openWebsitePolicy",
       "type": "string",
       "value": "autoplay; fullscreen"
      },
      {
       "name": "openWebsiteWidth",
       "type": "int",
       "value": 50
      },
      {
       "name": "focusable",
       "type": "bool",
       "value": true
      }
     ]
    },
    {
     "id": 98,
     "name": "l-gallery",
     "type": "",
     "x": 96,
     "y": 1984,
     "width": 1216,
     "height": 64,
     "rotation": 0,
     "visible": true,
     "text": {
      "text": "Walk to a screen · SPACE to browse slides, screenshots, live demos",
      "fontfamily": "Sans Serif",
      "pixelsize": 14,
      "wrap": true,
      "color": "#ffffff",
      "bold": true
     }
    },
    {
     "id": 99,
     "name": "sign-vote",
     "type": "",
     "x": 96,
     "y": 2176,
     "width": 1216,
     "height": 64,
     "rotation": 0,
     "visible": true,
     "text": {
      "text": "🗳️ VOTE + FEEDBACK",
      "fontfamily": "Sans Serif",
      "pixelsize": 16,
      "wrap": true,
      "color": "#ffffff",
      "bold": true
     }
    },
    {
     "id": 100,
     "name": "vote-team",
     "type": "area",
     "class": "area",
     "x": 416,
     "y": 2240,
     "width": 128,
     "height": 96,
     "rotation": 0,
     "visible": true,
     "ellipse": false,
     "properties": [
      {
       "name": "openWebsite",
       "type": "string",
       "value": "https://vibecode.tours/vote"
      },
      {
       "name": "openWebsiteTrigger",
       "type": "string",
       "value": "onaction"
      },
      {
       "name": "openWebsitePolicy",
       "type": "string",
       "value": "autoplay; fullscreen"
      },
      {
       "name": "openWebsiteWidth",
       "type": "int",
       "value": 50
      },
      {
       "name": "focusable",
       "type": "bool",
       "value": true
      },
      {
       "name": "openWebsiteAllowApi",
       "type": "bool",
       "value": true
      }
     ]
    },
    {
     "id": 101,
     "name": "l-vote-team",
     "type": "",
     "x": 416,
     "y": 2208,
     "width": 192,
     "height": 64,
     "rotation": 0,
     "visible": true,
     "text": {
      "text": "🏆 Vote — team People's Choice (rank 3, not your own)",
      "fontfamily": "Sans Serif",
      "pixelsize": 14,
      "wrap": true,
      "color": "#ffffff",
      "bold": true
     }
    },
    {
     "id": 102,
     "name": "l-vote-personal",
     "type": "",
     "x": 640,
     "y": 2208,
     "width": 160,
     "height": 64,
     "rotation": 0,
     "visible": true,
     "text": {
      "text": "⭐ Personal vote — coming soon",
      "fontfamily": "Sans Serif",
      "pixelsize": 14,
      "wrap": true,
      "color": "#ffffff",
      "bold": true
     }
    },
    {
     "id": 103,
     "name": "feedback-form",
     "type": "area",
     "class": "area",
     "x": 864,
     "y": 2240,
     "width": 128,
     "height": 96,
     "rotation": 0,
     "visible": true,
     "ellipse": false,
     "properties": [
      {
       "name": "openWebsite",
       "type": "string",
       "value": "https://forms.gle/REPLACE_FEEDBACK_FORM"
      },
      {
       "name": "openWebsiteTrigger",
       "type": "string",
       "value": "onaction"
      },
      {
       "name": "openWebsitePolicy",
       "type": "string",
       "value": "autoplay; fullscreen"
      },
      {
       "name": "openWebsiteWidth",
       "type": "int",
       "value": 50
      },
      {
       "name": "focusable",
       "type": "bool",
       "value": true
      }
     ]
    },
    {
     "id": 104,
     "name": "l-feedback",
     "type": "",
     "x": 864,
     "y": 2208,
     "width": 192,
     "height": 64,
     "rotation": 0,
     "visible": true,
     "text": {
      "text": "💬 Leave feedback (personal + team)",
      "fontfamily": "Sans Serif",
      "pixelsize": 14,
      "wrap": true,
      "color": "#ffffff",
      "bold": true
     }
    },
    {
     "id": 105,
     "name": "sign-social",
     "type": "",
     "x": 96,
     "y": 2400,
     "width": 1216,
     "height": 64,
     "rotation": 0,
     "visible": true,
     "text": {
      "text": "🎮 SOCIAL WING",
      "fontfamily": "Sans Serif",
      "pixelsize": 16,
      "wrap": true,
      "color": "#ffffff",
      "bold": true
     }
    },
    {
     "id": 106,
     "name": "game-embed",
     "type": "area",
     "class": "area",
     "x": 224,
     "y": 2464,
     "width": 128,
     "height": 96,
     "rotation": 0,
     "visible": true,
     "ellipse": false,
     "properties": [
      {
       "name": "openWebsite",
       "type": "string",
       "value": "https://REPLACE_WEB_GAME"
      },
      {
       "name": "openWebsiteTrigger",
       "type": "string",
       "value": "onaction"
      },
      {
       "name": "openWebsitePolicy",
       "type": "string",
       "value": "autoplay; fullscreen"
      },
      {
       "name": "openWebsiteWidth",
       "type": "int",
       "value": 50
      },
      {
       "name": "focusable",
       "type": "bool",
       "value": true
      }
     ]
    },
    {
     "id": 107,
     "name": "l-game",
     "type": "",
     "x": 192,
     "y": 2432,
     "width": 256,
     "height": 64,
     "rotation": 0,
     "visible": true,
     "text": {
      "text": "🕹️ Game Room",
      "fontfamily": "Sans Serif",
      "pixelsize": 14,
      "wrap": true,
      "color": "#ffffff",
      "bold": true
     }
    },
    {
     "id": 108,
     "name": "game-audio",
     "type": "area",
     "class": "area",
     "x": 160,
     "y": 2432,
     "width": 384,
     "height": 192,
     "rotation": 0,
     "visible": true,
     "ellipse": false,
     "properties": [
      {
       "name": "playAudio",
       "type": "string",
       "value": "https://REPLACE_AMBIENT_MUSIC.mp3"
      },
      {
       "name": "audioLoop",
       "type": "bool",
       "value": true
      },
      {
       "name": "audioVolume",
       "type": "float",
       "value": 0.3
      }
     ]
    },
    {
     "id": 109,
     "name": "chitchat",
     "type": "area",
     "class": "area",
     "x": 992,
     "y": 2464,
     "width": 192,
     "height": 128,
     "rotation": 0,
     "visible": true,
     "ellipse": false,
     "properties": [
      {
       "name": "jitsiRoom",
       "type": "string",
       "value": "demo-day-chitchat"
      },
      {
       "name": "jitsiTrigger",
       "type": "string",
       "value": "onaction"
      },
      {
       "name": "jitsiConfig",
       "type": "string",
       "value": "{\"startWithAudioMuted\":true}"
      },
      {
       "name": "focusable",
       "type": "bool",
       "value": true
      }
     ]
    },
    {
     "id": 110,
     "name": "l-chitchat",
     "type": "",
     "x": 960,
     "y": 2432,
     "width": 256,
     "height": 64,
     "rotation": 0,
     "visible": true,
     "text": {
      "text": "☕ Chit-Chat Lounge",
      "fontfamily": "Sans Serif",
      "pixelsize": 14,
      "wrap": true,
      "color": "#ffffff",
      "bold": true
     }
    }
   ]
  }
 ],
 "properties": [
  {
   "name": "mapName",
   "type": "string",
   "value": "Vibe Code Tours — Demo Day"
  },
  {
   "name": "mapDescription",
   "type": "string",
   "value": "Cohort 1 finale: stage · 20 team booths · personal gallery · vote · social"
  },
  {
   "name": "mapImage",
   "type": "string",
   "value": "demo-day.png"
  },
  {
   "name": "mapCopyright",
   "type": "string",
   "value": "Tilesets: WorkAdventure CC-BY-SA 3.0"
  }
 ]
}