{
 "compressionlevel": -1,
 "width": 94,
 "height": 123,
 "tilewidth": 32,
 "tileheight": 32,
 "infinite": false,
 "orientation": "orthogonal",
 "renderorder": "right-down",
 "type": "map",
 "version": "1.10",
 "tiledversion": "1.10.2",
 "nextlayerid": 100,
 "nextobjectid": 117,
 "tilesets": [
  {
   "firstgid": 1,
   "name": "tileset_first_walls",
   "image": "cc-assets/tileset_first_walls.png",
   "imagewidth": 416,
   "imageheight": 480,
   "tilewidth": 32,
   "tileheight": 32,
   "columns": 13,
   "tilecount": 195,
   "margin": 0,
   "spacing": 0
  },
  {
   "firstgid": 196,
   "name": "tileset1",
   "image": "cc-assets/tileset1.png",
   "imagewidth": 352,
   "imageheight": 352,
   "tilewidth": 32,
   "tileheight": 32,
   "columns": 11,
   "tilecount": 121,
   "margin": 0,
   "spacing": 0
  },
  {
   "firstgid": 1037,
   "name": "19_Hospital_32x32",
   "image": "cc-assets/19_Hospital_32x32.png",
   "imagewidth": 512,
   "imageheight": 2496,
   "tilewidth": 32,
   "tileheight": 32,
   "columns": 16,
   "tilecount": 1248,
   "margin": 0,
   "spacing": 0
  },
  {
   "firstgid": 20001,
   "name": "logos",
   "image": "logo-atlas.png",
   "imagewidth": 320,
   "imageheight": 256,
   "tilewidth": 64,
   "tileheight": 64,
   "columns": 5,
   "tilecount": 20,
   "margin": 0,
   "spacing": 0
  }
 ],
 "layers": [
  {
   "name": "floor",
   "type": "tilelayer",
   "visible": true,
   "opacity": 1,
   "x": 0,
   "y": 0,
   "width": 94,
   "height": 123,
   "data": [
    218,
    218,
    218,
    218,
    218,
    218,
    218,
    218,
    218,
    218,
    218,
    218,
    218,
    218,
    218,
    218,
    218,
    218,
    218,
    218,
    218,
    218,
    218,
    218,
    218,
    218,
    218,
    218,
    218,
    218,
    218,
    218,
    218,
    218,
    218,
    218,
    218,
    218,
    218,
    218,
    218,
    218,
    218,
    218,
    218,
    218,
    218,
    218,
    218,
    218,
    218,
    218,
    218,
    218,
    218,
    218,
    218,
    218,
    218,
    218,
    218,
    218,
    218,
    218,
    218,
    218,
    218,
    218,
    218,
    218,
    218,
    218,
    218,
    218,
    218,
    218,
    218,
    218,
    218,
    218,
    218,
    218,
    218,
    218,
    218,
    218,
    218,
    218,
    218,
    218,
    218,
    218,
    218,
    218,
    218,
    218,
    218,
    218,
    218,
    218,
    218,
    218,
    218,
    218,
    218,
    218,
    218,
    218,
    218,
    218,
    218,
    218,
    218,
    218,
    218,
    218,
    218,
    218,
    218,
    218,
    218,
    218,
    218,
    218,
    218,
    218,
    218,
    218,
    218,
    218,
    218,
    218,
    218,
    218,
    218,
    218,
    218,
    218,
    218,
    218,
    218,
    218,
    218,
    218,
    218,
    218,
    218,
    218,
    218,
    218,
    218,
    218,
    218,
    218,
    218,
    218,
    218,
    218,
    218,
    218,
    218,
    218,
    218,
    218,
    218,
    218,
    218,
    218,
    218,
    218,
    218,
    218,
    218,
    218,
    218,
    218,
    218,
    218,
    218,
    218,
    218,
    218,
    218,
    218,
    218,
    218,
    218,
    218,
    218,
    218,
    218,
    218,
    218,
    218,
    218,
    218,
    218,
    218,
    218,
    218,
    218,
    218,
    218,
    218,
    218,
    218,
    218,
    218,
    218,
    218,
    218,
    218,
    218,
    218,
    218,
    218,
    218,
    218,
    218,
    218,
    218,
    218,
    218,
    218,
    218,
    218,
    218,
    218,
    218,
    218,
    218,
    218,
    218,
    218,
    218,
    218,
    218,
    218,
    218,
    218,
    218,
    218,
    218,
    218,
    218,
    218,
    218,
    218,
    218,
    218,
    218,
    218,
    218,
    218,
    218,
    218,
    218,
    218,
    218,
    218,
    218,
    218,
    218,
    218,
    218,
    218,
    218,
    218,
    218,
    218,
    218,
    218,
    218,
    218,
    218,
    218,
    218,
    218,
    218,
    218,
    218,
    218,
    218,
    218,
    218,
    218,
    218,
    218,
    218,
    218,
    218,
    218,
    218,
    218,
    218,
    218,
    218,
    218,
    218,
    218,
    218,
    218,
    218,
    218,
    218,
    218,
    218,
    218,
    218,
    218,
    218,
    218,
    218,
    218,
    218,
    218,
    218,
    218,
    218,
    218,
    218,
    218,
    218,
    218,
    218,
    218,
    218,
    218,
    218,
    218,
    218,
    218,
    218,
    218,
    218,
    218,
    218,
    218,
    218,
    218,
    218,
    218,
    218,
    218,
    218,
    218,
    218,
    218,
    218,
    218,
    218,
    218,
    218,
    218,
    218,
    218,
    218,
    218,
    218,
    218,
    218,
    218,
    218,
    218,
    218,
    218,
    218,
    218,
    218,
    218,
    218,
    218,
    218,
    218,
    218,
    218,
    218,
    218,
    218,
    218,
    218,
    218,
    218,
    218,
    218,
    218,
    218,
    218,
    218,
    218,
    218,
    218,
    218,
    218,
    218,
    218,
    218,
    218,
    218,
    218,
    218,
    218,
    218,
    218,
    218,
    218,
    218,
    218,
    218,
    218,
    218,
    218,
    218,
    218,
    218,
    218,
    218,
    218,
    218,
    218,
    218,
    218,
    218,
    218,
    218,
    218,
    218,
    218,
    218,
    218,
    218,
    218,
    218,
    218,
    218,
    218,
    218,
    218,
    218,
    218,
    218,
    218,
    218,
    218,
    218,
    218,
    218,
    218,
    218,
    218,
    218,
    218,
    218,
    218,
    218,
    218,
    218,
    218,
    218,
    218,
    218,
    218,
    218,
    218,
    218,
    218,
    218,
    218,
    218,
    218,
    218,
    218,
    218,
    218,
    218,
    218,
    218,
    218,
    218,
    218,
    218,
    218,
    218,
    218,
    218,
    218,
    218,
    218,
    218,
    218,
    218,
    218,
    218,
    218,
    218,
    218,
    218,
    218,
    218,
    218,
    218,
    218,
    218,
    218,
    218,
    218,
    218,
    218,
    218,
    218,
    218,
    218,
    218,
    218,
    218,
    218,
    218,
    218,
    218,
    218,
    218,
    218,
    218,
    218,
    218,
    218,
    218,
    218,
    218,
    218,
    218,
    218,
    218,
    218,
    218,
    218,
    218,
    218,
    218,
    218,
    218,
    218,
    218,
    218,
    218,
    218,
    218,
    218,
    218,
    218,
    218,
    218,
    218,
    218,
    218,
    218,
    218,
    218,
    218,
    218,
    218,
    218,
    218,
    218,
    218,
    218,
    218,
    218,
    218,
    218,
    218,
    218,
    218,
    218,
    218,
    218,
    218,
    218,
    218,
    218,
    218,
    218,
    218,
    218,
    218,
    218,
    218,
    218,
    218,
    218,
    218,
    218,
    218,
    218,
    218,
    218,
    218,
    218,
    218,
    218,
    218,
    218,
    218,
    218,
    218,
    218,
    218,
    218,
    218,
    218,
    218,
    218,
    218,
    218,
    218,
    218,
    218,
    218,
    218,
    218,
    218,
    218,
    218,
    218,
    218,
    218,
    218,
    218,
    218,
    218,
    218,
    218,
    218,
    218,
    218,
    218,
    218,
    218,
    218,
    218,
    218,
    218,
    218,
    218,
    218,
    218,
    218,
    218,
    218,
    218,
    218,
    218,
    218,
    218,
    218,
    218,
    218,
    218,
    218,
    218,
    218,
    218,
    218,
    218,
    218,
    218,
    218,
    218,
    218,
    218,
    218,
    218,
    218,
    218,
    218,
    218,
    218,
    218,
    218,
    218,
    218,
    218,
    218,
    218,
    218,
    218,
    218,
    218,
    218,
    218,
    218,
    218,
    218,
    218,
    218,
    218,
    218,
    218,
    218,
    218,
    218,
    218,
    218,
    218,
    218,
    218,
    218,
    218,
    218,
    218,
    218,
    218,
    218,
    218,
    218,
    218,
    218,
    218,
    218,
    218,
    218,
    218,
    218,
    218,
    218,
    218,
    218,
    218,
    218,
    218,
    218,
    218,
    218,
    218,
    218,
    218,
    218,
    218,
    218,
    218,
    218,
    218,
    218,
    218,
    218,
    218,
    218,
    218,
    218,
    218,
    218,
    218,
    218,
    218,
    218,
    218,
    218,
    218,
    218,
    218,
    218,
    218,
    218,
    218,
    218,
    218,
    218,
    218,
    218,
    218,
    218,
    218,
    218,
    218,
    218,
    218,
    218,
    218,
    218,
    218,
    218,
    218,
    218,
    218,
    218,
    218,
    218,
    218,
    218,
    218,
    218,
    218,
    218,
    218,
    218,
    218,
    218,
    218,
    218,
    218,
    218,
    218,
    218,
    218,
    218,
    218,
    218,
    218,
    218,
    218,
    218,
    218,
    218,
    218,
    218,
    218,
    218,
    218,
    218,
    218,
    218,
    218,
    218,
    218,
    218,
    218,
    218,
    218,
    218,
    218,
    218,
    218,
    218,
    218,
    218,
    218,
    218,
    218,
    218,
    218,
    218,
    218,
    218,
    218,
    218,
    218,
    218,
    218,
    218,
    218,
    218,
    218,
    218,
    218,
    218,
    218,
    218,
    218,
    218,
    218,
    218,
    218,
    218,
    218,
    218,
    218,
    218,
    218,
    218,
    218,
    218,
    218,
    218,
    218,
    218,
    218,
    218,
    218,
    218,
    218,
    218,
    218,
    218,
    218,
    218,
    218,
    218,
    218,
    218,
    218,
    218,
    218,
    218,
    218,
    218,
    218,
    218,
    218,
    218,
    218,
    218,
    218,
    218,
    218,
    218,
    218,
    218,
    218,
    218,
    218,
    218,
    218,
    218,
    218,
    218,
    218,
    218,
    218,
    218,
    218,
    218,
    218,
    218,
    218,
    218,
    218,
    218,
    218,
    218,
    218,
    218,
    218,
    218,
    218,
    218,
    218,
    218,
    218,
    218,
    218,
    218,
    218,
    218,
    218,
    218,
    218,
    218,
    218,
    218,
    218,
    218,
    218,
    218,
    218,
    218,
    218,
    218,
    218,
    218,
    218,
    218,
    218,
    218,
    218,
    218,
    218,
    218,
    218,
    218,
    218,
    218,
    218,
    218,
    218,
    218,
    218,
    218,
    218,
    218,
    218,
    218,
    218,
    218,
    218,
    218,
    218,
    218,
    218,
    218,
    218,
    218,
    218,
    218,
    218,
    218,
    218,
    218,
    218,
    218,
    218,
    218,
    218,
    218,
    218,
    218,
    218,
    218,
    218,
    218,
    218,
    218,
    218,
    218,
    218,
    218,
    218,
    218,
    218,
    218,
    218,
    218,
    218,
    218,
    218,
    218,
    218,
    218,
    218,
    218,
    218,
    218,
    218,
    218,
    218,
    218,
    218,
    218,
    218,
    218,
    218,
    218,
    218,
    218,
    218,
    218,
    218,
    218,
    218,
    218,
    218,
    218,
    218,
    218,
    218,
    218,
    218,
    218,
    218,
    218,
    218,
    218,
    218,
    218,
    218,
    218,
    218,
    218,
    218,
    218,
    218,
    218,
    218,
    218,
    218,
    218,
    218,
    218,
    218,
    218,
    218,
    218,
    218,
    218,
    218,
    218,
    218,
    218,
    218,
    218,
    218,
    218,
    218,
    218,
    218,
    218,
    218,
    218,
    218,
    218,
    218,
    218,
    218,
    218,
    218,
    218,
    218,
    218,
    218,
    218,
    218,
    218,
    218,
    218,
    218,
    218,
    218,
    218,
    218,
    218,
    218,
    218,
    218,
    218,
    218,
    218,
    218,
    218,
    218,
    218,
    218,
    218,
    218,
    218,
    218,
    218,
    218,
    218,
    218,
    218,
    218,
    218,
    218,
    218,
    218,
    218,
    218,
    218,
    218,
    218,
    218,
    218,
    218,
    218,
    218,
    218,
    218,
    218,
    218,
    218,
    218,
    218,
    218,
    218,
    218,
    218,
    218,
    218,
    218,
    218,
    218,
    218,
    218,
    218,
    218,
    218,
    218,
    218,
    218,
    218,
    218,
    218,
    218,
    218,
    218,
    218,
    218,
    218,
    218,
    218,
    218,
    218,
    218,
    218,
    218,
    218,
    218,
    218,
    218,
    218,
    218,
    218,
    218,
    218,
    218,
    218,
    218,
    218,
    218,
    218,
    218,
    218,
    218,
    218,
    218,
    218,
    218,
    218,
    218,
    218,
    218,
    218,
    218,
    218,
    218,
    218,
    218,
    218,
    218,
    218,
    218,
    218,
    218,
    218,
    218,
    218,
    218,
    218,
    218,
    218,
    218,
    218,
    218,
    218,
    218,
    218,
    218,
    218,
    218,
    218,
    218,
    218,
    218,
    218,
    218,
    218,
    218,
    218,
    218,
    218,
    218,
    218,
    218,
    218,
    218,
    218,
    218,
    218,
    218,
    218,
    218,
    218,
    218,
    218,
    218,
    218,
    218,
    218,
    218,
    218,
    218,
    218,
    218,
    218,
    218,
    218,
    218,
    218,
    218,
    218,
    218,
    218,
    218,
    218,
    218,
    218,
    218,
    218,
    218,
    218,
    218,
    218,
    218,
    218,
    218,
    218,
    218,
    218,
    218,
    218,
    218,
    218,
    218,
    218,
    218,
    218,
    218,
    218,
    218,
    218,
    218,
    218,
    218,
    218,
    218,
    218,
    218,
    218,
    218,
    218,
    218,
    218,
    218,
    218,
    218,
    218,
    218,
    218,
    218,
    218,
    218,
    218,
    218,
    218,
    218,
    218,
    218,
    218,
    218,
    218,
    218,
    218,
    218,
    218,
    218,
    218,
    218,
    218,
    218,
    218,
    218,
    218,
    218,
    218,
    218,
    218,
    218,
    218,
    218,
    218,
    218,
    218,
    218,
    218,
    218,
    218,
    218,
    218,
    218,
    218,
    218,
    218,
    218,
    218,
    218,
    218,
    218,
    218,
    218,
    218,
    218,
    218,
    218,
    218,
    218,
    218,
    218,
    218,
    218,
    218,
    218,
    218,
    218,
    218,
    218,
    218,
    218,
    218,
    218,
    218,
    218,
    218,
    218,
    218,
    218,
    218,
    218,
    218,
    218,
    218,
    218,
    218,
    218,
    218,
    218,
    218,
    218,
    218,
    218,
    218,
    218,
    218,
    218,
    218,
    218,
    218,
    218,
    218,
    218,
    218,
    218,
    218,
    218,
    218,
    218,
    218,
    218,
    218,
    218,
    218,
    218,
    218,
    218,
    218,
    218,
    218,
    218,
    218,
    218,
    218,
    218,
    218,
    218,
    218,
    218,
    218,
    218,
    218,
    218,
    218,
    218,
    218,
    218,
    218,
    218,
    218,
    218,
    218,
    218,
    218,
    218,
    218,
    218,
    218,
    218,
    218,
    218,
    218,
    218,
    218,
    218,
    218,
    218,
    218,
    218,
    218,
    218,
    218,
    218,
    218,
    218,
    218,
    218,
    218,
    218,
    218,
    218,
    218,
    218,
    218,
    218,
    218,
    218,
    218,
    218,
    218,
    218,
    218,
    218,
    218,
    218,
    218,
    218,
    218,
    218,
    218,
    218,
    218,
    218,
    218,
    218,
    218,
    218,
    218,
    218,
    218,
    218,
    218,
    218,
    218,
    218,
    218,
    218,
    218,
    218,
    218,
    218,
    218,
    218,
    218,
    218,
    218,
    218,
    218,
    218,
    218,
    218,
    218,
    218,
    218,
    218,
    218,
    218,
    218,
    218,
    218,
    218,
    218,
    218,
    218,
    218,
    218,
    218,
    218,
    218,
    218,
    218,
    218,
    218,
    218,
    218,
    218,
    218,
    218,
    218,
    218,
    218,
    218,
    218,
    218,
    218,
    218,
    218,
    218,
    218,
    218,
    218,
    218,
    218,
    218,
    218,
    218,
    218,
    218,
    218,
    218,
    218,
    218,
    218,
    218,
    218,
    218,
    218,
    218,
    218,
    218,
    218,
    218,
    218,
    218,
    218,
    218,
    218,
    218,
    218,
    218,
    218,
    218,
    218,
    218,
    218,
    218,
    218,
    218,
    218,
    218,
    218,
    218,
    218,
    218,
    218,
    218,
    218,
    218,
    218,
    218,
    218,
    218,
    218,
    218,
    218,
    218,
    218,
    218,
    218,
    218,
    218,
    218,
    218,
    218,
    218,
    218,
    218,
    218,
    218,
    218,
    218,
    218,
    218,
    218,
    218,
    218,
    218,
    218,
    218,
    218,
    218,
    218,
    218,
    218,
    218,
    218,
    218,
    218,
    218,
    218,
    218,
    218,
    218,
    218,
    218,
    218,
    218,
    218,
    218,
    218,
    218,
    218,
    218,
    218,
    218,
    218,
    218,
    218,
    218,
    218,
    218,
    218,
    218,
    218,
    218,
    218,
    218,
    218,
    218,
    218,
    218,
    218,
    218,
    218,
    218,
    218,
    218,
    218,
    218,
    218,
    218,
    218,
    218,
    218,
    218,
    218,
    218,
    218,
    218,
    218,
    218,
    218,
    218,
    218,
    218,
    218,
    218,
    218,
    218,
    218,
    218,
    218,
    218,
    218,
    218,
    218,
    218,
    218,
    218,
    218,
    218,
    218,
    218,
    218,
    218,
    218,
    218,
    218,
    218,
    218,
    218,
    218,
    218,
    218,
    218,
    218,
    218,
    218,
    218,
    218,
    218,
    218,
    218,
    218,
    218,
    218,
    218,
    218,
    218,
    218,
    218,
    218,
    218,
    218,
    218,
    218,
    218,
    218,
    218,
    218,
    218,
    218,
    218,
    218,
    218,
    218,
    218,
    218,
    218,
    218,
    218,
    218,
    218,
    218,
    218,
    218,
    218,
    218,
    218,
    218,
    218,
    218,
    218,
    218,
    218,
    218,
    218,
    218,
    218,
    218,
    218,
    218,
    218,
    218,
    218,
    218,
    218,
    218,
    218,
    218,
    218,
    218,
    218,
    218,
    218,
    218,
    218,
    218,
    218,
    218,
    218,
    218,
    218,
    218,
    218,
    218,
    218,
    218,
    218,
    218,
    218,
    218,
    218,
    218,
    218,
    218,
    218,
    218,
    218,
    218,
    218,
    218,
    218,
    218,
    218,
    218,
    218,
    218,
    218,
    218,
    218,
    218,
    218,
    218,
    218,
    218,
    218,
    218,
    218,
    218,
    218,
    218,
    218,
    218,
    218,
    218,
    218,
    218,
    218,
    218,
    218,
    218,
    218,
    218,
    218,
    218,
    218,
    218,
    218,
    218,
    218,
    218,
    218,
    218,
    218,
    218,
    218,
    218,
    218,
    218,
    218,
    218,
    218,
    218,
    218,
    218,
    218,
    218,
    218,
    218,
    218,
    218,
    218,
    218,
    218,
    218,
    218,
    218,
    218,
    218,
    218,
    218,
    218,
    218,
    218,
    218,
    218,
    218,
    218,
    218,
    218,
    218,
    218,
    218,
    218,
    218,
    218,
    218,
    218,
    218,
    218,
    218,
    218,
    218,
    218,
    218,
    218,
    218,
    218,
    218,
    218,
    218,
    218,
    218,
    218,
    218,
    218,
    218,
    218,
    218,
    218,
    218,
    218,
    218,
    218,
    218,
    218,
    218,
    218,
    218,
    218,
    218,
    218,
    218,
    218,
    218,
    218,
    218,
    218,
    218,
    218,
    218,
    218,
    218,
    218,
    218,
    218,
    218,
    218,
    218,
    218,
    218,
    218,
    218,
    218,
    218,
    218,
    218,
    218,
    218,
    218,
    218,
    218,
    218,
    218,
    218,
    218,
    218,
    218,
    218,
    218,
    218,
    218,
    218,
    218,
    218,
    218,
    218,
    218,
    218,
    218,
    218,
    218,
    218,
    218,
    218,
    218,
    218,
    218,
    218,
    218,
    218,
    218,
    218,
    218,
    218,
    218,
    218,
    218,
    218,
    218,
    218,
    218,
    218,
    218,
    218,
    218,
    218,
    218,
    218,
    218,
    218,
    218,
    218,
    218,
    218,
    218,
    218,
    218,
    218,
    218,
    218,
    218,
    218,
    218,
    218,
    218,
    218,
    218,
    218,
    218,
    218,
    218,
    218,
    218,
    218,
    218,
    218,
    218,
    218,
    218,
    218,
    218,
    218,
    218,
    218,
    218,
    218,
    218,
    218,
    218,
    218,
    218,
    218,
    218,
    218,
    218,
    218,
    218,
    218,
    218,
    218,
    218,
    218,
    218,
    218,
    218,
    218,
    218,
    218,
    218,
    218,
    218,
    218,
    218,
    218,
    218,
    218,
    218,
    218,
    218,
    218,
    218,
    218,
    218,
    218,
    218,
    218,
    218,
    218,
    218,
    218,
    218,
    218,
    218,
    218,
    218,
    218,
    218,
    218,
    218,
    218,
    218,
    218,
    218,
    218,
    218,
    218,
    218,
    218,
    218,
    218,
    218,
    218,
    218,
    218,
    218,
    218,
    218,
    218,
    218,
    218,
    218,
    218,
    218,
    218,
    218,
    218,
    218,
    218,
    218,
    218,
    218,
    218,
    218,
    218,
    218,
    218,
    218,
    218,
    218,
    218,
    218,
    218,
    218,
    218,
    218,
    218,
    218,
    218,
    218,
    218,
    218,
    218,
    218,
    218,
    218,
    218,
    218,
    218,
    218,
    218,
    218,
    218,
    218,
    218,
    218,
    218,
    218,
    218,
    218,
    218,
    218,
    218,
    218,
    218,
    218,
    218,
    218,
    218,
    218,
    218,
    218,
    218,
    218,
    218,
    218,
    218,
    218,
    218,
    218,
    218,
    218,
    218,
    218,
    218,
    218,
    218,
    218,
    218,
    218,
    218,
    218,
    218,
    218,
    218,
    218,
    218,
    218,
    218,
    218,
    218,
    218,
    218,
    218,
    218,
    218,
    218,
    218,
    218,
    218,
    218,
    218,
    218,
    218,
    218,
    218,
    218,
    218,
    218,
    218,
    218,
    218,
    218,
    218,
    218,
    218,
    218,
    218,
    218,
    218,
    218,
    218,
    218,
    218,
    218,
    218,
    218,
    218,
    218,
    218,
    218,
    218,
    218,
    218,
    218,
    218,
    218,
    218,
    218,
    218,
    218,
    218,
    218,
    218,
    218,
    218,
    218,
    218,
    218,
    218,
    218,
    218,
    218,
    218,
    218,
    218,
    218,
    218,
    218,
    218,
    218,
    218,
    218,
    218,
    218,
    218,
    218,
    218,
    218,
    218,
    218,
    218,
    218,
    218,
    218,
    218,
    218,
    218,
    218,
    218,
    218,
    218,
    218,
    218,
    218,
    218,
    218,
    218,
    218,
    218,
    218,
    218,
    218,
    218,
    218,
    218,
    218,
    218,
    218,
    218,
    218,
    218,
    218,
    218,
    218,
    218,
    218,
    218,
    218,
    218,
    218,
    218,
    218,
    218,
    218,
    218,
    218,
    218,
    218,
    218,
    218,
    218,
    218,
    218,
    218,
    218,
    218,
    218,
    218,
    218,
    218,
    218,
    218,
    218,
    218,
    218,
    218,
    218,
    218,
    218,
    218,
    218,
    218,
    218,
    218,
    218,
    218,
    218,
    218,
    218,
    218,
    218,
    218,
    218,
    218,
    218,
    218,
    218,
    218,
    218,
    218,
    218,
    218,
    218,
    218,
    218,
    218,
    218,
    218,
    218,
    218,
    218,
    218,
    218,
    218,
    218,
    218,
    218,
    218,
    218,
    218,
    218,
    218,
    218,
    218,
    218,
    218,
    218,
    218,
    218,
    218,
    218,
    218,
    218,
    218,
    218,
    218,
    218,
    218,
    218,
    218,
    218,
    218,
    218,
    218,
    218,
    218,
    218,
    218,
    218,
    218,
    218,
    218,
    218,
    218,
    218,
    218,
    218,
    218,
    218,
    218,
    218,
    218,
    218,
    218,
    218,
    218,
    218,
    218,
    218,
    218,
    218,
    218,
    218,
    218,
    218,
    218,
    218,
    218,
    218,
    218,
    218,
    218,
    218,
    218,
    218,
    218,
    218,
    218,
    218,
    218,
    218,
    218,
    218,
    218,
    218,
    218,
    218,
    218,
    218,
    218,
    218,
    218,
    218,
    218,
    218,
    218,
    218,
    218,
    218,
    218,
    218,
    218,
    218,
    218,
    218,
    218,
    218,
    218,
    218,
    218,
    218,
    218,
    218,
    218,
    218,
    218,
    218,
    218,
    218,
    218,
    218,
    218,
    218,
    218,
    218,
    218,
    218,
    218,
    218,
    218,
    218,
    218,
    218,
    218,
    218,
    218,
    218,
    218,
    218,
    218,
    218,
    218,
    218,
    218,
    218,
    218,
    218,
    218,
    218,
    218,
    218,
    218,
    218,
    218,
    218,
    218,
    218,
    218,
    218,
    218,
    218,
    218,
    218,
    218,
    218,
    218,
    218,
    218,
    218,
    218,
    218,
    218,
    218,
    218,
    218,
    218,
    218,
    218,
    218,
    218,
    218,
    218,
    218,
    218,
    218,
    218,
    218,
    218,
    218,
    218,
    218,
    218,
    218,
    218,
    218,
    218,
    218,
    218,
    218,
    218,
    218,
    218,
    218,
    218,
    218,
    218,
    218,
    218,
    218,
    218,
    218,
    218,
    218,
    218,
    218,
    218,
    218,
    218,
    218,
    218,
    218,
    218,
    218,
    218,
    218,
    218,
    218,
    218,
    218,
    218,
    218,
    218,
    218,
    218,
    218,
    218,
    218,
    218,
    218,
    218,
    218,
    218,
    218,
    218,
    218,
    218,
    218,
    218,
    218,
    218,
    218,
    218,
    218,
    218,
    218,
    218,
    218,
    218,
    218,
    218,
    218,
    218,
    218,
    218,
    218,
    218,
    218,
    218,
    218,
    218,
    218,
    218,
    218,
    218,
    218,
    218,
    218,
    218,
    218,
    218,
    218,
    218,
    218,
    218,
    218,
    218,
    218,
    218,
    218,
    218,
    218,
    218,
    218,
    218,
    218,
    218,
    218,
    218,
    218,
    218,
    218,
    218,
    218,
    218,
    218,
    218,
    218,
    218,
    218,
    218,
    218,
    218,
    218,
    218,
    218,
    218,
    218,
    218,
    218,
    218,
    218,
    218,
    218,
    218,
    218,
    218,
    218,
    218,
    218,
    218,
    218,
    218,
    218,
    218,
    218,
    218,
    218,
    218,
    218,
    218,
    218,
    218,
    218,
    218,
    218,
    218,
    218,
    218,
    218,
    218,
    218,
    218,
    218,
    218,
    218,
    218,
    218,
    218,
    218,
    218,
    218,
    218,
    218,
    218,
    218,
    218,
    218,
    218,
    218,
    218,
    218,
    218,
    218,
    218,
    218,
    218,
    218,
    218,
    218,
    218,
    218,
    218,
    218,
    218,
    218,
    218,
    218,
    218,
    218,
    218,
    218,
    218,
    218,
    218,
    218,
    218,
    218,
    218,
    218,
    218,
    218,
    218,
    218,
    218,
    218,
    218,
    218,
    218,
    218,
    218,
    218,
    218,
    218,
    218,
    218,
    218,
    218,
    218,
    218,
    218,
    218,
    218,
    218,
    218,
    218,
    218,
    218,
    218,
    218,
    218,
    218,
    218,
    218,
    218,
    218,
    218,
    218,
    218,
    218,
    218,
    218,
    218,
    218,
    218,
    218,
    218,
    218,
    218,
    218,
    218,
    218,
    218,
    218,
    218,
    218,
    218,
    218,
    218,
    218,
    218,
    218,
    218,
    218,
    218,
    218,
    218,
    218,
    218,
    218,
    218,
    218,
    218,
    218,
    218,
    218,
    218,
    218,
    218,
    218,
    218,
    218,
    218,
    218,
    218,
    218,
    218,
    218,
    218,
    218,
    218,
    218,
    218,
    218,
    218,
    218,
    218,
    218,
    218,
    218,
    218,
    218,
    218,
    218,
    218,
    218,
    218,
    218,
    218,
    218,
    218,
    218,
    218,
    218,
    218,
    218,
    218,
    218,
    218,
    218,
    218,
    218,
    218,
    218,
    218,
    218,
    218,
    218,
    218,
    218,
    218,
    218,
    218,
    218,
    218,
    218,
    218,
    218,
    218,
    218,
    218,
    218,
    218,
    218,
    218,
    218,
    218,
    218,
    218,
    218,
    218,
    218,
    218,
    218,
    218,
    218,
    218,
    218,
    218,
    218,
    218,
    218,
    218,
    218,
    218,
    218,
    218,
    218,
    218,
    218,
    218,
    218,
    218,
    218,
    218,
    218,
    218,
    218,
    218,
    218,
    218,
    218,
    218,
    218,
    218,
    218,
    218,
    218,
    218,
    218,
    218,
    218,
    218,
    218,
    218,
    218,
    218,
    218,
    218,
    218,
    218,
    218,
    218,
    218,
    218,
    218,
    218,
    218,
    218,
    218,
    218,
    218,
    218,
    218,
    218,
    218,
    218,
    218,
    218,
    218,
    218,
    218,
    218,
    218,
    218,
    218,
    218,
    218,
    218,
    218,
    218,
    218,
    218,
    218,
    218,
    218,
    218,
    218,
    218,
    218,
    218,
    218,
    218,
    218,
    218,
    218,
    218,
    218,
    218,
    218,
    218,
    218,
    218,
    218,
    218,
    218,
    218,
    218,
    218,
    218,
    218,
    218,
    218,
    218,
    218,
    218,
    218,
    218,
    218,
    218,
    218,
    218,
    218,
    218,
    218,
    218,
    218,
    218,
    218,
    218,
    218,
    218,
    218,
    218,
    218,
    218,
    218,
    218,
    218,
    218,
    218,
    218,
    218,
    218,
    218,
    218,
    218,
    218,
    218,
    218,
    218,
    218,
    218,
    218,
    218,
    218,
    218,
    218,
    218,
    218,
    218,
    218,
    218,
    218,
    218,
    218,
    218,
    218,
    218,
    218,
    218,
    218,
    218,
    218,
    218,
    218,
    218,
    218,
    218,
    218,
    218,
    218,
    218,
    218,
    218,
    218,
    218,
    218,
    218,
    218,
    218,
    218,
    218,
    218,
    218,
    218,
    218,
    218,
    218,
    218,
    218,
    218,
    218,
    218,
    218,
    218,
    218,
    218,
    218,
    218,
    218,
    218,
    218,
    218,
    218,
    218,
    218,
    218,
    218,
    218,
    218,
    218,
    218,
    218,
    218,
    218,
    218,
    218,
    218,
    218,
    218,
    218,
    218,
    218,
    218,
    218,
    218,
    218,
    218,
    218,
    218,
    218,
    218,
    218,
    218,
    218,
    218,
    218,
    218,
    218,
    218,
    218,
    218,
    218,
    218,
    218,
    218,
    218,
    218,
    218,
    218,
    218,
    218,
    218,
    218,
    218,
    218,
    218,
    218,
    218,
    218,
    218,
    218,
    218,
    218,
    218,
    218,
    218,
    218,
    218,
    218,
    218,
    218,
    218,
    218,
    218,
    218,
    218,
    218,
    218,
    218,
    218,
    218,
    218,
    218,
    218,
    218,
    218,
    218,
    218,
    218,
    218,
    218,
    218,
    218,
    218,
    218,
    218,
    218,
    218,
    218,
    218,
    218,
    218,
    218,
    218,
    218,
    218,
    218,
    218,
    218,
    218,
    218,
    218,
    218,
    218,
    218,
    218,
    218,
    218,
    218,
    218,
    218,
    218,
    218,
    218,
    218,
    218,
    218,
    218,
    218,
    218,
    218,
    218,
    218,
    218,
    218,
    218,
    218,
    218,
    218,
    218,
    218,
    218,
    218,
    218,
    218,
    218,
    218,
    218,
    218,
    218,
    218,
    218,
    218,
    218,
    218,
    218,
    218,
    218,
    218,
    218,
    218,
    218,
    218,
    218,
    218,
    218,
    218,
    218,
    218,
    218,
    218,
    218,
    218,
    218,
    218,
    218,
    218,
    218,
    218,
    218,
    218,
    218,
    218,
    218,
    218,
    218,
    218,
    218,
    218,
    218,
    218,
    218,
    218,
    218,
    218,
    218,
    218,
    218,
    218,
    218,
    218,
    218,
    218,
    218,
    218,
    218,
    218,
    218,
    218,
    218,
    218,
    218,
    218,
    218,
    218,
    218,
    218,
    218,
    218,
    218,
    218,
    218,
    218,
    218,
    218,
    218,
    218,
    218,
    218,
    218,
    218,
    218,
    218,
    218,
    218,
    218,
    218,
    218,
    218,
    218,
    218,
    218,
    218,
    218,
    218,
    218,
    218,
    218,
    218,
    218,
    218,
    218,
    218,
    218,
    218,
    218,
    218,
    218,
    218,
    218,
    218,
    218,
    218,
    218,
    218,
    218,
    218,
    218,
    218,
    218,
    218,
    218,
    218,
    218,
    218,
    218,
    218,
    218,
    218,
    218,
    218,
    218,
    218,
    218,
    218,
    218,
    218,
    218,
    218,
    218,
    218,
    218,
    218,
    218,
    218,
    218,
    218,
    218,
    218,
    218,
    218,
    218,
    218,
    218,
    218,
    218,
    218,
    218,
    218,
    218,
    218,
    218,
    218,
    218,
    218,
    218,
    218,
    218,
    218,
    218,
    218,
    218,
    218,
    218,
    218,
    218,
    218,
    218,
    218,
    218,
    218,
    218,
    218,
    218,
    218,
    218,
    218,
    218,
    218,
    218,
    218,
    218,
    218,
    218,
    218,
    218,
    218,
    218,
    218,
    218,
    218,
    218,
    218,
    218,
    218,
    218,
    218,
    218,
    218,
    218,
    218,
    218,
    218,
    218,
    218,
    218,
    218,
    218,
    218,
    218,
    218,
    218,
    218,
    218,
    218,
    218,
    218,
    218,
    218,
    218,
    218,
    218,
    218,
    218,
    218,
    218,
    218,
    218,
    218,
    218,
    218,
    218,
    218,
    218,
    218,
    218,
    218,
    218,
    218,
    218,
    218,
    218,
    218,
    218,
    218,
    218,
    218,
    218,
    218,
    218,
    218,
    218,
    218,
    218,
    218,
    218,
    218,
    218,
    218,
    218,
    218,
    218,
    218,
    218,
    218,
    218,
    218,
    218,
    218,
    218,
    218,
    218,
    218,
    218,
    218,
    218,
    218,
    218,
    218,
    218,
    218,
    218,
    218,
    218,
    218,
    218,
    218,
    218,
    218,
    218,
    218,
    218,
    218,
    218,
    218,
    218,
    218,
    218,
    218,
    218,
    218,
    218,
    218,
    218,
    218,
    218,
    218,
    218,
    218,
    218,
    218,
    218,
    218,
    218,
    218,
    218,
    218,
    218,
    218,
    218,
    218,
    218,
    218,
    218,
    218,
    218,
    218,
    218,
    218,
    218,
    218,
    218,
    218,
    218,
    218,
    218,
    218,
    218,
    218,
    218,
    218,
    218,
    218,
    218,
    218,
    218,
    218,
    218,
    218,
    218,
    218,
    218,
    218,
    218,
    218,
    218,
    218,
    218,
    218,
    218,
    218,
    218,
    218,
    218,
    218,
    218,
    218,
    218,
    218,
    218,
    218,
    218,
    218,
    218,
    218,
    218,
    218,
    218,
    218,
    218,
    218,
    218,
    218,
    218,
    218,
    218,
    218,
    218,
    218,
    218,
    218,
    218,
    218,
    218,
    218,
    218,
    218,
    218,
    218,
    218,
    218,
    218,
    218,
    218,
    218,
    218,
    218,
    218,
    218,
    218,
    218,
    218,
    218,
    218,
    218,
    218,
    218,
    218,
    218,
    218,
    218,
    218,
    218,
    218,
    218,
    218,
    218,
    218,
    218,
    218,
    218,
    218,
    218,
    218,
    218,
    218,
    218,
    218,
    218,
    218,
    218,
    218,
    218,
    218,
    218,
    218,
    218,
    218,
    218,
    218,
    218,
    218,
    218,
    218,
    218,
    218,
    218,
    218,
    218,
    218,
    218,
    218,
    218,
    218,
    218,
    218,
    218,
    218,
    218,
    218,
    218,
    218,
    218,
    218,
    218,
    218,
    218,
    218,
    218,
    218,
    218,
    218,
    218,
    218,
    218,
    218,
    218,
    218,
    218,
    218,
    218,
    218,
    218,
    218,
    218,
    218,
    218,
    218,
    218,
    218,
    218,
    218,
    218,
    218,
    218,
    218,
    218,
    218,
    218,
    218,
    218,
    218,
    218,
    218,
    218,
    218,
    218,
    218,
    218,
    218,
    218,
    218,
    218,
    218,
    218,
    218,
    218,
    218,
    218,
    218,
    218,
    218,
    218,
    218,
    218,
    218,
    218,
    218,
    218,
    218,
    218,
    218,
    218,
    218,
    218,
    218,
    218,
    218,
    218,
    218,
    218,
    218,
    218,
    218,
    218,
    218,
    218,
    218,
    218,
    218,
    218,
    218,
    218,
    218,
    218,
    218,
    218,
    218,
    218,
    218,
    218,
    218,
    218,
    218,
    218,
    218,
    218,
    218,
    218,
    218,
    218,
    218,
    218,
    218,
    218,
    218,
    218,
    218,
    218,
    218,
    218,
    218,
    218,
    218,
    218,
    218,
    218,
    218,
    218,
    218,
    218,
    218,
    218,
    218,
    218,
    218,
    218,
    218,
    218,
    218,
    218,
    218,
    218,
    218,
    218,
    218,
    218,
    218,
    218,
    218,
    218,
    218,
    218,
    218,
    218,
    218,
    218,
    218,
    218,
    218,
    218,
    218,
    218,
    218,
    218,
    218,
    218,
    218,
    218,
    218,
    218,
    218,
    218,
    218,
    218,
    218,
    218,
    218,
    218,
    218,
    218,
    218,
    218,
    218,
    218,
    218,
    218,
    218,
    218,
    218,
    218,
    218,
    218,
    218,
    218,
    218,
    218,
    218,
    218,
    218,
    218,
    218,
    218,
    218,
    218,
    218,
    218,
    218,
    218,
    218,
    218,
    218,
    218,
    218,
    218,
    218,
    218,
    218,
    218,
    218,
    218,
    218,
    218,
    218,
    218,
    218,
    218,
    218,
    218,
    218,
    218,
    218,
    218,
    218,
    218,
    218,
    218,
    218,
    218,
    218,
    218,
    218,
    218,
    218,
    218,
    218,
    218,
    218,
    218,
    218,
    218,
    218,
    218,
    218,
    218,
    218,
    218,
    218,
    218,
    218,
    218,
    218,
    218,
    218,
    218,
    218,
    218,
    218,
    218,
    218,
    218,
    218,
    218,
    218,
    218,
    218,
    218,
    218,
    218,
    218,
    218,
    218,
    218,
    218,
    218,
    218,
    218,
    218,
    218,
    218,
    218,
    218,
    218,
    218,
    218,
    218,
    218,
    218,
    218,
    218,
    218,
    218,
    218,
    218,
    218,
    218,
    218,
    218,
    218,
    218,
    218,
    218,
    218,
    218,
    218,
    218,
    218,
    218,
    218,
    218,
    218,
    218,
    218,
    218,
    218,
    218,
    218,
    218,
    218,
    218,
    218,
    218,
    218,
    218,
    218,
    218,
    218,
    218,
    218,
    218,
    218,
    218,
    218,
    218,
    218,
    218,
    218,
    218,
    218,
    218,
    218,
    218,
    218,
    218,
    218,
    218,
    218,
    218,
    218,
    218,
    218,
    218,
    218,
    218,
    218,
    218,
    218,
    218,
    218,
    218,
    218,
    218,
    218,
    218,
    218,
    218,
    218,
    218,
    218,
    218,
    218,
    218,
    218,
    218,
    218,
    218,
    218,
    218,
    218,
    218,
    218,
    218,
    218,
    218,
    218,
    218,
    218,
    218,
    218,
    218,
    218,
    218,
    218,
    218,
    218,
    218,
    218,
    218,
    218,
    218,
    218,
    218,
    218,
    218,
    218,
    218,
    218,
    218,
    218,
    218,
    218,
    218,
    218,
    218,
    218,
    218,
    218,
    218,
    218,
    218,
    218,
    218,
    218,
    218,
    218,
    218,
    218,
    218,
    218,
    218,
    218,
    218,
    218,
    218,
    218,
    218,
    218,
    218,
    218,
    218,
    218,
    218,
    218,
    218,
    218,
    218,
    218,
    218,
    218,
    218,
    218,
    218,
    218,
    218,
    218,
    218,
    218,
    218,
    218,
    218,
    218,
    218,
    218,
    218,
    218,
    218,
    218,
    218,
    218,
    218,
    218,
    218,
    218,
    218,
    218,
    218,
    218,
    218,
    218,
    218,
    218,
    218,
    218,
    218,
    218,
    218,
    218,
    218,
    218,
    218,
    218,
    218,
    218,
    218,
    218,
    218,
    218,
    218,
    218,
    218,
    218,
    218,
    218,
    218,
    218,
    218,
    218,
    218,
    218,
    218,
    218,
    218,
    218,
    218,
    218,
    218,
    218,
    218,
    218,
    218,
    218,
    218,
    218,
    218,
    218,
    218,
    218,
    218,
    218,
    218,
    218,
    218,
    218,
    218,
    218,
    218,
    218,
    218,
    218,
    218,
    218,
    218,
    218,
    218,
    218,
    218,
    218,
    218,
    218,
    218,
    218,
    218,
    218,
    218,
    218,
    218,
    218,
    218,
    218,
    218,
    218,
    218,
    218,
    218,
    218,
    218,
    218,
    218,
    218,
    218,
    218,
    218,
    218,
    218,
    218,
    218,
    218,
    218,
    218,
    218,
    218,
    218,
    218,
    218,
    218,
    218,
    218,
    218,
    218,
    218,
    218,
    218,
    218,
    218,
    218,
    218,
    218,
    218,
    218,
    218,
    218,
    218,
    218,
    218,
    218,
    218,
    218,
    218,
    218,
    218,
    218,
    218,
    218,
    218,
    218,
    218,
    218,
    218,
    218,
    218,
    218,
    218,
    218,
    218,
    218,
    218,
    218,
    218,
    218,
    218,
    218,
    218,
    218,
    218,
    218,
    218,
    218,
    218,
    218,
    218,
    218,
    218,
    218,
    218,
    218,
    218,
    218,
    218,
    218,
    218,
    218,
    218,
    218,
    218,
    218,
    218,
    218,
    218,
    218,
    218,
    218,
    218,
    218,
    218,
    218,
    218,
    218,
    218,
    218,
    218,
    218,
    218,
    218,
    218,
    218,
    218,
    218,
    218,
    218,
    218,
    218,
    218,
    218,
    218,
    218,
    218,
    218,
    218,
    218,
    218,
    218,
    218,
    218,
    218,
    218,
    218,
    218,
    218,
    218,
    218,
    218,
    218,
    218,
    218,
    218,
    218,
    218,
    218,
    218,
    218,
    218,
    218,
    218,
    218,
    218,
    218,
    218,
    218,
    218,
    218,
    218,
    218,
    218,
    218,
    218,
    218,
    218,
    218,
    218,
    218,
    218,
    218,
    218,
    218,
    218,
    218,
    218,
    218,
    218,
    218,
    218,
    218,
    218,
    218,
    218,
    218,
    218,
    218,
    218,
    218,
    218,
    218,
    218,
    218,
    218,
    218,
    218,
    218,
    218,
    218,
    218,
    218,
    218,
    218,
    218,
    218,
    218,
    218,
    218,
    218,
    218,
    218,
    218,
    218,
    218,
    218,
    218,
    218,
    218,
    218,
    218,
    218,
    218,
    218,
    218,
    218,
    218,
    218,
    218,
    218,
    218,
    218,
    218,
    218,
    218,
    218,
    218,
    218,
    218,
    218,
    218,
    218,
    218,
    218,
    218,
    218,
    218,
    218,
    218,
    218,
    218,
    218,
    218,
    218,
    218,
    218,
    218,
    218,
    218,
    218,
    218,
    218,
    218,
    218,
    218,
    218,
    218,
    218,
    218,
    218,
    218,
    218,
    218,
    218,
    218,
    218,
    218,
    218,
    218,
    218,
    218,
    218,
    218,
    218,
    218,
    218,
    218,
    218,
    218,
    218,
    218,
    218,
    218,
    218,
    218,
    218,
    218,
    218,
    218,
    218,
    218,
    218,
    218,
    218,
    218,
    218,
    218,
    218,
    218,
    218,
    218,
    218,
    218,
    218,
    218,
    218,
    218,
    218,
    218,
    218,
    218,
    218,
    218,
    218,
    218,
    218,
    218,
    218,
    218,
    218,
    218,
    218,
    218,
    218,
    218,
    218,
    218,
    218,
    218,
    218,
    218,
    218,
    218,
    218,
    218,
    218,
    218,
    218,
    218,
    218,
    218,
    218,
    218,
    218,
    218,
    218,
    218,
    218,
    218,
    218,
    218,
    218,
    218,
    218,
    218,
    218,
    218,
    218,
    218,
    218,
    218,
    218,
    218,
    218,
    218,
    218,
    218,
    218,
    218,
    218,
    218,
    218,
    218,
    218,
    218,
    218,
    218,
    218,
    218,
    218,
    218,
    218,
    218,
    218,
    218,
    218,
    218,
    218,
    218,
    218,
    218,
    218,
    218,
    218,
    218,
    218,
    218,
    218,
    218,
    218,
    218,
    218,
    218,
    218,
    218,
    218,
    218,
    218,
    218,
    218,
    218,
    218,
    218,
    218,
    218,
    218,
    218,
    218,
    218,
    218,
    218,
    218,
    218,
    218,
    218,
    218,
    218,
    218,
    218,
    218,
    218,
    218,
    218,
    218,
    218,
    218,
    218,
    218,
    218,
    218,
    218,
    218,
    218,
    218,
    218,
    218,
    218,
    218,
    218,
    218,
    218,
    218,
    218,
    218,
    218,
    218,
    218,
    218,
    218,
    218,
    218,
    218,
    218,
    218,
    218,
    218,
    218,
    218,
    218,
    218,
    218,
    218,
    218,
    218,
    218,
    218,
    218,
    218,
    218,
    218,
    218,
    218,
    218,
    218,
    218,
    218,
    218,
    218,
    218,
    218,
    218,
    218,
    218,
    218,
    218,
    218,
    218,
    218,
    218,
    218,
    218,
    218,
    218,
    218,
    218,
    218,
    218,
    218,
    218,
    218,
    218,
    218,
    218,
    218,
    218,
    218,
    218,
    218,
    218,
    218,
    218,
    218,
    218,
    218,
    218,
    218,
    218,
    218,
    218,
    218,
    218,
    218,
    218,
    218,
    218,
    218,
    218,
    218,
    218,
    218,
    218,
    218,
    218,
    218,
    218,
    218,
    218,
    218,
    218,
    218,
    218,
    218,
    218,
    218,
    218,
    218,
    218,
    218,
    218,
    218,
    218,
    218,
    218,
    218,
    218,
    218,
    218,
    218,
    218,
    218,
    218,
    218,
    218,
    218,
    218,
    218,
    218,
    218,
    218,
    218,
    218,
    218,
    218,
    218,
    218,
    218,
    218,
    218,
    218,
    218,
    218,
    218,
    218,
    218,
    218,
    218,
    218,
    218,
    218,
    218,
    218,
    218,
    218,
    218,
    218,
    218,
    218,
    218,
    218,
    218,
    218,
    218,
    218,
    218,
    218,
    218,
    218,
    218,
    218,
    218,
    218,
    218,
    218,
    218,
    218,
    218,
    218,
    218,
    218,
    218,
    218,
    218,
    218,
    218,
    218,
    218,
    218,
    218,
    218,
    218,
    218,
    218,
    218,
    218,
    218,
    218,
    218,
    218,
    218,
    218,
    218,
    218,
    218,
    218,
    218,
    218,
    218,
    218,
    218,
    218,
    218,
    218,
    218,
    218,
    218,
    218,
    218,
    218,
    218,
    218,
    218,
    218,
    218,
    218,
    218,
    218,
    218,
    218,
    218,
    218,
    218,
    218,
    218,
    218,
    218,
    218,
    218,
    218,
    218,
    218,
    218,
    218,
    218,
    218,
    218,
    218,
    218,
    218,
    218,
    218,
    218,
    218,
    218,
    218,
    218,
    218,
    218,
    218,
    218,
    218,
    218,
    218,
    218,
    218,
    218,
    218,
    218,
    218,
    218,
    218,
    218,
    218,
    218,
    218,
    218,
    218,
    218,
    218,
    218,
    218,
    218,
    218,
    218,
    218,
    218,
    218,
    218,
    218,
    218,
    218,
    218,
    218,
    218,
    218,
    218,
    218,
    218,
    218,
    218,
    218,
    218,
    218,
    218,
    218,
    218,
    218,
    218,
    218,
    218,
    218,
    218,
    218,
    218,
    218,
    218,
    218,
    218,
    218,
    218,
    218,
    218,
    218,
    218,
    218,
    218,
    218,
    218,
    218,
    218,
    218,
    218,
    218,
    218,
    218,
    218,
    218,
    218,
    218,
    218,
    218,
    218,
    218,
    218,
    218,
    218,
    218,
    218,
    218,
    218,
    218,
    218,
    218,
    218,
    218,
    218,
    218,
    218,
    218,
    218,
    218,
    218,
    218,
    218,
    218,
    218,
    218,
    218,
    218,
    218,
    218,
    218,
    218,
    218,
    218,
    218,
    218,
    218,
    218,
    218,
    218,
    218,
    218,
    218,
    218,
    218,
    218,
    218,
    218,
    218,
    218,
    218,
    218,
    218,
    218,
    218,
    218,
    218,
    218,
    218,
    218,
    218,
    218,
    218,
    218,
    218,
    218,
    218,
    218,
    218,
    218,
    218,
    218,
    218,
    218,
    218,
    218,
    218,
    218,
    218,
    218,
    218,
    218,
    218,
    218,
    218,
    218,
    218,
    218,
    218,
    218,
    218,
    218,
    218,
    218,
    218,
    218,
    218,
    218,
    218,
    218,
    218,
    218,
    218,
    218,
    218,
    218,
    218,
    218,
    218,
    218,
    218,
    218,
    218,
    218,
    218,
    218,
    218,
    218,
    218,
    218,
    218,
    218,
    218,
    218,
    218,
    218,
    218,
    218,
    218,
    218,
    218,
    218,
    218,
    218,
    218,
    218,
    218,
    218,
    218,
    218,
    218,
    218,
    218,
    218,
    218,
    218,
    218,
    218,
    218,
    218,
    218,
    218,
    218,
    218,
    218,
    218,
    218,
    218,
    218,
    218,
    218,
    218,
    218,
    218,
    218,
    218,
    218,
    218,
    218,
    218,
    218,
    218,
    218,
    218,
    218,
    218,
    218,
    218,
    218,
    218,
    218,
    218,
    218,
    218,
    218,
    218,
    218,
    218,
    218,
    218,
    218,
    218,
    218,
    218,
    218,
    218,
    218,
    218,
    218,
    218,
    218,
    218,
    218,
    218,
    218,
    218,
    218,
    218,
    218,
    218,
    218,
    218,
    218,
    218,
    218,
    218,
    218,
    218,
    218,
    218,
    218,
    218,
    218,
    218,
    218,
    218,
    218,
    218,
    218,
    218,
    218,
    218,
    218,
    218,
    218,
    218,
    218,
    218,
    218,
    218,
    218,
    218,
    218,
    218,
    218,
    218,
    218,
    218,
    218,
    218,
    218,
    218,
    218,
    218,
    218,
    218,
    218,
    218,
    218,
    218,
    218,
    218,
    218,
    218,
    218,
    218,
    218,
    218,
    218,
    218,
    218,
    218,
    218,
    218,
    218,
    218,
    218,
    218,
    218,
    218,
    218,
    218,
    218,
    218,
    218,
    218,
    218,
    218,
    218,
    218,
    218,
    218,
    218,
    218,
    218,
    218,
    218,
    218,
    218,
    218,
    218,
    218,
    218,
    218,
    218,
    218,
    218,
    218,
    218,
    218,
    218,
    218,
    218,
    218,
    218,
    218,
    218,
    218,
    218,
    218,
    218,
    218,
    218,
    218,
    218,
    218,
    218,
    218,
    218,
    218,
    218,
    218,
    218,
    218,
    218,
    218,
    218,
    218,
    218,
    218,
    218,
    218,
    218,
    218,
    218,
    218,
    218,
    218,
    218,
    218,
    218,
    218,
    218,
    218,
    218,
    218,
    218,
    218,
    218,
    218,
    218,
    218,
    218,
    218,
    218,
    218,
    218,
    218,
    218,
    218,
    218,
    218,
    218,
    218,
    218,
    218,
    218,
    218,
    218,
    218,
    218,
    218,
    218,
    218,
    218,
    218,
    218,
    218,
    218,
    218,
    218,
    218,
    218,
    218,
    218,
    218,
    218,
    218,
    218,
    218,
    218,
    218,
    218,
    218,
    218,
    218,
    218,
    218,
    218,
    218,
    218,
    218,
    218,
    218,
    218,
    218,
    218,
    218,
    218,
    218,
    218,
    218,
    218,
    218,
    218,
    218,
    218,
    218,
    218,
    218,
    218,
    218,
    218,
    218,
    218,
    218,
    218,
    218,
    218,
    218,
    218,
    218,
    218,
    218,
    218,
    218,
    218,
    218,
    218,
    218,
    218,
    218,
    218,
    218,
    218,
    218,
    218,
    218,
    218,
    218,
    218,
    218,
    218,
    218,
    218,
    218,
    218,
    218,
    218,
    218,
    218,
    218,
    218,
    218,
    218,
    218,
    218,
    218,
    218,
    218,
    218,
    218,
    218,
    218,
    218,
    218,
    218,
    218,
    218,
    218,
    218,
    218,
    218,
    218,
    218,
    218,
    218,
    218,
    218,
    218,
    218,
    218,
    218,
    218,
    218,
    218,
    218,
    218,
    218,
    218,
    218,
    218,
    218,
    218,
    218,
    218,
    218,
    218,
    218,
    218,
    218,
    218,
    218,
    218,
    218,
    218,
    218,
    218,
    218,
    218,
    218,
    218,
    218,
    218,
    218,
    218,
    218,
    218,
    218,
    218,
    218,
    218,
    218,
    218,
    218,
    218,
    218,
    218,
    218,
    218,
    218,
    218,
    218,
    218,
    218,
    218,
    218,
    218,
    218,
    218,
    218,
    218,
    218,
    218,
    218,
    218,
    218,
    218,
    218,
    218,
    218,
    218,
    218,
    218,
    218,
    218,
    218,
    218,
    218,
    218,
    218,
    218,
    218,
    218,
    218,
    218,
    218,
    218,
    218,
    218,
    218,
    218,
    218,
    218,
    218,
    218,
    218,
    218,
    218,
    218,
    218,
    218,
    218,
    218,
    218,
    218,
    218,
    218,
    218,
    218,
    218,
    218,
    218,
    218,
    218,
    218,
    218,
    218,
    218,
    218,
    218,
    218,
    218,
    218,
    218,
    218,
    218,
    218,
    218,
    218,
    218,
    218,
    218,
    218,
    218,
    218,
    218,
    218,
    218,
    218,
    218,
    218,
    218,
    218,
    218,
    218,
    218,
    218,
    218,
    218,
    218,
    218,
    218,
    218,
    218,
    218,
    218,
    218,
    218,
    218,
    218,
    218,
    218,
    218,
    218,
    218,
    218,
    218,
    218,
    218,
    218,
    218,
    218,
    218,
    218,
    218,
    218,
    218,
    218,
    218,
    218,
    218,
    218,
    218,
    218,
    218,
    218,
    218,
    218,
    218,
    218,
    218,
    218,
    218,
    218,
    218,
    218,
    218,
    218,
    218,
    218,
    218,
    218,
    218,
    218,
    218,
    218,
    218,
    218,
    218,
    218,
    218,
    218,
    218,
    218,
    218,
    218,
    218,
    218,
    218,
    218,
    218,
    218,
    218,
    218,
    218,
    218,
    218,
    218,
    218,
    218,
    218,
    218,
    218,
    218,
    218,
    218,
    218,
    218,
    218,
    218,
    218,
    218,
    218,
    218,
    218,
    218,
    218,
    218,
    218,
    218,
    218,
    218,
    218,
    218,
    218,
    218,
    218,
    218,
    218,
    218,
    218,
    218,
    218,
    218,
    218,
    218,
    218,
    218,
    218,
    218,
    218,
    218,
    218,
    218,
    218,
    218,
    218,
    218,
    218,
    218,
    218,
    218,
    218,
    218,
    218,
    218,
    218,
    218,
    218,
    218,
    218,
    218,
    218,
    218,
    218,
    218,
    218,
    218,
    218,
    218,
    218,
    218,
    218,
    218,
    218,
    218,
    218,
    218,
    218,
    218,
    218,
    218,
    218,
    218,
    218,
    218,
    218,
    218,
    218,
    218,
    218,
    218,
    218,
    218,
    218,
    218,
    218,
    218,
    218,
    218,
    218,
    218,
    218,
    218,
    218,
    218,
    218,
    218,
    218,
    218,
    218,
    218,
    218,
    218,
    218,
    218,
    218,
    218,
    218,
    218,
    218,
    218,
    218,
    218,
    218,
    218,
    218,
    218,
    218,
    218,
    218,
    218,
    218,
    218,
    218,
    218,
    218,
    218,
    218,
    218,
    218,
    218,
    218,
    218,
    218,
    218,
    218,
    218,
    218,
    218,
    218,
    218,
    218,
    218,
    218,
    218,
    218,
    218,
    218,
    218,
    218,
    218,
    218,
    218,
    218,
    218,
    218,
    218,
    218,
    218,
    218,
    218,
    218,
    218,
    218,
    218,
    218,
    218,
    218,
    218,
    218,
    218,
    218,
    218,
    218,
    218,
    218,
    218,
    218,
    218,
    218,
    218,
    218,
    218,
    218,
    218,
    218,
    218,
    218,
    218,
    218,
    218,
    218,
    218,
    218,
    218,
    218,
    218,
    218,
    218,
    218,
    218,
    218,
    218,
    218,
    218,
    218,
    218,
    218,
    218,
    218,
    218,
    218,
    218,
    218,
    218,
    218,
    218,
    218,
    218,
    218,
    218,
    218,
    218,
    218,
    218,
    218,
    218,
    218,
    218,
    218,
    218,
    218,
    218,
    218,
    218,
    218,
    218,
    218,
    218,
    218,
    218,
    218,
    218,
    218,
    218,
    218,
    218,
    218,
    218,
    218,
    218,
    218,
    218,
    218,
    218,
    218,
    218,
    218,
    218,
    218,
    218,
    218,
    218,
    218,
    218,
    218,
    218,
    218,
    218,
    218,
    218,
    218,
    218,
    218,
    218,
    218,
    218,
    218,
    218,
    218,
    218,
    218,
    218,
    218,
    218,
    218,
    218,
    218,
    218,
    218,
    218,
    218,
    218,
    218,
    218,
    218,
    218,
    218,
    218,
    218,
    218,
    218,
    218,
    218,
    218,
    218,
    218,
    218,
    218,
    218,
    218,
    218,
    218,
    218,
    218,
    218,
    218,
    218,
    218,
    218,
    218,
    218,
    218,
    218,
    218,
    218,
    218,
    218,
    218,
    218,
    218,
    218,
    218,
    218,
    218,
    218,
    218,
    218,
    218,
    218,
    218,
    218,
    218,
    218,
    218,
    218,
    218,
    218,
    218,
    218,
    218,
    218,
    218,
    218,
    218,
    218,
    218,
    218,
    218,
    218,
    218,
    218,
    218,
    218,
    218,
    218,
    218,
    218,
    218,
    218,
    218,
    218,
    218,
    218,
    218,
    218,
    218,
    218,
    218,
    218,
    218,
    218,
    218,
    218,
    218,
    218,
    218,
    218,
    218,
    218,
    218,
    218,
    218,
    218,
    218,
    218,
    218,
    218,
    218,
    218,
    218,
    218,
    218,
    218,
    218,
    218,
    218,
    218,
    218,
    218,
    218,
    218,
    218,
    218,
    218,
    218,
    218,
    218,
    218,
    218,
    218,
    218,
    218,
    218,
    218,
    218,
    218,
    218,
    218,
    218,
    218,
    218,
    218,
    218,
    218,
    218,
    218,
    218,
    218,
    218,
    218,
    218,
    218,
    218,
    218,
    218,
    218,
    218,
    218,
    218,
    218,
    218,
    218,
    218,
    218,
    218,
    218,
    218,
    218,
    218,
    218,
    218,
    218,
    218,
    218,
    218,
    218,
    218,
    218,
    218,
    218,
    218,
    218,
    218,
    218,
    218,
    218,
    218,
    218,
    218,
    218,
    218,
    218,
    218,
    218,
    218,
    218,
    218,
    218,
    218,
    218,
    218,
    218,
    218,
    218,
    218,
    218,
    218,
    218,
    218,
    218,
    218,
    218,
    218,
    218,
    218,
    218,
    218,
    218,
    218,
    218,
    218,
    218,
    218,
    218,
    218,
    218,
    218,
    218,
    218,
    218,
    218,
    218,
    218,
    218,
    218,
    218,
    218,
    218,
    218,
    218,
    218,
    218,
    218,
    218,
    218,
    218,
    218,
    218,
    218,
    218,
    218,
    218,
    218,
    218,
    218,
    218,
    218,
    218,
    218,
    218,
    218,
    218,
    218,
    218,
    218,
    218,
    218,
    218,
    218,
    218,
    218,
    218,
    218,
    218,
    218,
    218,
    218,
    218,
    218,
    218,
    218,
    218,
    218,
    218,
    218,
    218,
    218,
    218,
    218,
    218,
    218,
    218,
    218,
    218,
    218,
    218,
    218,
    218,
    218,
    218,
    218,
    218,
    218,
    218,
    218,
    218,
    218,
    218,
    218,
    218,
    218,
    218,
    218,
    218,
    218,
    218,
    218,
    218,
    218,
    218,
    218,
    218,
    218,
    218,
    218,
    218,
    218,
    218,
    218,
    218,
    218,
    218,
    218,
    218,
    218,
    218,
    218,
    218,
    218,
    218,
    218,
    218,
    218,
    218,
    218,
    218,
    218,
    218,
    218,
    218,
    218,
    218,
    218,
    218,
    218,
    218,
    218,
    218,
    218,
    218,
    218,
    218,
    218,
    218,
    218,
    218,
    218,
    218,
    218,
    218,
    218,
    218,
    218,
    218,
    218,
    218,
    218,
    218,
    218,
    218,
    218,
    218,
    218,
    218,
    218,
    218,
    218,
    218,
    218,
    218,
    218,
    218,
    218,
    218,
    218,
    218,
    218,
    218,
    218,
    218,
    218,
    218,
    218,
    218,
    218,
    218,
    218,
    218,
    218,
    218,
    218,
    218,
    218,
    218,
    218,
    218,
    218,
    218,
    218,
    218,
    218,
    218,
    218,
    218,
    218,
    218,
    218,
    218,
    218,
    218,
    218,
    218,
    218,
    218,
    218,
    218,
    218,
    218,
    218,
    218,
    218,
    218,
    218,
    218,
    218,
    218,
    218,
    218,
    218,
    218,
    218,
    218,
    218,
    218,
    218,
    218,
    218,
    218,
    218,
    218,
    218,
    218,
    218,
    218,
    218,
    218,
    218,
    218,
    218,
    218,
    218,
    218,
    218,
    218,
    218,
    218,
    218,
    218,
    218,
    218,
    218,
    218,
    218,
    218,
    218,
    218,
    218,
    218,
    218,
    218,
    218,
    218,
    218,
    218,
    218,
    218,
    218,
    218,
    218,
    218,
    218,
    218,
    218,
    218,
    218,
    218,
    218,
    218,
    218,
    218,
    218,
    218,
    218,
    218,
    218,
    218,
    218,
    218,
    218,
    218,
    218,
    218,
    218,
    218,
    218,
    218,
    218,
    218,
    218,
    218,
    218,
    218,
    218,
    218,
    218,
    218,
    218,
    218,
    218,
    218,
    218,
    218,
    218,
    218,
    218,
    218,
    218,
    218,
    218,
    218,
    218,
    218,
    218,
    218,
    218,
    218,
    218,
    218,
    218,
    218,
    218,
    218,
    218,
    218,
    218,
    218,
    218,
    218,
    218,
    218,
    218,
    218,
    218,
    218,
    218,
    218,
    218,
    218,
    218,
    218,
    218,
    218,
    218,
    218,
    218,
    218,
    218,
    218,
    218,
    218,
    218,
    218,
    218,
    218,
    218,
    218,
    218,
    218,
    218,
    218,
    218,
    218,
    218,
    218,
    218,
    218,
    218,
    218,
    218,
    218,
    218,
    218,
    218,
    218,
    218,
    218,
    218,
    218,
    218,
    218,
    218,
    218,
    218,
    218,
    218,
    218,
    218,
    218,
    218,
    218,
    218,
    218,
    218,
    218,
    218,
    218,
    218,
    218,
    218,
    218,
    218,
    218,
    218,
    218,
    218,
    218,
    218,
    218,
    218,
    218,
    218,
    218,
    218,
    218,
    218,
    218,
    218,
    218,
    218,
    218,
    218,
    218,
    218,
    218,
    218,
    218,
    218,
    218,
    218,
    218,
    218,
    218,
    218,
    218,
    218,
    218,
    218,
    218,
    218,
    218,
    218,
    218,
    218,
    218,
    218,
    218,
    218,
    218,
    218,
    218,
    218,
    218,
    218,
    218,
    218,
    218,
    218,
    218,
    218,
    218,
    218,
    218,
    218,
    218,
    218,
    218,
    218,
    218,
    218,
    218,
    218,
    218,
    218,
    218,
    218,
    218,
    218,
    218,
    218,
    218,
    218,
    218,
    218,
    218,
    218,
    218,
    218,
    218,
    218,
    218,
    218,
    218,
    218,
    218,
    218,
    218,
    218,
    218,
    218,
    218,
    218,
    218,
    218,
    218,
    218,
    218,
    218,
    218,
    218,
    218,
    218,
    218,
    218,
    218,
    218,
    218,
    218,
    218,
    218,
    218,
    218,
    218,
    218,
    218,
    218,
    218,
    218,
    218,
    218,
    218,
    218,
    218,
    218,
    218,
    218,
    218,
    218,
    218,
    218,
    218,
    218,
    218,
    218,
    218,
    218,
    218,
    218,
    218,
    218,
    218,
    218,
    218,
    218,
    218,
    218,
    218,
    218,
    218,
    218,
    218,
    218,
    218,
    218,
    218,
    218,
    218,
    218,
    218,
    218,
    218,
    218,
    218,
    218,
    218,
    218,
    218,
    218,
    218,
    218,
    218,
    218,
    218,
    218,
    218,
    218,
    218,
    218,
    218,
    218,
    218,
    218,
    218,
    218,
    218,
    218,
    218,
    218,
    218,
    218,
    218,
    218,
    218,
    218,
    218,
    218,
    218,
    218,
    218,
    218,
    218,
    218,
    218,
    218,
    218,
    218,
    218,
    218,
    218,
    218,
    218,
    218,
    218,
    218,
    218,
    218,
    218,
    218,
    218,
    218,
    218,
    218,
    218,
    218,
    218,
    218,
    218,
    218,
    218,
    218,
    218,
    218,
    218,
    218,
    218,
    218,
    218,
    218,
    218,
    218,
    218,
    218,
    218,
    218,
    218,
    218,
    218,
    218,
    218,
    218,
    218,
    218,
    218,
    218,
    218,
    218,
    218,
    218,
    218,
    218,
    218,
    218,
    218,
    218,
    218,
    218,
    218,
    218,
    218,
    218,
    218,
    218,
    218,
    218,
    218,
    218,
    218,
    218,
    218,
    218,
    218,
    218,
    218,
    218,
    218,
    218,
    218,
    218,
    218,
    218,
    218,
    218,
    218,
    218,
    218,
    218,
    218,
    218,
    218,
    218,
    218,
    218,
    218,
    218,
    218,
    218,
    218,
    218,
    218,
    218,
    218,
    218,
    218,
    218,
    218,
    218,
    218,
    218,
    218,
    218,
    218,
    218,
    218,
    218,
    218,
    218,
    218,
    218,
    218,
    218,
    218,
    218,
    218,
    218,
    218,
    218,
    218,
    218,
    218,
    218,
    218,
    218,
    218,
    218,
    218,
    218,
    218,
    218,
    218,
    218,
    218,
    218,
    218,
    218,
    218,
    218,
    218,
    218,
    218,
    218,
    218,
    218,
    218,
    218,
    218,
    218,
    218,
    218,
    218,
    218,
    218,
    218,
    218,
    218,
    218,
    218,
    218,
    218,
    218,
    218,
    218,
    218,
    218,
    218,
    218,
    218,
    218,
    218,
    218,
    218,
    218,
    218,
    218,
    218,
    218,
    218,
    218,
    218,
    218,
    218,
    218,
    218,
    218,
    218,
    218,
    218,
    218,
    218,
    218,
    218,
    218,
    218,
    218,
    218,
    218,
    218,
    218,
    218,
    218,
    218,
    218,
    218,
    218,
    218,
    218,
    218,
    218,
    218,
    218,
    218,
    218,
    218,
    218,
    218,
    218,
    218,
    218,
    218,
    218,
    218,
    218,
    218,
    218,
    218,
    218,
    218,
    218,
    218,
    218,
    218,
    218,
    218,
    218,
    218,
    218,
    218,
    218,
    218,
    218,
    218,
    218,
    218,
    218,
    218,
    218,
    218,
    218,
    218,
    218,
    218,
    218,
    218,
    218,
    218,
    218,
    218,
    218,
    218,
    218,
    218,
    218,
    218,
    218,
    218,
    218,
    218,
    218,
    218,
    218,
    218,
    218,
    218,
    218,
    218,
    218,
    218,
    218,
    218,
    218,
    218,
    218,
    218,
    218,
    218,
    218,
    218,
    218,
    218,
    218,
    218,
    218,
    218,
    218,
    218,
    218,
    218,
    218,
    218,
    218,
    218,
    218,
    218,
    218,
    218,
    218,
    218,
    218,
    218,
    218,
    218,
    218,
    218,
    218,
    218,
    218,
    218,
    218,
    218,
    218,
    218,
    218,
    218,
    218,
    218,
    218,
    218,
    218,
    218,
    218,
    218,
    218,
    218,
    218,
    218,
    218,
    218,
    218,
    218,
    218,
    218,
    218,
    218,
    218,
    218,
    218,
    218,
    218,
    218,
    218,
    218,
    218,
    218,
    218,
    218,
    218,
    218,
    218,
    218,
    218,
    218,
    218,
    218,
    218,
    218,
    218,
    218,
    218,
    218,
    218,
    218,
    218,
    218,
    218,
    218,
    218,
    218,
    218,
    218,
    218,
    218,
    218,
    218,
    218,
    218,
    218,
    218,
    218,
    218,
    218,
    218,
    218,
    218,
    218,
    218,
    218,
    218,
    218,
    218,
    218,
    218,
    218,
    218,
    218,
    218,
    218,
    218,
    218,
    218,
    218,
    218,
    218,
    218,
    218,
    218,
    218,
    218,
    218,
    218,
    218,
    218,
    218,
    218,
    218,
    218,
    218,
    218,
    218,
    218,
    218,
    218,
    218,
    218,
    218,
    218,
    218,
    218,
    218,
    218,
    218,
    218,
    218,
    218,
    218,
    218,
    218,
    218,
    218,
    218,
    218,
    218,
    218,
    218,
    218,
    218,
    218,
    218,
    218,
    218,
    218,
    218,
    218,
    218,
    218,
    218,
    218,
    218,
    218,
    218,
    218,
    218,
    218,
    218,
    218,
    218,
    218,
    218,
    218,
    218,
    218,
    218,
    218,
    218,
    218,
    218,
    218,
    218,
    218,
    218,
    218,
    218,
    218,
    218,
    218,
    218,
    218,
    218,
    218,
    218,
    218,
    218,
    218,
    218,
    218,
    218,
    218,
    218,
    218,
    218,
    218,
    218,
    218,
    218,
    218,
    218,
    218,
    218,
    218,
    218,
    218,
    218,
    218,
    218,
    218,
    218,
    218,
    218,
    218,
    218,
    218,
    218,
    218,
    218,
    218,
    218,
    218,
    218,
    218,
    218,
    218,
    218,
    218,
    218,
    218,
    218,
    218,
    218,
    218,
    218,
    218,
    218,
    218,
    218,
    218,
    218,
    218,
    218,
    218,
    218,
    218,
    218,
    218,
    218,
    218,
    218,
    218,
    218,
    218,
    218,
    218,
    218,
    218,
    218,
    218,
    218,
    218,
    218,
    218,
    218,
    218,
    218,
    218,
    218,
    218,
    218,
    218,
    218,
    218,
    218,
    218,
    218,
    218,
    218,
    218,
    218,
    218,
    218,
    218,
    218,
    218,
    218,
    218,
    218,
    218,
    218,
    218,
    218,
    218,
    218,
    218,
    218,
    218,
    218,
    218,
    218,
    218,
    218,
    218,
    218,
    218,
    218,
    218,
    218,
    218,
    218,
    218,
    218,
    218,
    218,
    218,
    218,
    218,
    218,
    218,
    218,
    218,
    218,
    218,
    218,
    218,
    218,
    218,
    218,
    218,
    218,
    218,
    218,
    218,
    218,
    218,
    218,
    218,
    218,
    218,
    218,
    218,
    218,
    218,
    218,
    218,
    218,
    218,
    218,
    218,
    218,
    218,
    218,
    218,
    218,
    218,
    218,
    218,
    218,
    218,
    218,
    218,
    218,
    218,
    218,
    218,
    218,
    218,
    218,
    218,
    218,
    218,
    218,
    218,
    218,
    218,
    218,
    218,
    218,
    218,
    218,
    218,
    218,
    218,
    218,
    218,
    218,
    218,
    218,
    218,
    218,
    218,
    218,
    218,
    218,
    218,
    218,
    218,
    218,
    218,
    218,
    218,
    218,
    218,
    218,
    218,
    218,
    218,
    218,
    218,
    218,
    218,
    218,
    218,
    218,
    218,
    218,
    218,
    218,
    218,
    218,
    218,
    218,
    218,
    218,
    218,
    218,
    218,
    218,
    218,
    218,
    218,
    218,
    218,
    218,
    218,
    218,
    218,
    218,
    218,
    218,
    218,
    218,
    218,
    218,
    218,
    218,
    218,
    218,
    218,
    218,
    218,
    218,
    218,
    218,
    218,
    218,
    218,
    218,
    218,
    218,
    218,
    218,
    218,
    218,
    218,
    218,
    218,
    218,
    218,
    218,
    218,
    218,
    218,
    218,
    218,
    218,
    218,
    218,
    218,
    218,
    218,
    218,
    218,
    218,
    218,
    218,
    218,
    218,
    218,
    218,
    218,
    218,
    218,
    218,
    218,
    218,
    218,
    218,
    218,
    218,
    218,
    218,
    218,
    218,
    218,
    218,
    218,
    218,
    218,
    218,
    218,
    218,
    218,
    218,
    218,
    218,
    218,
    218,
    218,
    218,
    218,
    218,
    218,
    218,
    218,
    218,
    218,
    218,
    218,
    218,
    218,
    218,
    218,
    218,
    218,
    218,
    218,
    218,
    218,
    218,
    218,
    218,
    218,
    218,
    218,
    218,
    218,
    218,
    218,
    218,
    218,
    218,
    218,
    218,
    218,
    218,
    218,
    218,
    218,
    218,
    218,
    218,
    218,
    218,
    218,
    218,
    218,
    218,
    218,
    218,
    218,
    218,
    218,
    218,
    218,
    218,
    218,
    218,
    218,
    218,
    218,
    218,
    218,
    218,
    218,
    218,
    218,
    218,
    218,
    218,
    218,
    218,
    218,
    218,
    218,
    218,
    218,
    218,
    218,
    218,
    218,
    218,
    218,
    218,
    218,
    218,
    218,
    218,
    218,
    218,
    218,
    218,
    218,
    218,
    218,
    218,
    218,
    218,
    218,
    218,
    218,
    218,
    218,
    218,
    218,
    218,
    218,
    218,
    218,
    218,
    218,
    218,
    218,
    218,
    218,
    218,
    218,
    218,
    218,
    218,
    218,
    218,
    218,
    218,
    218,
    218,
    218,
    218,
    218,
    218,
    218,
    218,
    218,
    218,
    218,
    218,
    218,
    218,
    218,
    218,
    218,
    218,
    218,
    218,
    218,
    218,
    218,
    218,
    218,
    218,
    218,
    218,
    218,
    218,
    218,
    218,
    218,
    218,
    218,
    218,
    218,
    218,
    218,
    218,
    218,
    218,
    218,
    218,
    218,
    218,
    218,
    218,
    218,
    218,
    218,
    218,
    218,
    218,
    218,
    218,
    218,
    218,
    218,
    218,
    218,
    218,
    218,
    218,
    218,
    218,
    218,
    218,
    218,
    218,
    218,
    218,
    218,
    218,
    218,
    218,
    218,
    218,
    218,
    218,
    218,
    218,
    218,
    218,
    218,
    218,
    218,
    218,
    218,
    218,
    218,
    218,
    218,
    218,
    218,
    218,
    218,
    218,
    218,
    218,
    218,
    218,
    218,
    218,
    218,
    218,
    218,
    218,
    218,
    218,
    218,
    218,
    218,
    218,
    218,
    218,
    218,
    218,
    218,
    218,
    218,
    218,
    218,
    218,
    218,
    218,
    218,
    218,
    218,
    218,
    218,
    218,
    218,
    218,
    218,
    218,
    218,
    218,
    218,
    218,
    218,
    218,
    218,
    218,
    218,
    218,
    218,
    218,
    218,
    218,
    218,
    218,
    218,
    218,
    218,
    218,
    218,
    218,
    218,
    218,
    218,
    218,
    218,
    218,
    218,
    218,
    218,
    218,
    218,
    218,
    218,
    218,
    218,
    218,
    218,
    218,
    218,
    218,
    218,
    218,
    218,
    218,
    218,
    218,
    218,
    218,
    218,
    218,
    218,
    218,
    218,
    218,
    218,
    218,
    218,
    218,
    218,
    218,
    218,
    218,
    218,
    218,
    218,
    218,
    218,
    218,
    218,
    218,
    218,
    218,
    218,
    218,
    218,
    218,
    218,
    218,
    218,
    218,
    218,
    218,
    218,
    218,
    218,
    218,
    218,
    218,
    218,
    218,
    218,
    218,
    218,
    218,
    218,
    218,
    218,
    218,
    218,
    218,
    218,
    218,
    218,
    218,
    218,
    218,
    218,
    218,
    218,
    218,
    218,
    218,
    218,
    218,
    218,
    218,
    218,
    218,
    218,
    218,
    218,
    218,
    218,
    218,
    218,
    218,
    218,
    218,
    218,
    218,
    218,
    218,
    218,
    218,
    218,
    218,
    218,
    218,
    218,
    218,
    218,
    218,
    218,
    218,
    218,
    218,
    218,
    218,
    218,
    218,
    218,
    218,
    218,
    218,
    218,
    218,
    218,
    218,
    218,
    218,
    218,
    218,
    218,
    218,
    218,
    218,
    218,
    218,
    218,
    218,
    218,
    218,
    218,
    218,
    218,
    218,
    218,
    218,
    218,
    218,
    218,
    218,
    218,
    218,
    218,
    218,
    218,
    218,
    218,
    218,
    218,
    218,
    218,
    218,
    218,
    218,
    218,
    218,
    218,
    218,
    218,
    218,
    218,
    218,
    218,
    218,
    218,
    218,
    218,
    218,
    218,
    218,
    218,
    218,
    218,
    218,
    218,
    218,
    218,
    218,
    218,
    218,
    218,
    218,
    218,
    218,
    218,
    218,
    218,
    218,
    218,
    218,
    218,
    218,
    218,
    218,
    218,
    218,
    218,
    218,
    218,
    218,
    218,
    218,
    218,
    218,
    218,
    218,
    218,
    218,
    218,
    218,
    218,
    218,
    218,
    218,
    218,
    218,
    218,
    218,
    218,
    218,
    218,
    218,
    218,
    218,
    218,
    218,
    218,
    218,
    218,
    218,
    218,
    218,
    218,
    218,
    218,
    218,
    218,
    218,
    218,
    218,
    218,
    218,
    218,
    218,
    218,
    218,
    218,
    218,
    218,
    218,
    218,
    218,
    218,
    218,
    218,
    218,
    218,
    218,
    218,
    218,
    218,
    218,
    218,
    218,
    218,
    218,
    218,
    218,
    218,
    218,
    218,
    218,
    218,
    218,
    218,
    218,
    218,
    218,
    218,
    218,
    218,
    218,
    218,
    218,
    218,
    218,
    218,
    218,
    218,
    218,
    218,
    218,
    218,
    218,
    218,
    218,
    218,
    218,
    218,
    218,
    218,
    218,
    218,
    218,
    218,
    218,
    218,
    218,
    218,
    218,
    218,
    218,
    218,
    218,
    218,
    218,
    218,
    218,
    218,
    218,
    218,
    218,
    218,
    218,
    218,
    218,
    218,
    218,
    218,
    218,
    218,
    218,
    218,
    218,
    218,
    218,
    218,
    218,
    218,
    218,
    218,
    218,
    218,
    218,
    218,
    218,
    218,
    218,
    218,
    218,
    218,
    218,
    218,
    218,
    218,
    218,
    218,
    218,
    218,
    218,
    218,
    218,
    218,
    218,
    218,
    218,
    218,
    218,
    218,
    218,
    218,
    218,
    218,
    218,
    218,
    218,
    218,
    218,
    218,
    218,
    218,
    218,
    218,
    218,
    218,
    218,
    218,
    218,
    218,
    218,
    218,
    218,
    218,
    218,
    218,
    218,
    218,
    218,
    218,
    218,
    218,
    218,
    218,
    218,
    218,
    218,
    218,
    218,
    218,
    218,
    218,
    218,
    218,
    218,
    218,
    218,
    218,
    218,
    218,
    218,
    218,
    218,
    218,
    218,
    218,
    218,
    218,
    218,
    218,
    218,
    218,
    218,
    218,
    218,
    218,
    218,
    218,
    218,
    218,
    218,
    218,
    218,
    218,
    218,
    218,
    218,
    218,
    218,
    218,
    218,
    218,
    218,
    218,
    218,
    218,
    218,
    218,
    218,
    218,
    218,
    218,
    218,
    218,
    218,
    218,
    218,
    218,
    218,
    218,
    218,
    218,
    218,
    218,
    218,
    218,
    218,
    218,
    218,
    218,
    218,
    218,
    218,
    218,
    218,
    218,
    218,
    218,
    218,
    218,
    218,
    218,
    218,
    218,
    218,
    218,
    218,
    218,
    218,
    218,
    218,
    218,
    218,
    218,
    218,
    218,
    218,
    218,
    218,
    218,
    218,
    218,
    218,
    218,
    218,
    218,
    218,
    218,
    218,
    218,
    218,
    218,
    218,
    218,
    218,
    218,
    218,
    218,
    218,
    218,
    218,
    218,
    218,
    218,
    218,
    218,
    218,
    218,
    218,
    218,
    218,
    218,
    218,
    218,
    218,
    218,
    218,
    218,
    218,
    218,
    218,
    218,
    218,
    218,
    218,
    218,
    218,
    218,
    218,
    218,
    218,
    218,
    218,
    218,
    218,
    218,
    218,
    218,
    218,
    218,
    218,
    218,
    218,
    218,
    218,
    218,
    218,
    218,
    218,
    218,
    218,
    218,
    218,
    218,
    218,
    218,
    218,
    218,
    218,
    218,
    218,
    218,
    218,
    218,
    218,
    218,
    218,
    218,
    218,
    218,
    218,
    218,
    218,
    218,
    218,
    218,
    218,
    218,
    218,
    218,
    218,
    218,
    218,
    218,
    218,
    218,
    218,
    218,
    218,
    218,
    218,
    218,
    218,
    218,
    218,
    218,
    218,
    218,
    218,
    218,
    218,
    218,
    218,
    218,
    218,
    218,
    218,
    218,
    218,
    218,
    218,
    218,
    218,
    218,
    218,
    218,
    218,
    218,
    218,
    218,
    218,
    218,
    218,
    218,
    218,
    218,
    218,
    218,
    218,
    218,
    218,
    218,
    218,
    218,
    218,
    218,
    218,
    218,
    218,
    218,
    218,
    218,
    218,
    218,
    218,
    218,
    218,
    218,
    218,
    218,
    218,
    218,
    218,
    218,
    218,
    218,
    218,
    218,
    218,
    218,
    218,
    218,
    218,
    218,
    218,
    218,
    218,
    218,
    218,
    218,
    218,
    218,
    218,
    218,
    218,
    218,
    218,
    218,
    218,
    218,
    218,
    218,
    218,
    218,
    218,
    218,
    218,
    218,
    218,
    218,
    218,
    218,
    218,
    218,
    218,
    218,
    218,
    218,
    218,
    218,
    218,
    218,
    218,
    218,
    218,
    218,
    218,
    218,
    218,
    218,
    218,
    218,
    218,
    218,
    218,
    218,
    218,
    218,
    218,
    218,
    218,
    218,
    218,
    218,
    218,
    218,
    218,
    218,
    218,
    218,
    218,
    218,
    218,
    218,
    218,
    218,
    218,
    218,
    218,
    218,
    218,
    218,
    218,
    218,
    218,
    218,
    218,
    218,
    218,
    218,
    218,
    218,
    218,
    218,
    218,
    218,
    218,
    218,
    218,
    218,
    218,
    218,
    218,
    218,
    218,
    218,
    218,
    218,
    218,
    218,
    218,
    218,
    218,
    218,
    218,
    218,
    218,
    218,
    218,
    218,
    218,
    218,
    218,
    218,
    218,
    218,
    218,
    218,
    218,
    218,
    218,
    218,
    218,
    218,
    218,
    218,
    218,
    218,
    218,
    218,
    218,
    218,
    218,
    218,
    218,
    218,
    218,
    218,
    218,
    218,
    218,
    218,
    218,
    218,
    218,
    218,
    218,
    218,
    218,
    218,
    218,
    218,
    218,
    218,
    218,
    218,
    218,
    218,
    218,
    218,
    218,
    218,
    218,
    218,
    218,
    218,
    218,
    218,
    218,
    218,
    218,
    218,
    218,
    218,
    218,
    218,
    218,
    218,
    218,
    218,
    218,
    218,
    218,
    218,
    218,
    218,
    218,
    218,
    218,
    218,
    218,
    218,
    218,
    218,
    218,
    218,
    218,
    218,
    218,
    218,
    218,
    218,
    218,
    218,
    218,
    218,
    218,
    218,
    218,
    218,
    218,
    218,
    218,
    218,
    218,
    218,
    218,
    218,
    218,
    218,
    218,
    218,
    218,
    218,
    218,
    218,
    218,
    218,
    218,
    218,
    218,
    218,
    218,
    218,
    218,
    218,
    218,
    218,
    218,
    218,
    218,
    218,
    218,
    218,
    218,
    218,
    218,
    218,
    218,
    218,
    218,
    218,
    218,
    218,
    218,
    218,
    218,
    218,
    218,
    218,
    218,
    218,
    218,
    218,
    218,
    218,
    218,
    218,
    218,
    218,
    218,
    218,
    218,
    218,
    218,
    218,
    218,
    218,
    218,
    218,
    218,
    218,
    218,
    218,
    218,
    218,
    218,
    218,
    218,
    218,
    218,
    218,
    218,
    218,
    218,
    218,
    218,
    218,
    218,
    218,
    218,
    218,
    218,
    218,
    218,
    218,
    218,
    218,
    218,
    218,
    218,
    218,
    218,
    218,
    218,
    218,
    218,
    218,
    218,
    218,
    218,
    218,
    218,
    218,
    218,
    218,
    218,
    218,
    218,
    218,
    218,
    218,
    218,
    218,
    218,
    218,
    218,
    218,
    218,
    218,
    218,
    218,
    218,
    218,
    218,
    218,
    218,
    218,
    218,
    218,
    218,
    218,
    218,
    218,
    218,
    218,
    218,
    218,
    218,
    218,
    218,
    218,
    218,
    218,
    218,
    218,
    218,
    218,
    218,
    218,
    218,
    218,
    218,
    218,
    218,
    218,
    218,
    218,
    218,
    218,
    218,
    218,
    218,
    218,
    218,
    218,
    218,
    218,
    218,
    218,
    218,
    218,
    218,
    218,
    218,
    218,
    218,
    218,
    218,
    218,
    218,
    218,
    218,
    218,
    218,
    218,
    218,
    218,
    218,
    218,
    218,
    218,
    218,
    218,
    218,
    218,
    218,
    218,
    218,
    218,
    218,
    218,
    218,
    218,
    218,
    218,
    218,
    218,
    218,
    218,
    218,
    218,
    218,
    218,
    218,
    218,
    218,
    218,
    218,
    218,
    218,
    218,
    218,
    218,
    218,
    218,
    218,
    218,
    218,
    218,
    218,
    218,
    218,
    218,
    218,
    218,
    218,
    218,
    218,
    218,
    218,
    218,
    218,
    218,
    218,
    218,
    218,
    218,
    218,
    218,
    218,
    218,
    218,
    218,
    218,
    218,
    218,
    218,
    218,
    218,
    218,
    218,
    218,
    218,
    218,
    218,
    218,
    218,
    218,
    218,
    218,
    218,
    218,
    218,
    218,
    218,
    218,
    218,
    218,
    218,
    218,
    218,
    218,
    218,
    218,
    218,
    218,
    218,
    218,
    218,
    218,
    218,
    218,
    218,
    218,
    218,
    218,
    218,
    218,
    218,
    218,
    218,
    218,
    218,
    218,
    218,
    218,
    218,
    218,
    218,
    218,
    218,
    218,
    218,
    218,
    218,
    218,
    218,
    218,
    218,
    218,
    218,
    218,
    218,
    218,
    218,
    218,
    218,
    218,
    218,
    218,
    218,
    218,
    218,
    218,
    218,
    218,
    218,
    218,
    218,
    218,
    218,
    218,
    218,
    218,
    218,
    218,
    218,
    218,
    218,
    218,
    218,
    218,
    218,
    218,
    218,
    218,
    218,
    218,
    218,
    218,
    218,
    218,
    218,
    218,
    218,
    218,
    218,
    218,
    218,
    218,
    218,
    218,
    218,
    218,
    218,
    218,
    218,
    218,
    218,
    218,
    218,
    218,
    218,
    218,
    218,
    218,
    218,
    218,
    218,
    218,
    218,
    218,
    218,
    218,
    218,
    218,
    218,
    218,
    218,
    218,
    218,
    218,
    218,
    218,
    218,
    218,
    218,
    218,
    218,
    218,
    218,
    218,
    218,
    218,
    218,
    218,
    218,
    218,
    218,
    218,
    218,
    218,
    218,
    218,
    218,
    218,
    218,
    218,
    218,
    218,
    218,
    218,
    218,
    218,
    218,
    218,
    218,
    218,
    218,
    218,
    218,
    218,
    218,
    218,
    218,
    218,
    218,
    218,
    218,
    218,
    218,
    218,
    218,
    218,
    218,
    218,
    218,
    218,
    218,
    218,
    218,
    218,
    218,
    218,
    218,
    218,
    218,
    218,
    218,
    218,
    218,
    218,
    218,
    218,
    218,
    218,
    218,
    218,
    218,
    218,
    218,
    218,
    218,
    218,
    218,
    218,
    218,
    218,
    218,
    218,
    218,
    218,
    218,
    218,
    218,
    218,
    218,
    218,
    218,
    218,
    218,
    218,
    218,
    218,
    218,
    218,
    218,
    218,
    218,
    218,
    218,
    218,
    218,
    218,
    218,
    218,
    218,
    218,
    218,
    218,
    218,
    218,
    218,
    218,
    218,
    218,
    218,
    218,
    218,
    218,
    218,
    218,
    218,
    218,
    218,
    218,
    218,
    218,
    218,
    218,
    218,
    218,
    218,
    218,
    218,
    218,
    218,
    218,
    218,
    218,
    218,
    218,
    218,
    218,
    218,
    218,
    218,
    218,
    218,
    218,
    218,
    218,
    218,
    218,
    218,
    218,
    218,
    218,
    218,
    218,
    218,
    218,
    218,
    218,
    218,
    218,
    218,
    218,
    218,
    218,
    218,
    218,
    218,
    218,
    218,
    218,
    218,
    218,
    218,
    218,
    218,
    218,
    218,
    218,
    218,
    218,
    218,
    218,
    218,
    218,
    218,
    218,
    218,
    218,
    218,
    218,
    218,
    218,
    218,
    218,
    218,
    218,
    218,
    218,
    218,
    218,
    218,
    218,
    218,
    218,
    218,
    218,
    218,
    218,
    218,
    218,
    218,
    218,
    218,
    218,
    218,
    218,
    218,
    218,
    218,
    218,
    218,
    218,
    218,
    218,
    218,
    218,
    218,
    218,
    218,
    218,
    218,
    218,
    218,
    218,
    218,
    218,
    218,
    218,
    218,
    218,
    218,
    218,
    218,
    218,
    218,
    218,
    218,
    218,
    218,
    218,
    218,
    218,
    218,
    218,
    218,
    218,
    218,
    218,
    218,
    218,
    218,
    218,
    218,
    218,
    218,
    218,
    218,
    218,
    218,
    218,
    218,
    218,
    218,
    218,
    218,
    218,
    218,
    218,
    218,
    218,
    218,
    218,
    218,
    218,
    218,
    218,
    218,
    218,
    218,
    218,
    218,
    218,
    218,
    218,
    218,
    218,
    218,
    218,
    218,
    218,
    218,
    218,
    218,
    218,
    218,
    218,
    218,
    218,
    218,
    218,
    218,
    218,
    218,
    218,
    218,
    218,
    218,
    218,
    218,
    218,
    218,
    218,
    218,
    218,
    218,
    218,
    218,
    218,
    218,
    218,
    218,
    218,
    218,
    218,
    218,
    218,
    218,
    218,
    218,
    218,
    218,
    218,
    218,
    218,
    218,
    218,
    218,
    218,
    218,
    218,
    218,
    218,
    218,
    218,
    218,
    218,
    218,
    218,
    218,
    218,
    218,
    218,
    218,
    218,
    218,
    218,
    218,
    218,
    218,
    218,
    218,
    218,
    218,
    218,
    218,
    218,
    218,
    218,
    218,
    218,
    218,
    218,
    218,
    218,
    218,
    218,
    218,
    218,
    218,
    218,
    218,
    218,
    218,
    218,
    218,
    218,
    218,
    218,
    218,
    218,
    218,
    218,
    218,
    218,
    218,
    218,
    218,
    218,
    218,
    218,
    218,
    218,
    218,
    218,
    218,
    218,
    218,
    218,
    218,
    218,
    218,
    218,
    218,
    218,
    218,
    218,
    218,
    218,
    218,
    218,
    218,
    218,
    218,
    218,
    218,
    218,
    218,
    218,
    218,
    218,
    218,
    218,
    218,
    218,
    218,
    218,
    218,
    218,
    218,
    218,
    218,
    218,
    218,
    218,
    218,
    218,
    218,
    218,
    218,
    218,
    218,
    218,
    218,
    218,
    218,
    218,
    218,
    218,
    218,
    218,
    218,
    218,
    218,
    218,
    218,
    218,
    218,
    218,
    218,
    218,
    218,
    218,
    218,
    218,
    218,
    218,
    218,
    218,
    218,
    218,
    218,
    218,
    218,
    218,
    218,
    218,
    218,
    218,
    218,
    218,
    218,
    218,
    218,
    218,
    218,
    218,
    218,
    218,
    218,
    218,
    218,
    218,
    218,
    218,
    218,
    218,
    218,
    218,
    218,
    218,
    218,
    218,
    218,
    218,
    218,
    218,
    218,
    218,
    218,
    218,
    218,
    218,
    218,
    218,
    218,
    218,
    218,
    218,
    218,
    218,
    218,
    218,
    218,
    218,
    218,
    218,
    218,
    218,
    218,
    218,
    218,
    218,
    218,
    218,
    218,
    218,
    218,
    218,
    218,
    218,
    218,
    218,
    218,
    218,
    218,
    218,
    218,
    218,
    218,
    218,
    218,
    218,
    218,
    218,
    218,
    218,
    218,
    218,
    218,
    218,
    218,
    218,
    218,
    218,
    218,
    218,
    218,
    218,
    218,
    218,
    218,
    218,
    218,
    218,
    218,
    218,
    218,
    218,
    218,
    218,
    218,
    218,
    218,
    218,
    218,
    218,
    218,
    218,
    218,
    218,
    218,
    218,
    218,
    218,
    218,
    218,
    218,
    218,
    218,
    218,
    218,
    218,
    218,
    218,
    218,
    218,
    218,
    218,
    218,
    218,
    218,
    218,
    218,
    218,
    218,
    218,
    218,
    218,
    218,
    218,
    218,
    218,
    218,
    218,
    218,
    218,
    218,
    218,
    218,
    218,
    218,
    218,
    218,
    218,
    218,
    218,
    218,
    218,
    218,
    218,
    218,
    218,
    218,
    218,
    218,
    218,
    218,
    218,
    218,
    218,
    218,
    218,
    218,
    218,
    218,
    218,
    218,
    218,
    218,
    218,
    218,
    218,
    218,
    218,
    218,
    218,
    218,
    218,
    218,
    218,
    218,
    218,
    218,
    218,
    218,
    218,
    218,
    218,
    218,
    218,
    218,
    218,
    218,
    218,
    218,
    218,
    218,
    218,
    218,
    218,
    218,
    218,
    218,
    218,
    218,
    218,
    218,
    218,
    218,
    218,
    218,
    218,
    218,
    218,
    218,
    218,
    218,
    218,
    218,
    218,
    218,
    218,
    218,
    218,
    218,
    218,
    218,
    218,
    218,
    218,
    218,
    218,
    218,
    218,
    218,
    218,
    218,
    218,
    218,
    218,
    218,
    218,
    218,
    218,
    218,
    218,
    218,
    218,
    218,
    218,
    218,
    218,
    218,
    218,
    218,
    218,
    218,
    218,
    218,
    218,
    218,
    218,
    218,
    218,
    218,
    218,
    218,
    218,
    218,
    218,
    218,
    218,
    218,
    218,
    218,
    218,
    218,
    218,
    218,
    218,
    218,
    218,
    218,
    218,
    218,
    218,
    218,
    218,
    218,
    218,
    218,
    218,
    218,
    218,
    218,
    218,
    218,
    218,
    218,
    218,
    218,
    218,
    218,
    218,
    218,
    218,
    218,
    218,
    218,
    218,
    218,
    218,
    218,
    218,
    218,
    218,
    218,
    218,
    218,
    218,
    218,
    218,
    218,
    218,
    218,
    218,
    218,
    218,
    218,
    218,
    218,
    218,
    218,
    218,
    218,
    218,
    218,
    218,
    218,
    218,
    218,
    218,
    218,
    218,
    218,
    218,
    218,
    218,
    218,
    218,
    218,
    218,
    218,
    218,
    218,
    218,
    218,
    218,
    218,
    218,
    218,
    218,
    218,
    218,
    218,
    218,
    218,
    218,
    218,
    218,
    218,
    218,
    218,
    218,
    218,
    218,
    218,
    218,
    218,
    218,
    218,
    218,
    218,
    218,
    218,
    218,
    218,
    218,
    218,
    218,
    218,
    218,
    218,
    218,
    218,
    218,
    218,
    218,
    218,
    218,
    218,
    218,
    218,
    218,
    218,
    218,
    218,
    218,
    218,
    218,
    218,
    218,
    218,
    218,
    218,
    218,
    218,
    218,
    218,
    218,
    218,
    218,
    218,
    218,
    218,
    218,
    218,
    218,
    218,
    218,
    218,
    218,
    218,
    218,
    218,
    218,
    218,
    218,
    218,
    218,
    218,
    218,
    218,
    218,
    218,
    218,
    218,
    218,
    218,
    218,
    218,
    218,
    218,
    218,
    218,
    218,
    218,
    218,
    218,
    218,
    218,
    218,
    218,
    218,
    218,
    218,
    218,
    218,
    218,
    218,
    218,
    218,
    218,
    218,
    218,
    218,
    218,
    218,
    218,
    218,
    218,
    218,
    218,
    218,
    218,
    218,
    218,
    218,
    218,
    218,
    218,
    218,
    218,
    218,
    218,
    218,
    218,
    218,
    218,
    218,
    218,
    218,
    218,
    218,
    218,
    218,
    218,
    218,
    218,
    218,
    218,
    218,
    218,
    218,
    218,
    218,
    218,
    218,
    218,
    218,
    218,
    218,
    218,
    218,
    218,
    218,
    218,
    218,
    218,
    218,
    218,
    218,
    218,
    218,
    218,
    218,
    218,
    218,
    218,
    218,
    218,
    218,
    218,
    218,
    218,
    218,
    218,
    218,
    218,
    218,
    218,
    218,
    218,
    218,
    218,
    218,
    218,
    218,
    218,
    218,
    218,
    218,
    218,
    218,
    218,
    218,
    218,
    218,
    218,
    218,
    218,
    218,
    218,
    218,
    218,
    218,
    218,
    218,
    218,
    218,
    218,
    218,
    218,
    218,
    218,
    218,
    218,
    218,
    218,
    218,
    218,
    218,
    218,
    218,
    218,
    218,
    218,
    218,
    218,
    218,
    218,
    218,
    218,
    218,
    218,
    218,
    218,
    218,
    218,
    218,
    218,
    218,
    218,
    218,
    218,
    218,
    218,
    218,
    218,
    218,
    218,
    218,
    218,
    218,
    218,
    218,
    218,
    218,
    218,
    218,
    218,
    218,
    218,
    218,
    218,
    218,
    218,
    218,
    218,
    218,
    218,
    218,
    218,
    218,
    218,
    218,
    218,
    218,
    218,
    218,
    218,
    218,
    218,
    218,
    218,
    218,
    218,
    218,
    218,
    218,
    218,
    218,
    218,
    218,
    218,
    218,
    218,
    218,
    218,
    218,
    218,
    218,
    218,
    218,
    218,
    218,
    218,
    218,
    218,
    218,
    218,
    218,
    218,
    218,
    218,
    218,
    218,
    218,
    218,
    218,
    218,
    218,
    218,
    218,
    218,
    218,
    218,
    218,
    218,
    218,
    218,
    218,
    218,
    218,
    218,
    218,
    218,
    218,
    218,
    218,
    218,
    218,
    218,
    218,
    218,
    218,
    218,
    218,
    218,
    218,
    218,
    218,
    218,
    218,
    218,
    218,
    218,
    218,
    218,
    218,
    218,
    218,
    218,
    218,
    218,
    218,
    218,
    218,
    218,
    218,
    218,
    218,
    218,
    218,
    218,
    218,
    218,
    218,
    218,
    218,
    218,
    218,
    218,
    218,
    218,
    218,
    218,
    218,
    218,
    218,
    218,
    218,
    218,
    218,
    218,
    218,
    218,
    218,
    218,
    218,
    218,
    218,
    218,
    218,
    218,
    218,
    218,
    218,
    218,
    218,
    218,
    218,
    218,
    218,
    218,
    218,
    218,
    218,
    218,
    218,
    218,
    218,
    218,
    218,
    218,
    218,
    218,
    218,
    218,
    218,
    218,
    218,
    218,
    218,
    218,
    218,
    218,
    218,
    218,
    218,
    218,
    218,
    218,
    218,
    218,
    218,
    218,
    218,
    218,
    218,
    218,
    218,
    218,
    218,
    218,
    218,
    218,
    218,
    218,
    218,
    218,
    218,
    218,
    218,
    218,
    218,
    218,
    218,
    218,
    218,
    218,
    218,
    218,
    218,
    218,
    218,
    218,
    218,
    218,
    218,
    218,
    218,
    218,
    218,
    218,
    218,
    218,
    218,
    218,
    218,
    218,
    218,
    218,
    218,
    218,
    218,
    218,
    218,
    218,
    218,
    218,
    218,
    218,
    218,
    218,
    218,
    218,
    218,
    218,
    218,
    218,
    218,
    218,
    218,
    218,
    218,
    218,
    218,
    218,
    218,
    218,
    218,
    218,
    218,
    218,
    218,
    218,
    218,
    218,
    218,
    218,
    218,
    218,
    218,
    218,
    218,
    218,
    218,
    218,
    218,
    218,
    218,
    218,
    218,
    218,
    218,
    218,
    218,
    218,
    218,
    218,
    218,
    218,
    218,
    218,
    218,
    218,
    218,
    218,
    218,
    218,
    218,
    218,
    218,
    218,
    218,
    218,
    218,
    218,
    218,
    218,
    218,
    218,
    218,
    218,
    218,
    218,
    218,
    218,
    218,
    218,
    218,
    218,
    218,
    218,
    218,
    218,
    218,
    218,
    218,
    218,
    218,
    218,
    218,
    218,
    218,
    218,
    218,
    218,
    218,
    218,
    218,
    218,
    218,
    218,
    218,
    218,
    218,
    218,
    218,
    218,
    218,
    218,
    218,
    218,
    218,
    218,
    218,
    218,
    218,
    218,
    218,
    218,
    218,
    218,
    218,
    218,
    218,
    218,
    218,
    218,
    218,
    218,
    218,
    218,
    218,
    218,
    218,
    218,
    218,
    218,
    218,
    218,
    218,
    218,
    218,
    218,
    218,
    218,
    218,
    218,
    218,
    218,
    218,
    218,
    218,
    218,
    218,
    218,
    218,
    218,
    218,
    218,
    218,
    218,
    218,
    218,
    218,
    218,
    218,
    218,
    218,
    218,
    218,
    218,
    218,
    218,
    218,
    218,
    218,
    218,
    218,
    218,
    218,
    218,
    218,
    218,
    218,
    218,
    218,
    218,
    218,
    218,
    218,
    218,
    218,
    218,
    218,
    218,
    218,
    218,
    218,
    218,
    218,
    218,
    218,
    218,
    218,
    218,
    218,
    218,
    218,
    218,
    218,
    218,
    218,
    218,
    218,
    218,
    218,
    218,
    218,
    218,
    218,
    218,
    218,
    218,
    218,
    218,
    218,
    218,
    218,
    218,
    218,
    218,
    218,
    218,
    218,
    218,
    218,
    218,
    218,
    218,
    218,
    218,
    218,
    218,
    218,
    218,
    218,
    218,
    218,
    218,
    218,
    218,
    218,
    218,
    218,
    218,
    218,
    218,
    218,
    218,
    218,
    218,
    218,
    218,
    218,
    218,
    218,
    218,
    218,
    218,
    218,
    218,
    218,
    218,
    218,
    218,
    218,
    218,
    218,
    218,
    218,
    218,
    218,
    218,
    218,
    218,
    218,
    218,
    218,
    218,
    218,
    218,
    218,
    218,
    218,
    218,
    218,
    218,
    218,
    218,
    218,
    218,
    218,
    218,
    218,
    218,
    218,
    218,
    218,
    218,
    218,
    218,
    218,
    218,
    218,
    218,
    218,
    218,
    218,
    218,
    218,
    218,
    218,
    218,
    218,
    218,
    218,
    218,
    218,
    218,
    218,
    218,
    218,
    218,
    218,
    218,
    218,
    218,
    218,
    218,
    218,
    218,
    218,
    218,
    218,
    218,
    218,
    218,
    218,
    218,
    218,
    218,
    218,
    218,
    218,
    218,
    218,
    218,
    218,
    218,
    218,
    218,
    218,
    218,
    218,
    218,
    218,
    218,
    218,
    218,
    218,
    218,
    218,
    218,
    218,
    218,
    218,
    218,
    218,
    218,
    218,
    218,
    218,
    218,
    218,
    218,
    218,
    218,
    218,
    218,
    218,
    218,
    218,
    218,
    218,
    218,
    218,
    218,
    218,
    218,
    218,
    218,
    218,
    218,
    218,
    218,
    218,
    218,
    218,
    218,
    218,
    218,
    218,
    218,
    218,
    218,
    218,
    218,
    218,
    218,
    218,
    218,
    218,
    218,
    218,
    218,
    218,
    218,
    218,
    218,
    218,
    218,
    218,
    218,
    218,
    218,
    218,
    218,
    218,
    218,
    218,
    218,
    218,
    218,
    218,
    218,
    218,
    218,
    218,
    218,
    218,
    218,
    218,
    218,
    218,
    218,
    218,
    218,
    218,
    218,
    218,
    218,
    218,
    218,
    218,
    218,
    218,
    218,
    218,
    218,
    218,
    218,
    218,
    218,
    218,
    218,
    218,
    218,
    218,
    218,
    218,
    218,
    218,
    218,
    218,
    218,
    218,
    218,
    218,
    218,
    218,
    218,
    218,
    218,
    218,
    218,
    218,
    218,
    218,
    218,
    218,
    218,
    218,
    218,
    218,
    218,
    218,
    218,
    218,
    218,
    218,
    218,
    218,
    218,
    218,
    218,
    218,
    218,
    218,
    218,
    218,
    218,
    218,
    218,
    218,
    218,
    218,
    218,
    218,
    218,
    218,
    218,
    218,
    218,
    218,
    218,
    218,
    218,
    218,
    218,
    218,
    218,
    218,
    218,
    218,
    218,
    218,
    218,
    218,
    218,
    218,
    218,
    218,
    218,
    218,
    218,
    218,
    218,
    218,
    218,
    218,
    218,
    218,
    218,
    218,
    218,
    218,
    218,
    218,
    218,
    218,
    218,
    218,
    218,
    218,
    218,
    218,
    218,
    218,
    218,
    218,
    218,
    218,
    218,
    218,
    218,
    218,
    218,
    218,
    218,
    218,
    218,
    218,
    218,
    218
   ]
  },
  {
   "name": "furniture",
   "type": "tilelayer",
   "visible": true,
   "opacity": 1,
   "x": 0,
   "y": 0,
   "width": 94,
   "height": 123,
   "data": [
    0,
    0,
    0,
    0,
    0,
    0,
    0,
    0,
    0,
    0,
    0,
    0,
    0,
    0,
    0,
    0,
    0,
    0,
    0,
    0,
    0,
    0,
    0,
    0,
    0,
    0,
    0,
    0,
    0,
    0,
    0,
    0,
    0,
    0,
    0,
    0,
    0,
    0,
    0,
    0,
    0,
    0,
    0,
    0,
    0,
    0,
    0,
    0,
    0,
    0,
    0,
    0,
    0,
    0,
    0,
    0,
    0,
    0,
    0,
    0,
    0,
    0,
    0,
    0,
    0,
    0,
    0,
    0,
    0,
    0,
    0,
    0,
    0,
    0,
    0,
    0,
    0,
    0,
    0,
    0,
    0,
    0,
    0,
    0,
    0,
    0,
    0,
    0,
    0,
    0,
    0,
    0,
    0,
    0,
    0,
    0,
    0,
    0,
    0,
    0,
    0,
    0,
    0,
    0,
    0,
    0,
    0,
    0,
    0,
    0,
    0,
    0,
    0,
    0,
    0,
    0,
    0,
    0,
    0,
    0,
    0,
    0,
    0,
    0,
    0,
    0,
    0,
    0,
    0,
    0,
    0,
    0,
    0,
    0,
    0,
    0,
    0,
    0,
    0,
    0,
    0,
    0,
    0,
    0,
    0,
    0,
    0,
    0,
    0,
    0,
    0,
    0,
    0,
    0,
    0,
    0,
    0,
    0,
    0,
    0,
    0,
    0,
    0,
    0,
    0,
    0,
    0,
    0,
    0,
    0,
    0,
    0,
    0,
    0,
    0,
    0,
    0,
    0,
    0,
    0,
    0,
    0,
    0,
    0,
    0,
    0,
    0,
    0,
    0,
    0,
    0,
    0,
    0,
    0,
    0,
    0,
    0,
    0,
    0,
    0,
    0,
    0,
    0,
    0,
    0,
    0,
    0,
    0,
    0,
    0,
    0,
    0,
    0,
    0,
    0,
    0,
    0,
    0,
    0,
    0,
    0,
    0,
    0,
    0,
    0,
    0,
    0,
    0,
    0,
    0,
    0,
    0,
    0,
    0,
    0,
    0,
    0,
    0,
    0,
    0,
    0,
    0,
    0,
    0,
    0,
    0,
    0,
    0,
    0,
    0,
    0,
    0,
    0,
    0,
    0,
    0,
    0,
    0,
    0,
    0,
    0,
    0,
    0,
    0,
    0,
    0,
    0,
    0,
    0,
    0,
    0,
    0,
    0,
    0,
    0,
    0,
    0,
    0,
    0,
    0,
    0,
    0,
    0,
    0,
    0,
    0,
    0,
    0,
    0,
    0,
    0,
    0,
    0,
    0,
    0,
    0,
    0,
    0,
    0,
    0,
    0,
    0,
    0,
    0,
    0,
    0,
    0,
    0,
    0,
    0,
    0,
    0,
    0,
    0,
    0,
    0,
    0,
    0,
    0,
    0,
    0,
    0,
    0,
    0,
    0,
    0,
    0,
    0,
    0,
    0,
    0,
    0,
    0,
    0,
    0,
    0,
    0,
    0,
    0,
    0,
    0,
    0,
    0,
    0,
    0,
    0,
    0,
    0,
    0,
    0,
    0,
    0,
    0,
    0,
    0,
    0,
    0,
    0,
    0,
    0,
    0,
    0,
    0,
    0,
    0,
    0,
    0,
    0,
    0,
    0,
    0,
    0,
    0,
    0,
    0,
    0,
    0,
    0,
    0,
    0,
    0,
    0,
    0,
    0,
    0,
    0,
    0,
    0,
    0,
    0,
    0,
    0,
    0,
    0,
    0,
    0,
    0,
    0,
    0,
    0,
    0,
    0,
    0,
    0,
    0,
    0,
    0,
    0,
    0,
    0,
    0,
    0,
    0,
    0,
    0,
    0,
    0,
    0,
    0,
    0,
    0,
    0,
    0,
    0,
    0,
    0,
    0,
    0,
    0,
    0,
    0,
    0,
    0,
    0,
    0,
    0,
    0,
    0,
    0,
    0,
    0,
    0,
    0,
    0,
    0,
    0,
    0,
    0,
    0,
    0,
    0,
    0,
    0,
    0,
    0,
    0,
    0,
    0,
    0,
    0,
    0,
    0,
    0,
    0,
    0,
    0,
    0,
    0,
    0,
    0,
    0,
    0,
    0,
    0,
    0,
    0,
    0,
    0,
    0,
    0,
    0,
    0,
    0,
    0,
    0,
    0,
    0,
    0,
    0,
    0,
    0,
    0,
    0,
    0,
    0,
    0,
    0,
    0,
    0,
    0,
    0,
    0,
    0,
    0,
    0,
    0,
    0,
    0,
    0,
    0,
    0,
    0,
    0,
    0,
    0,
    0,
    0,
    0,
    0,
    0,
    0,
    0,
    0,
    0,
    0,
    0,
    0,
    0,
    0,
    0,
    0,
    0,
    0,
    0,
    0,
    0,
    0,
    0,
    0,
    0,
    0,
    0,
    0,
    0,
    0,
    0,
    0,
    0,
    0,
    0,
    0,
    0,
    0,
    0,
    0,
    0,
    0,
    0,
    0,
    0,
    0,
    0,
    0,
    0,
    0,
    0,
    0,
    0,
    0,
    0,
    0,
    0,
    0,
    0,
    0,
    0,
    0,
    0,
    0,
    0,
    0,
    0,
    0,
    0,
    0,
    0,
    0,
    0,
    0,
    0,
    0,
    0,
    0,
    0,
    0,
    0,
    0,
    0,
    0,
    0,
    0,
    0,
    0,
    0,
    0,
    0,
    0,
    0,
    0,
    0,
    0,
    0,
    0,
    0,
    0,
    0,
    0,
    0,
    0,
    0,
    0,
    0,
    0,
    0,
    0,
    0,
    0,
    0,
    0,
    0,
    0,
    0,
    0,
    0,
    0,
    0,
    0,
    0,
    0,
    0,
    0,
    0,
    0,
    0,
    0,
    0,
    0,
    0,
    0,
    0,
    0,
    0,
    0,
    0,
    0,
    0,
    0,
    0,
    0,
    0,
    0,
    0,
    0,
    0,
    0,
    0,
    0,
    0,
    0,
    0,
    0,
    0,
    0,
    0,
    0,
    0,
    0,
    0,
    0,
    0,
    0,
    0,
    0,
    0,
    0,
    0,
    0,
    0,
    0,
    0,
    0,
    1306,
    1306,
    0,
    0,
    0,
    0,
    0,
    0,
    0,
    0,
    0,
    0,
    0,
    0,
    0,
    0,
    0,
    0,
    0,
    0,
    0,
    0,
    0,
    0,
    0,
    0,
    1306,
    1306,
    0,
    0,
    0,
    0,
    0,
    0,
    0,
    0,
    0,
    0,
    0,
    0,
    0,
    0,
    0,
    0,
    0,
    0,
    0,
    0,
    0,
    0,
    0,
    0,
    0,
    0,
    0,
    0,
    0,
    0,
    0,
    0,
    0,
    0,
    0,
    0,
    0,
    0,
    0,
    0,
    0,
    0,
    0,
    0,
    0,
    0,
    0,
    0,
    0,
    0,
    0,
    0,
    0,
    0,
    0,
    0,
    0,
    0,
    0,
    0,
    0,
    0,
    0,
    0,
    1341,
    1326,
    1327,
    1326,
    1327,
    1341,
    0,
    0,
    0,
    0,
    0,
    0,
    0,
    0,
    0,
    0,
    0,
    0,
    0,
    0,
    0,
    0,
    0,
    0,
    0,
    0,
    1341,
    1326,
    1327,
    1326,
    1327,
    1341,
    0,
    0,
    0,
    0,
    0,
    0,
    0,
    0,
    0,
    0,
    0,
    0,
    0,
    0,
    0,
    0,
    0,
    0,
    0,
    0,
    0,
    0,
    0,
    0,
    0,
    0,
    0,
    0,
    0,
    0,
    0,
    0,
    0,
    0,
    0,
    0,
    0,
    0,
    0,
    0,
    0,
    0,
    0,
    0,
    0,
    0,
    0,
    0,
    0,
    0,
    0,
    0,
    0,
    0,
    0,
    0,
    0,
    0,
    0,
    0,
    0,
    0,
    0,
    0,
    0,
    0,
    0,
    0,
    0,
    0,
    0,
    0,
    0,
    0,
    0,
    0,
    0,
    0,
    0,
    0,
    0,
    0,
    0,
    0,
    0,
    0,
    0,
    0,
    0,
    0,
    0,
    0,
    0,
    0,
    0,
    0,
    0,
    0,
    0,
    0,
    0,
    0,
    0,
    0,
    0,
    0,
    0,
    0,
    0,
    0,
    0,
    0,
    0,
    0,
    0,
    0,
    0,
    0,
    0,
    0,
    0,
    0,
    0,
    0,
    0,
    0,
    0,
    0,
    0,
    0,
    0,
    0,
    0,
    0,
    0,
    0,
    0,
    0,
    0,
    0,
    0,
    0,
    0,
    0,
    0,
    0,
    0,
    0,
    0,
    0,
    0,
    0,
    0,
    0,
    0,
    0,
    0,
    0,
    0,
    0,
    0,
    0,
    0,
    0,
    0,
    0,
    0,
    0,
    0,
    0,
    0,
    0,
    0,
    0,
    0,
    0,
    0,
    0,
    0,
    0,
    0,
    0,
    0,
    0,
    0,
    0,
    0,
    0,
    0,
    0,
    0,
    0,
    0,
    0,
    0,
    0,
    0,
    0,
    0,
    0,
    0,
    0,
    0,
    0,
    0,
    0,
    0,
    0,
    0,
    0,
    0,
    0,
    0,
    0,
    0,
    0,
    0,
    0,
    0,
    0,
    0,
    0,
    0,
    0,
    0,
    0,
    0,
    0,
    0,
    0,
    0,
    0,
    0,
    0,
    0,
    0,
    0,
    0,
    0,
    0,
    0,
    0,
    0,
    0,
    0,
    0,
    0,
    0,
    0,
    0,
    0,
    0,
    0,
    0,
    0,
    0,
    0,
    0,
    0,
    0,
    0,
    0,
    0,
    0,
    0,
    0,
    0,
    0,
    0,
    0,
    0,
    0,
    0,
    0,
    0,
    0,
    0,
    0,
    0,
    0,
    0,
    0,
    0,
    0,
    0,
    0,
    0,
    0,
    0,
    0,
    0,
    0,
    0,
    0,
    0,
    0,
    0,
    0,
    0,
    0,
    0,
    0,
    0,
    0,
    0,
    0,
    0,
    0,
    0,
    0,
    0,
    0,
    0,
    0,
    0,
    0,
    0,
    0,
    0,
    0,
    0,
    0,
    0,
    0,
    0,
    0,
    0,
    0,
    0,
    0,
    0,
    0,
    0,
    0,
    0,
    0,
    0,
    0,
    0,
    0,
    0,
    0,
    0,
    0,
    0,
    0,
    0,
    0,
    0,
    0,
    0,
    0,
    0,
    0,
    0,
    0,
    0,
    0,
    0,
    0,
    0,
    0,
    0,
    0,
    0,
    0,
    0,
    0,
    0,
    0,
    0,
    0,
    0,
    0,
    0,
    0,
    0,
    0,
    0,
    0,
    0,
    0,
    0,
    0,
    0,
    0,
    0,
    0,
    0,
    0,
    0,
    0,
    0,
    0,
    0,
    0,
    0,
    0,
    0,
    0,
    0,
    0,
    0,
    0,
    0,
    0,
    0,
    0,
    0,
    0,
    0,
    0,
    0,
    0,
    0,
    0,
    0,
    0,
    0,
    0,
    0,
    0,
    0,
    0,
    0,
    0,
    0,
    0,
    0,
    0,
    0,
    0,
    0,
    0,
    0,
    0,
    0,
    0,
    0,
    0,
    0,
    0,
    0,
    0,
    0,
    0,
    0,
    0,
    0,
    0,
    0,
    0,
    0,
    0,
    0,
    0,
    0,
    0,
    0,
    0,
    0,
    0,
    0,
    0,
    0,
    0,
    0,
    0,
    0,
    0,
    0,
    0,
    0,
    0,
    0,
    0,
    0,
    0,
    0,
    0,
    0,
    0,
    0,
    0,
    0,
    0,
    0,
    0,
    0,
    0,
    0,
    0,
    0,
    0,
    0,
    0,
    0,
    0,
    0,
    0,
    0,
    0,
    0,
    0,
    0,
    0,
    0,
    0,
    0,
    0,
    0,
    0,
    0,
    0,
    0,
    0,
    0,
    0,
    0,
    0,
    0,
    0,
    0,
    0,
    0,
    0,
    0,
    0,
    0,
    0,
    0,
    0,
    0,
    0,
    0,
    0,
    0,
    0,
    0,
    0,
    0,
    0,
    0,
    0,
    0,
    0,
    0,
    0,
    0,
    0,
    0,
    0,
    0,
    0,
    0,
    0,
    0,
    0,
    0,
    0,
    0,
    0,
    0,
    0,
    0,
    0,
    0,
    0,
    0,
    0,
    0,
    0,
    0,
    0,
    0,
    0,
    0,
    0,
    0,
    0,
    0,
    0,
    0,
    0,
    0,
    0,
    0,
    0,
    0,
    0,
    0,
    0,
    0,
    0,
    0,
    0,
    0,
    0,
    0,
    0,
    0,
    0,
    0,
    0,
    1373,
    1374,
    0,
    0,
    0,
    0,
    0,
    0,
    0,
    0,
    0,
    1373,
    1374,
    0,
    0,
    0,
    0,
    0,
    0,
    0,
    0,
    0,
    1373,
    1374,
    0,
    0,
    0,
    0,
    0,
    0,
    0,
    0,
    0,
    1373,
    1374,
    0,
    0,
    0,
    0,
    0,
    0,
    0,
    0,
    0,
    1373,
    1374,
    0,
    0,
    0,
    0,
    0,
    0,
    0,
    0,
    0,
    1373,
    1374,
    0,
    0,
    0,
    0,
    0,
    0,
    0,
    0,
    0,
    1373,
    1374,
    0,
    0,
    0,
    0,
    0,
    0,
    0,
    0,
    0,
    1373,
    1374,
    0,
    0,
    0,
    0,
    0,
    0,
    0,
    0,
    0,
    0,
    0,
    0,
    1306,
    0,
    0,
    1389,
    1390,
    0,
    0,
    0,
    0,
    0,
    0,
    1306,
    0,
    0,
    1389,
    1390,
    0,
    0,
    0,
    0,
    0,
    0,
    1306,
    0,
    0,
    1389,
    1390,
    0,
    0,
    0,
    0,
    0,
    0,
    1306,
    0,
    0,
    1389,
    1390,
    0,
    0,
    0,
    0,
    0,
    0,
    1306,
    0,
    0,
    1389,
    1390,
    0,
    0,
    0,
    0,
    0,
    0,
    1306,
    0,
    0,
    1389,
    1390,
    0,
    0,
    0,
    0,
    0,
    0,
    1306,
    0,
    0,
    1389,
    1390,
    0,
    0,
    0,
    0,
    0,
    0,
    1306,
    0,
    0,
    1389,
    1390,
    0,
    0,
    0,
    0,
    0,
    0,
    0,
    0,
    0,
    0,
    0,
    0,
    0,
    0,
    0,
    0,
    0,
    0,
    0,
    0,
    0,
    0,
    0,
    0,
    0,
    0,
    0,
    0,
    0,
    0,
    0,
    0,
    0,
    0,
    0,
    0,
    0,
    0,
    0,
    0,
    0,
    0,
    0,
    0,
    0,
    0,
    0,
    0,
    0,
    0,
    0,
    0,
    0,
    0,
    0,
    0,
    0,
    0,
    0,
    0,
    0,
    0,
    0,
    0,
    0,
    0,
    0,
    0,
    0,
    0,
    0,
    0,
    0,
    0,
    0,
    0,
    0,
    0,
    0,
    0,
    0,
    0,
    0,
    0,
    0,
    0,
    0,
    0,
    0,
    0,
    0,
    0,
    0,
    0,
    0,
    0,
    0,
    0,
    0,
    0,
    0,
    0,
    0,
    0,
    0,
    1412,
    1413,
    0,
    0,
    0,
    0,
    0,
    0,
    0,
    0,
    0,
    1412,
    1413,
    0,
    0,
    0,
    0,
    0,
    0,
    0,
    0,
    0,
    1412,
    1413,
    0,
    0,
    0,
    0,
    0,
    0,
    0,
    0,
    0,
    1412,
    1413,
    0,
    0,
    0,
    0,
    0,
    0,
    0,
    0,
    0,
    1412,
    1413,
    0,
    0,
    0,
    0,
    0,
    0,
    0,
    0,
    0,
    1412,
    1413,
    0,
    0,
    0,
    0,
    0,
    0,
    0,
    0,
    0,
    1412,
    1413,
    0,
    0,
    0,
    0,
    0,
    0,
    0,
    0,
    0,
    1412,
    1413,
    0,
    0,
    0,
    0,
    0,
    0,
    0,
    0,
    0,
    0,
    0,
    0,
    0,
    0,
    0,
    0,
    0,
    0,
    1346,
    0,
    1350,
    0,
    0,
    0,
    0,
    0,
    0,
    0,
    0,
    1346,
    0,
    1350,
    0,
    0,
    0,
    0,
    0,
    0,
    0,
    0,
    1346,
    0,
    1350,
    0,
    0,
    0,
    0,
    0,
    0,
    0,
    0,
    1346,
    0,
    1350,
    0,
    0,
    0,
    0,
    0,
    0,
    0,
    0,
    1346,
    0,
    1350,
    0,
    0,
    0,
    0,
    0,
    0,
    0,
    0,
    1346,
    0,
    1350,
    0,
    0,
    0,
    0,
    0,
    0,
    0,
    0,
    1346,
    0,
    1350,
    0,
    0,
    0,
    0,
    0,
    0,
    0,
    0,
    1346,
    0,
    1350,
    0,
    0,
    0,
    0,
    0,
    0,
    0,
    0,
    0,
    0,
    0,
    1326,
    1327,
    0,
    0,
    0,
    0,
    0,
    0,
    0,
    0,
    0,
    1326,
    1327,
    0,
    0,
    0,
    0,
    0,
    0,
    0,
    0,
    0,
    1326,
    1327,
    0,
    0,
    0,
    0,
    0,
    0,
    0,
    0,
    0,
    1326,
    1327,
    0,
    0,
    0,
    0,
    0,
    0,
    0,
    0,
    0,
    1326,
    1327,
    0,
    0,
    0,
    0,
    0,
    0,
    0,
    0,
    0,
    1326,
    1327,
    0,
    0,
    0,
    0,
    0,
    0,
    0,
    0,
    0,
    1326,
    1327,
    0,
    0,
    0,
    0,
    0,
    0,
    0,
    0,
    0,
    1326,
    1327,
    0,
    0,
    0,
    0,
    0,
    0,
    0,
    0,
    0,
    0,
    0,
    0,
    0,
    0,
    0,
    0,
    0,
    0,
    0,
    0,
    1341,
    0,
    0,
    0,
    0,
    0,
    0,
    0,
    0,
    0,
    0,
    1341,
    0,
    0,
    0,
    0,
    0,
    0,
    0,
    0,
    0,
    0,
    1341,
    0,
    0,
    0,
    0,
    0,
    0,
    0,
    0,
    0,
    0,
    1341,
    0,
    0,
    0,
    0,
    0,
    0,
    0,
    0,
    0,
    0,
    1341,
    0,
    0,
    0,
    0,
    0,
    0,
    0,
    0,
    0,
    0,
    1341,
    0,
    0,
    0,
    0,
    0,
    0,
    0,
    0,
    0,
    0,
    1341,
    0,
    0,
    0,
    0,
    0,
    0,
    0,
    0,
    0,
    0,
    1341,
    0,
    0,
    0,
    0,
    0,
    0,
    0,
    0,
    0,
    0,
    0,
    0,
    0,
    0,
    0,
    0,
    0,
    0,
    0,
    0,
    0,
    0,
    0,
    0,
    0,
    0,
    0,
    0,
    0,
    0,
    0,
    0,
    0,
    0,
    0,
    0,
    0,
    0,
    0,
    0,
    0,
    0,
    0,
    0,
    0,
    0,
    0,
    0,
    0,
    0,
    0,
    0,
    0,
    0,
    0,
    0,
    0,
    0,
    0,
    0,
    0,
    0,
    0,
    0,
    0,
    0,
    0,
    0,
    0,
    0,
    0,
    0,
    0,
    0,
    0,
    0,
    0,
    0,
    0,
    0,
    0,
    0,
    0,
    0,
    0,
    0,
    0,
    0,
    0,
    0,
    0,
    0,
    0,
    0,
    0,
    0,
    0,
    0,
    0,
    0,
    0,
    0,
    0,
    0,
    0,
    0,
    0,
    0,
    0,
    0,
    0,
    0,
    0,
    0,
    0,
    0,
    0,
    0,
    0,
    0,
    0,
    0,
    0,
    0,
    0,
    0,
    0,
    0,
    0,
    0,
    0,
    0,
    0,
    0,
    0,
    0,
    0,
    0,
    0,
    0,
    0,
    0,
    0,
    0,
    0,
    0,
    0,
    0,
    0,
    0,
    0,
    0,
    0,
    0,
    0,
    0,
    0,
    0,
    0,
    0,
    0,
    0,
    0,
    0,
    0,
    0,
    0,
    0,
    0,
    0,
    0,
    0,
    0,
    0,
    0,
    0,
    0,
    0,
    0,
    0,
    0,
    0,
    0,
    0,
    0,
    0,
    0,
    0,
    0,
    0,
    0,
    0,
    0,
    0,
    0,
    0,
    0,
    0,
    0,
    0,
    0,
    0,
    0,
    0,
    0,
    0,
    0,
    0,
    0,
    0,
    0,
    0,
    0,
    0,
    0,
    0,
    0,
    0,
    0,
    0,
    0,
    0,
    0,
    0,
    0,
    0,
    0,
    0,
    0,
    0,
    0,
    0,
    0,
    0,
    0,
    0,
    0,
    0,
    0,
    0,
    0,
    0,
    0,
    0,
    0,
    0,
    0,
    0,
    0,
    0,
    0,
    0,
    0,
    0,
    0,
    0,
    0,
    0,
    0,
    0,
    0,
    0,
    0,
    0,
    0,
    0,
    0,
    0,
    0,
    0,
    0,
    0,
    0,
    0,
    0,
    0,
    0,
    0,
    0,
    0,
    0,
    0,
    0,
    0,
    0,
    0,
    0,
    0,
    0,
    0,
    0,
    0,
    0,
    0,
    0,
    0,
    0,
    0,
    0,
    0,
    0,
    0,
    0,
    0,
    0,
    0,
    0,
    0,
    0,
    0,
    0,
    0,
    0,
    0,
    0,
    0,
    0,
    0,
    0,
    0,
    0,
    0,
    0,
    0,
    0,
    0,
    0,
    0,
    0,
    0,
    0,
    0,
    0,
    0,
    0,
    0,
    0,
    0,
    0,
    0,
    0,
    0,
    0,
    0,
    0,
    0,
    0,
    0,
    0,
    0,
    0,
    0,
    0,
    0,
    0,
    0,
    0,
    0,
    0,
    0,
    0,
    0,
    0,
    0,
    0,
    0,
    0,
    0,
    0,
    0,
    0,
    0,
    0,
    0,
    0,
    0,
    0,
    0,
    0,
    0,
    0,
    0,
    0,
    0,
    0,
    0,
    0,
    0,
    0,
    0,
    0,
    0,
    0,
    0,
    0,
    0,
    0,
    0,
    0,
    0,
    0,
    0,
    0,
    0,
    0,
    0,
    0,
    0,
    0,
    0,
    0,
    0,
    0,
    0,
    0,
    0,
    0,
    0,
    0,
    0,
    0,
    0,
    0,
    0,
    0,
    0,
    0,
    0,
    0,
    0,
    0,
    0,
    0,
    0,
    0,
    0,
    0,
    0,
    0,
    0,
    0,
    0,
    0,
    0,
    0,
    0,
    0,
    0,
    0,
    0,
    0,
    0,
    0,
    0,
    0,
    0,
    0,
    0,
    0,
    0,
    0,
    0,
    0,
    0,
    0,
    0,
    0,
    0,
    0,
    0,
    0,
    0,
    0,
    0,
    0,
    0,
    0,
    0,
    0,
    0,
    0,
    0,
    0,
    0,
    0,
    1373,
    1374,
    0,
    0,
    0,
    0,
    0,
    0,
    0,
    0,
    0,
    0,
    0,
    0,
    0,
    0,
    0,
    0,
    0,
    0,
    0,
    0,
    0,
    0,
    0,
    0,
    0,
    0,
    0,
    0,
    0,
    0,
    0,
    0,
    0,
    0,
    0,
    0,
    0,
    0,
    0,
    0,
    0,
    0,
    0,
    0,
    0,
    0,
    0,
    0,
    0,
    0,
    0,
    0,
    0,
    0,
    0,
    0,
    0,
    0,
    0,
    0,
    0,
    0,
    0,
    0,
    0,
    0,
    0,
    0,
    0,
    0,
    0,
    0,
    0,
    0,
    0,
    1373,
    1374,
    0,
    0,
    0,
    0,
    0,
    0,
    0,
    0,
    0,
    0,
    0,
    0,
    1306,
    0,
    0,
    1389,
    1390,
    0,
    0,
    0,
    0,
    0,
    0,
    0,
    0,
    0,
    0,
    0,
    0,
    0,
    0,
    0,
    0,
    0,
    0,
    0,
    0,
    0,
    0,
    0,
    0,
    0,
    0,
    0,
    0,
    0,
    0,
    0,
    0,
    0,
    0,
    0,
    0,
    0,
    0,
    0,
    0,
    0,
    0,
    0,
    0,
    0,
    0,
    0,
    0,
    0,
    0,
    0,
    0,
    0,
    0,
    0,
    0,
    0,
    0,
    0,
    0,
    0,
    0,
    0,
    0,
    0,
    0,
    0,
    0,
    0,
    0,
    0,
    0,
    1306,
    0,
    0,
    1389,
    1390,
    0,
    0,
    0,
    0,
    0,
    0,
    0,
    0,
    0,
    0,
    0,
    0,
    0,
    0,
    0,
    0,
    0,
    0,
    0,
    0,
    0,
    0,
    0,
    0,
    0,
    0,
    0,
    0,
    0,
    0,
    0,
    0,
    0,
    0,
    0,
    0,
    0,
    0,
    0,
    0,
    0,
    0,
    0,
    0,
    0,
    0,
    0,
    0,
    0,
    0,
    0,
    0,
    0,
    0,
    0,
    0,
    0,
    0,
    0,
    0,
    0,
    0,
    0,
    0,
    0,
    0,
    0,
    0,
    0,
    0,
    0,
    0,
    0,
    0,
    0,
    0,
    0,
    0,
    0,
    0,
    0,
    0,
    0,
    0,
    0,
    0,
    0,
    0,
    0,
    0,
    0,
    0,
    0,
    0,
    0,
    0,
    0,
    0,
    0,
    0,
    0,
    0,
    0,
    0,
    0,
    1412,
    1413,
    0,
    0,
    0,
    0,
    0,
    0,
    0,
    0,
    0,
    0,
    0,
    0,
    0,
    0,
    0,
    0,
    0,
    0,
    0,
    0,
    0,
    0,
    0,
    0,
    0,
    0,
    0,
    0,
    0,
    0,
    0,
    0,
    0,
    0,
    0,
    0,
    0,
    0,
    0,
    0,
    0,
    0,
    0,
    0,
    0,
    0,
    0,
    0,
    0,
    0,
    0,
    0,
    0,
    0,
    0,
    0,
    0,
    0,
    0,
    0,
    0,
    0,
    0,
    0,
    0,
    0,
    0,
    0,
    0,
    0,
    0,
    0,
    0,
    0,
    0,
    1412,
    1413,
    0,
    0,
    0,
    0,
    0,
    0,
    0,
    0,
    0,
    0,
    0,
    0,
    0,
    0,
    0,
    0,
    0,
    0,
    1346,
    0,
    1350,
    0,
    0,
    0,
    0,
    0,
    0,
    0,
    0,
    0,
    0,
    0,
    0,
    0,
    0,
    0,
    0,
    0,
    0,
    0,
    0,
    0,
    0,
    0,
    0,
    0,
    0,
    0,
    0,
    0,
    0,
    0,
    0,
    0,
    0,
    0,
    0,
    0,
    0,
    0,
    0,
    0,
    0,
    0,
    0,
    0,
    0,
    0,
    0,
    0,
    0,
    0,
    0,
    0,
    0,
    0,
    0,
    0,
    0,
    0,
    0,
    0,
    0,
    0,
    0,
    0,
    0,
    0,
    0,
    0,
    0,
    0,
    0,
    0,
    0,
    1346,
    0,
    1350,
    0,
    0,
    0,
    0,
    0,
    0,
    0,
    0,
    0,
    0,
    0,
    1326,
    1327,
    0,
    0,
    0,
    0,
    0,
    0,
    0,
    0,
    0,
    0,
    0,
    0,
    0,
    0,
    0,
    0,
    0,
    0,
    0,
    0,
    0,
    0,
    0,
    0,
    0,
    0,
    0,
    0,
    0,
    0,
    0,
    0,
    0,
    0,
    0,
    0,
    0,
    0,
    0,
    0,
    0,
    0,
    0,
    0,
    0,
    0,
    0,
    0,
    0,
    0,
    0,
    0,
    0,
    0,
    0,
    0,
    0,
    0,
    0,
    0,
    0,
    0,
    0,
    0,
    0,
    0,
    0,
    0,
    0,
    0,
    0,
    0,
    0,
    0,
    0,
    1326,
    1327,
    0,
    0,
    0,
    0,
    0,
    0,
    0,
    0,
    0,
    0,
    0,
    0,
    0,
    0,
    0,
    0,
    0,
    0,
    0,
    0,
    1341,
    0,
    0,
    0,
    0,
    0,
    0,
    0,
    0,
    0,
    0,
    0,
    0,
    0,
    0,
    0,
    0,
    0,
    0,
    0,
    0,
    0,
    0,
    0,
    0,
    0,
    0,
    0,
    0,
    0,
    0,
    0,
    0,
    0,
    0,
    0,
    0,
    0,
    0,
    0,
    0,
    0,
    0,
    0,
    0,
    0,
    0,
    0,
    0,
    0,
    0,
    0,
    0,
    0,
    0,
    0,
    0,
    0,
    0,
    0,
    0,
    0,
    0,
    0,
    0,
    0,
    0,
    0,
    0,
    0,
    0,
    0,
    0,
    0,
    0,
    0,
    0,
    1341,
    0,
    0,
    0,
    0,
    0,
    0,
    0,
    0,
    0,
    0,
    0,
    0,
    0,
    0,
    0,
    0,
    0,
    0,
    0,
    0,
    0,
    0,
    0,
    0,
    0,
    0,
    0,
    0,
    0,
    0,
    0,
    0,
    0,
    0,
    0,
    0,
    0,
    0,
    0,
    0,
    0,
    0,
    0,
    0,
    0,
    0,
    0,
    0,
    0,
    0,
    0,
    0,
    0,
    0,
    0,
    0,
    0,
    0,
    0,
    0,
    0,
    0,
    0,
    0,
    0,
    0,
    0,
    0,
    0,
    0,
    0,
    0,
    0,
    0,
    0,
    0,
    0,
    0,
    0,
    0,
    0,
    0,
    0,
    0,
    0,
    0,
    0,
    0,
    0,
    0,
    0,
    0,
    0,
    0,
    0,
    0,
    0,
    0,
    0,
    0,
    0,
    0,
    0,
    0,
    0,
    0,
    0,
    0,
    0,
    0,
    0,
    0,
    0,
    0,
    0,
    0,
    0,
    0,
    0,
    0,
    0,
    0,
    0,
    0,
    0,
    0,
    0,
    0,
    0,
    0,
    0,
    0,
    0,
    0,
    0,
    0,
    0,
    0,
    0,
    0,
    0,
    0,
    0,
    0,
    0,
    0,
    0,
    0,
    0,
    0,
    0,
    0,
    0,
    0,
    0,
    0,
    0,
    0,
    0,
    0,
    0,
    0,
    0,
    0,
    0,
    0,
    0,
    0,
    0,
    0,
    0,
    0,
    0,
    0,
    0,
    0,
    0,
    0,
    0,
    0,
    0,
    0,
    0,
    0,
    0,
    0,
    0,
    0,
    0,
    0,
    0,
    0,
    0,
    0,
    0,
    0,
    0,
    0,
    0,
    0,
    0,
    0,
    0,
    0,
    0,
    0,
    0,
    0,
    0,
    0,
    0,
    0,
    0,
    0,
    0,
    0,
    0,
    0,
    0,
    0,
    0,
    0,
    0,
    0,
    0,
    0,
    0,
    0,
    0,
    0,
    0,
    0,
    0,
    0,
    0,
    0,
    0,
    0,
    0,
    0,
    0,
    0,
    0,
    0,
    0,
    0,
    0,
    0,
    0,
    0,
    0,
    0,
    0,
    0,
    0,
    0,
    0,
    0,
    0,
    0,
    0,
    0,
    0,
    0,
    0,
    0,
    0,
    0,
    0,
    0,
    0,
    0,
    0,
    0,
    0,
    0,
    0,
    0,
    0,
    0,
    0,
    0,
    0,
    0,
    0,
    0,
    0,
    0,
    0,
    0,
    0,
    0,
    0,
    0,
    0,
    0,
    0,
    0,
    0,
    0,
    0,
    0,
    0,
    0,
    0,
    0,
    0,
    0,
    0,
    0,
    0,
    0,
    0,
    0,
    0,
    0,
    0,
    0,
    0,
    0,
    0,
    0,
    0,
    0,
    0,
    0,
    0,
    0,
    0,
    0,
    0,
    0,
    0,
    0,
    0,
    0,
    0,
    0,
    0,
    0,
    0,
    0,
    0,
    0,
    0,
    0,
    0,
    0,
    0,
    0,
    0,
    0,
    0,
    0,
    0,
    0,
    0,
    0,
    0,
    0,
    0,
    0,
    0,
    0,
    0,
    0,
    0,
    0,
    0,
    0,
    0,
    0,
    0,
    0,
    0,
    0,
    0,
    0,
    0,
    0,
    0,
    0,
    0,
    0,
    0,
    0,
    0,
    0,
    0,
    0,
    0,
    0,
    0,
    0,
    0,
    0,
    0,
    0,
    0,
    0,
    0,
    0,
    0,
    0,
    0,
    0,
    0,
    0,
    0,
    0,
    0,
    0,
    0,
    0,
    0,
    0,
    0,
    0,
    0,
    0,
    0,
    0,
    0,
    0,
    0,
    0,
    0,
    0,
    0,
    0,
    0,
    0,
    0,
    0,
    0,
    0,
    0,
    0,
    0,
    0,
    0,
    0,
    0,
    0,
    0,
    0,
    0,
    0,
    0,
    0,
    0,
    0,
    0,
    0,
    0,
    0,
    0,
    0,
    0,
    0,
    0,
    0,
    0,
    0,
    0,
    0,
    0,
    0,
    0,
    0,
    0,
    0,
    0,
    0,
    0,
    0,
    0,
    0,
    0,
    0,
    0,
    0,
    0,
    0,
    0,
    1373,
    1374,
    0,
    0,
    0,
    0,
    0,
    0,
    0,
    0,
    0,
    0,
    0,
    0,
    0,
    0,
    0,
    0,
    0,
    0,
    0,
    0,
    0,
    0,
    0,
    0,
    0,
    0,
    0,
    0,
    0,
    0,
    0,
    0,
    0,
    0,
    0,
    0,
    0,
    0,
    0,
    0,
    0,
    0,
    0,
    0,
    0,
    0,
    0,
    0,
    0,
    0,
    0,
    0,
    0,
    0,
    0,
    0,
    0,
    0,
    0,
    0,
    0,
    0,
    0,
    0,
    0,
    0,
    0,
    0,
    0,
    0,
    0,
    0,
    0,
    0,
    0,
    1373,
    1374,
    0,
    0,
    0,
    0,
    0,
    0,
    0,
    0,
    0,
    0,
    0,
    0,
    1306,
    0,
    0,
    1389,
    1390,
    0,
    0,
    0,
    0,
    0,
    0,
    0,
    0,
    0,
    0,
    0,
    0,
    0,
    0,
    0,
    0,
    0,
    0,
    0,
    0,
    0,
    0,
    0,
    0,
    0,
    0,
    0,
    0,
    0,
    0,
    0,
    0,
    0,
    0,
    0,
    0,
    0,
    0,
    0,
    0,
    0,
    0,
    0,
    0,
    0,
    0,
    0,
    0,
    0,
    0,
    0,
    0,
    0,
    0,
    0,
    0,
    0,
    0,
    0,
    0,
    0,
    0,
    0,
    0,
    0,
    0,
    0,
    0,
    0,
    0,
    0,
    0,
    1306,
    0,
    0,
    1389,
    1390,
    0,
    0,
    0,
    0,
    0,
    0,
    0,
    0,
    0,
    0,
    0,
    0,
    0,
    0,
    0,
    0,
    0,
    0,
    0,
    0,
    0,
    0,
    0,
    0,
    0,
    0,
    0,
    0,
    0,
    0,
    0,
    0,
    0,
    0,
    0,
    0,
    0,
    0,
    0,
    0,
    0,
    0,
    0,
    0,
    0,
    0,
    0,
    0,
    0,
    0,
    0,
    0,
    0,
    0,
    0,
    0,
    0,
    0,
    0,
    0,
    0,
    0,
    0,
    0,
    0,
    0,
    0,
    0,
    0,
    0,
    0,
    0,
    0,
    0,
    0,
    0,
    0,
    0,
    0,
    0,
    0,
    0,
    0,
    0,
    0,
    0,
    0,
    0,
    0,
    0,
    0,
    0,
    0,
    0,
    0,
    0,
    0,
    0,
    0,
    0,
    0,
    0,
    0,
    0,
    0,
    1412,
    1413,
    0,
    0,
    0,
    0,
    0,
    0,
    0,
    0,
    0,
    0,
    0,
    0,
    0,
    0,
    0,
    0,
    0,
    0,
    0,
    0,
    0,
    0,
    0,
    0,
    0,
    0,
    0,
    0,
    0,
    0,
    0,
    0,
    0,
    0,
    0,
    0,
    0,
    0,
    0,
    0,
    0,
    0,
    0,
    0,
    0,
    0,
    0,
    0,
    0,
    0,
    0,
    0,
    0,
    0,
    0,
    0,
    0,
    0,
    0,
    0,
    0,
    0,
    0,
    0,
    0,
    0,
    0,
    0,
    0,
    0,
    0,
    0,
    0,
    0,
    0,
    1412,
    1413,
    0,
    0,
    0,
    0,
    0,
    0,
    0,
    0,
    0,
    0,
    0,
    0,
    0,
    0,
    0,
    0,
    0,
    0,
    1346,
    0,
    1350,
    0,
    0,
    0,
    0,
    0,
    0,
    0,
    0,
    0,
    0,
    0,
    0,
    0,
    0,
    0,
    0,
    0,
    0,
    0,
    0,
    0,
    0,
    0,
    0,
    0,
    0,
    0,
    0,
    0,
    0,
    0,
    0,
    0,
    0,
    0,
    0,
    0,
    0,
    0,
    0,
    0,
    0,
    0,
    0,
    0,
    0,
    0,
    0,
    0,
    0,
    0,
    0,
    0,
    0,
    0,
    0,
    0,
    0,
    0,
    0,
    0,
    0,
    0,
    0,
    0,
    0,
    0,
    0,
    0,
    0,
    0,
    0,
    0,
    0,
    1346,
    0,
    1350,
    0,
    0,
    0,
    0,
    0,
    0,
    0,
    0,
    0,
    0,
    0,
    1326,
    1327,
    0,
    0,
    0,
    0,
    0,
    0,
    0,
    0,
    0,
    0,
    0,
    0,
    0,
    0,
    0,
    0,
    0,
    0,
    0,
    0,
    0,
    0,
    0,
    0,
    0,
    0,
    0,
    0,
    0,
    0,
    0,
    0,
    0,
    0,
    0,
    0,
    0,
    0,
    0,
    0,
    0,
    0,
    0,
    0,
    0,
    0,
    0,
    0,
    0,
    0,
    0,
    0,
    0,
    0,
    0,
    0,
    0,
    0,
    0,
    0,
    0,
    0,
    0,
    0,
    0,
    0,
    0,
    0,
    0,
    0,
    0,
    0,
    0,
    0,
    0,
    1326,
    1327,
    0,
    0,
    0,
    0,
    0,
    0,
    0,
    0,
    0,
    0,
    0,
    0,
    0,
    0,
    0,
    0,
    0,
    0,
    0,
    0,
    1341,
    0,
    0,
    0,
    0,
    0,
    0,
    0,
    0,
    0,
    0,
    0,
    0,
    0,
    0,
    0,
    0,
    0,
    0,
    0,
    0,
    0,
    0,
    0,
    0,
    0,
    0,
    0,
    0,
    0,
    0,
    0,
    0,
    0,
    0,
    0,
    0,
    0,
    0,
    0,
    0,
    0,
    0,
    0,
    0,
    0,
    0,
    0,
    0,
    0,
    0,
    0,
    0,
    0,
    0,
    0,
    0,
    0,
    0,
    0,
    0,
    0,
    0,
    0,
    0,
    0,
    0,
    0,
    0,
    0,
    0,
    0,
    0,
    0,
    0,
    0,
    0,
    1341,
    0,
    0,
    0,
    0,
    0,
    0,
    0,
    0,
    0,
    0,
    0,
    0,
    0,
    0,
    0,
    0,
    0,
    0,
    0,
    0,
    0,
    0,
    0,
    0,
    0,
    0,
    0,
    0,
    0,
    0,
    0,
    0,
    0,
    0,
    0,
    0,
    0,
    0,
    0,
    0,
    0,
    0,
    0,
    0,
    0,
    0,
    0,
    0,
    0,
    0,
    0,
    0,
    0,
    0,
    0,
    0,
    0,
    0,
    0,
    0,
    0,
    0,
    0,
    0,
    0,
    0,
    0,
    0,
    0,
    0,
    0,
    0,
    0,
    0,
    0,
    0,
    0,
    0,
    0,
    0,
    0,
    0,
    0,
    0,
    0,
    0,
    0,
    0,
    0,
    0,
    0,
    0,
    0,
    0,
    0,
    0,
    0,
    0,
    0,
    0,
    0,
    0,
    0,
    0,
    0,
    0,
    0,
    0,
    0,
    0,
    0,
    0,
    0,
    0,
    0,
    0,
    0,
    0,
    0,
    0,
    0,
    0,
    0,
    0,
    0,
    0,
    0,
    0,
    0,
    0,
    0,
    0,
    0,
    0,
    0,
    0,
    0,
    0,
    0,
    0,
    0,
    0,
    0,
    0,
    0,
    0,
    0,
    0,
    0,
    0,
    0,
    0,
    0,
    0,
    0,
    0,
    0,
    0,
    0,
    0,
    0,
    0,
    0,
    0,
    0,
    0,
    0,
    0,
    0,
    0,
    0,
    0,
    0,
    0,
    0,
    0,
    0,
    0,
    0,
    0,
    0,
    0,
    0,
    0,
    0,
    0,
    0,
    0,
    0,
    0,
    0,
    0,
    0,
    0,
    0,
    0,
    0,
    0,
    0,
    0,
    0,
    0,
    0,
    0,
    0,
    0,
    0,
    0,
    0,
    0,
    0,
    0,
    0,
    0,
    0,
    0,
    0,
    0,
    0,
    0,
    0,
    0,
    0,
    0,
    0,
    0,
    0,
    0,
    0,
    0,
    0,
    0,
    0,
    0,
    0,
    0,
    0,
    0,
    0,
    0,
    0,
    0,
    0,
    0,
    0,
    0,
    0,
    0,
    0,
    0,
    0,
    0,
    0,
    0,
    0,
    0,
    0,
    0,
    0,
    0,
    0,
    0,
    0,
    0,
    0,
    0,
    0,
    0,
    0,
    0,
    0,
    0,
    0,
    0,
    0,
    0,
    0,
    0,
    0,
    0,
    0,
    0,
    0,
    0,
    0,
    0,
    0,
    0,
    0,
    0,
    0,
    0,
    0,
    0,
    0,
    0,
    0,
    0,
    0,
    0,
    0,
    0,
    0,
    0,
    0,
    0,
    0,
    0,
    0,
    0,
    0,
    0,
    0,
    0,
    0,
    0,
    0,
    0,
    0,
    0,
    0,
    0,
    0,
    0,
    0,
    0,
    0,
    0,
    0,
    0,
    0,
    0,
    0,
    0,
    0,
    0,
    0,
    0,
    0,
    0,
    0,
    0,
    0,
    0,
    0,
    0,
    0,
    0,
    0,
    0,
    0,
    0,
    0,
    0,
    0,
    0,
    0,
    0,
    0,
    0,
    0,
    0,
    0,
    0,
    0,
    0,
    0,
    0,
    0,
    0,
    0,
    0,
    0,
    0,
    0,
    0,
    0,
    0,
    0,
    0,
    0,
    0,
    0,
    0,
    0,
    0,
    0,
    0,
    0,
    0,
    0,
    0,
    0,
    0,
    0,
    0,
    0,
    0,
    0,
    0,
    0,
    0,
    0,
    0,
    0,
    0,
    0,
    0,
    0,
    0,
    0,
    0,
    0,
    0,
    0,
    0,
    0,
    0,
    0,
    0,
    0,
    0,
    0,
    0,
    0,
    0,
    0,
    0,
    0,
    0,
    0,
    0,
    0,
    0,
    0,
    0,
    0,
    0,
    0,
    0,
    0,
    0,
    0,
    0,
    0,
    0,
    0,
    0,
    0,
    0,
    0,
    0,
    0,
    0,
    0,
    0,
    0,
    0,
    0,
    0,
    0,
    0,
    0,
    0,
    0,
    0,
    0,
    0,
    0,
    0,
    0,
    0,
    0,
    0,
    0,
    0,
    0,
    0,
    0,
    0,
    0,
    0,
    0,
    0,
    0,
    1373,
    1374,
    0,
    0,
    0,
    0,
    0,
    0,
    0,
    0,
    0,
    0,
    0,
    0,
    0,
    0,
    0,
    0,
    0,
    0,
    0,
    0,
    0,
    0,
    0,
    0,
    0,
    0,
    0,
    0,
    0,
    0,
    0,
    0,
    0,
    0,
    0,
    0,
    0,
    0,
    0,
    0,
    0,
    0,
    0,
    0,
    0,
    0,
    0,
    0,
    0,
    0,
    0,
    0,
    0,
    0,
    0,
    0,
    0,
    0,
    0,
    0,
    0,
    0,
    0,
    0,
    0,
    0,
    0,
    0,
    0,
    0,
    0,
    0,
    0,
    0,
    0,
    1373,
    1374,
    0,
    0,
    0,
    0,
    0,
    0,
    0,
    0,
    0,
    0,
    0,
    0,
    1306,
    0,
    0,
    1389,
    1390,
    0,
    0,
    0,
    0,
    0,
    0,
    0,
    0,
    0,
    0,
    0,
    0,
    0,
    0,
    0,
    0,
    0,
    0,
    0,
    0,
    0,
    0,
    0,
    0,
    0,
    0,
    0,
    0,
    0,
    0,
    0,
    0,
    0,
    0,
    0,
    0,
    0,
    0,
    0,
    0,
    0,
    0,
    0,
    0,
    0,
    0,
    0,
    0,
    0,
    0,
    0,
    0,
    0,
    0,
    0,
    0,
    0,
    0,
    0,
    0,
    0,
    0,
    0,
    0,
    0,
    0,
    0,
    0,
    0,
    0,
    0,
    0,
    1306,
    0,
    0,
    1389,
    1390,
    0,
    0,
    0,
    0,
    0,
    0,
    0,
    0,
    0,
    0,
    0,
    0,
    0,
    0,
    0,
    0,
    0,
    0,
    0,
    0,
    0,
    0,
    0,
    0,
    0,
    0,
    0,
    0,
    0,
    0,
    0,
    0,
    0,
    0,
    0,
    0,
    0,
    0,
    0,
    0,
    0,
    0,
    0,
    0,
    0,
    0,
    0,
    0,
    0,
    0,
    0,
    0,
    0,
    0,
    0,
    0,
    0,
    0,
    0,
    0,
    0,
    0,
    0,
    0,
    0,
    0,
    0,
    0,
    0,
    0,
    0,
    0,
    0,
    0,
    0,
    0,
    0,
    0,
    0,
    0,
    0,
    0,
    0,
    0,
    0,
    0,
    0,
    0,
    0,
    0,
    0,
    0,
    0,
    0,
    0,
    0,
    0,
    0,
    0,
    0,
    0,
    0,
    0,
    0,
    0,
    1412,
    1413,
    0,
    0,
    0,
    0,
    0,
    0,
    0,
    0,
    0,
    0,
    0,
    0,
    0,
    0,
    0,
    0,
    0,
    0,
    0,
    0,
    0,
    0,
    0,
    0,
    0,
    0,
    0,
    0,
    0,
    0,
    0,
    0,
    0,
    0,
    0,
    0,
    0,
    0,
    0,
    0,
    0,
    0,
    0,
    0,
    0,
    0,
    0,
    0,
    0,
    0,
    0,
    0,
    0,
    0,
    0,
    0,
    0,
    0,
    0,
    0,
    0,
    0,
    0,
    0,
    0,
    0,
    0,
    0,
    0,
    0,
    0,
    0,
    0,
    0,
    0,
    1412,
    1413,
    0,
    0,
    0,
    0,
    0,
    0,
    0,
    0,
    0,
    0,
    0,
    0,
    0,
    0,
    0,
    0,
    0,
    0,
    1346,
    0,
    1350,
    0,
    0,
    0,
    0,
    0,
    0,
    0,
    0,
    0,
    0,
    0,
    0,
    0,
    0,
    0,
    0,
    0,
    0,
    0,
    0,
    0,
    0,
    0,
    0,
    0,
    0,
    0,
    0,
    0,
    0,
    0,
    0,
    0,
    0,
    0,
    0,
    0,
    0,
    0,
    0,
    0,
    0,
    0,
    0,
    0,
    0,
    0,
    0,
    0,
    0,
    0,
    0,
    0,
    0,
    0,
    0,
    0,
    0,
    0,
    0,
    0,
    0,
    0,
    0,
    0,
    0,
    0,
    0,
    0,
    0,
    0,
    0,
    0,
    0,
    1346,
    0,
    1350,
    0,
    0,
    0,
    0,
    0,
    0,
    0,
    0,
    0,
    0,
    0,
    1326,
    1327,
    0,
    0,
    0,
    0,
    0,
    0,
    0,
    0,
    0,
    0,
    0,
    0,
    0,
    0,
    0,
    0,
    0,
    0,
    0,
    0,
    0,
    0,
    0,
    0,
    0,
    0,
    0,
    0,
    0,
    0,
    0,
    0,
    0,
    0,
    0,
    0,
    0,
    0,
    0,
    0,
    0,
    0,
    0,
    0,
    0,
    0,
    0,
    0,
    0,
    0,
    0,
    0,
    0,
    0,
    0,
    0,
    0,
    0,
    0,
    0,
    0,
    0,
    0,
    0,
    0,
    0,
    0,
    0,
    0,
    0,
    0,
    0,
    0,
    0,
    0,
    1326,
    1327,
    0,
    0,
    0,
    0,
    0,
    0,
    0,
    0,
    0,
    0,
    0,
    0,
    0,
    0,
    0,
    0,
    0,
    0,
    0,
    0,
    1341,
    0,
    0,
    0,
    0,
    0,
    0,
    0,
    0,
    0,
    0,
    0,
    0,
    0,
    0,
    0,
    0,
    0,
    0,
    0,
    0,
    0,
    0,
    0,
    0,
    0,
    0,
    0,
    0,
    0,
    0,
    0,
    0,
    0,
    0,
    0,
    0,
    0,
    0,
    0,
    0,
    0,
    0,
    0,
    0,
    0,
    0,
    0,
    0,
    0,
    0,
    0,
    0,
    0,
    0,
    0,
    0,
    0,
    0,
    0,
    0,
    0,
    0,
    0,
    0,
    0,
    0,
    0,
    0,
    0,
    0,
    0,
    0,
    0,
    0,
    0,
    0,
    1341,
    0,
    0,
    0,
    0,
    0,
    0,
    0,
    0,
    0,
    0,
    0,
    0,
    0,
    0,
    0,
    0,
    0,
    0,
    0,
    0,
    0,
    0,
    0,
    0,
    0,
    0,
    0,
    0,
    0,
    0,
    0,
    0,
    0,
    0,
    0,
    0,
    0,
    0,
    0,
    0,
    0,
    0,
    0,
    0,
    0,
    0,
    0,
    0,
    0,
    0,
    0,
    0,
    0,
    0,
    0,
    0,
    0,
    0,
    0,
    0,
    0,
    0,
    0,
    0,
    0,
    0,
    0,
    0,
    0,
    0,
    0,
    0,
    0,
    0,
    0,
    0,
    0,
    0,
    0,
    0,
    0,
    0,
    0,
    0,
    0,
    0,
    0,
    0,
    0,
    0,
    0,
    0,
    0,
    0,
    0,
    0,
    0,
    0,
    0,
    0,
    0,
    0,
    0,
    0,
    0,
    0,
    0,
    0,
    0,
    0,
    0,
    0,
    0,
    0,
    0,
    0,
    0,
    0,
    0,
    0,
    0,
    0,
    0,
    0,
    0,
    0,
    0,
    0,
    0,
    0,
    0,
    0,
    0,
    0,
    0,
    0,
    0,
    0,
    0,
    0,
    0,
    0,
    0,
    0,
    0,
    0,
    0,
    0,
    0,
    0,
    0,
    0,
    0,
    0,
    0,
    0,
    0,
    0,
    0,
    0,
    0,
    0,
    0,
    0,
    0,
    0,
    0,
    0,
    0,
    0,
    0,
    0,
    0,
    0,
    0,
    0,
    0,
    0,
    0,
    0,
    0,
    0,
    0,
    0,
    0,
    0,
    0,
    0,
    0,
    0,
    0,
    0,
    0,
    0,
    0,
    0,
    0,
    0,
    0,
    0,
    0,
    0,
    0,
    0,
    0,
    0,
    0,
    0,
    0,
    0,
    0,
    0,
    0,
    0,
    0,
    0,
    0,
    0,
    0,
    0,
    0,
    0,
    0,
    0,
    0,
    0,
    0,
    0,
    0,
    0,
    0,
    0,
    0,
    0,
    0,
    0,
    0,
    1373,
    1374,
    0,
    0,
    0,
    0,
    1306,
    1306,
    0,
    0,
    0,
    0,
    0,
    0,
    0,
    0,
    0,
    0,
    0,
    0,
    0,
    0,
    0,
    0,
    0,
    0,
    0,
    0,
    0,
    0,
    0,
    0,
    0,
    0,
    0,
    0,
    0,
    0,
    0,
    0,
    0,
    0,
    0,
    0,
    0,
    0,
    0,
    0,
    0,
    0,
    0,
    0,
    0,
    0,
    0,
    0,
    0,
    0,
    0,
    0,
    0,
    0,
    0,
    0,
    0,
    0,
    0,
    0,
    0,
    0,
    0,
    0,
    0,
    0,
    0,
    0,
    0,
    0,
    0,
    0,
    0,
    0,
    0,
    0,
    0,
    0,
    0,
    0,
    0,
    0,
    0,
    0,
    1341,
    0,
    1389,
    1390,
    0,
    0,
    0,
    0,
    0,
    0,
    0,
    1341,
    0,
    0,
    0,
    0,
    0,
    0,
    0,
    0,
    0,
    0,
    0,
    0,
    0,
    0,
    0,
    0,
    0,
    0,
    0,
    0,
    0,
    0,
    0,
    0,
    0,
    0,
    0,
    0,
    0,
    0,
    0,
    0,
    0,
    0,
    0,
    0,
    0,
    0,
    0,
    0,
    0,
    0,
    0,
    0,
    0,
    0,
    0,
    0,
    0,
    0,
    0,
    0,
    0,
    0,
    0,
    0,
    0,
    0,
    0,
    0,
    0,
    0,
    0,
    0,
    0,
    0,
    0,
    0,
    0,
    0,
    0,
    0,
    0,
    0,
    0,
    0,
    0,
    0,
    0,
    0,
    0,
    0,
    0,
    0,
    0,
    0,
    0,
    0,
    0,
    0,
    0,
    0,
    0,
    0,
    0,
    0,
    0,
    0,
    0,
    0,
    0,
    0,
    0,
    0,
    0,
    0,
    0,
    0,
    0,
    0,
    0,
    0,
    0,
    0,
    0,
    0,
    0,
    0,
    0,
    0,
    0,
    0,
    0,
    0,
    0,
    0,
    0,
    0,
    0,
    0,
    0,
    0,
    0,
    0,
    0,
    0,
    0,
    0,
    0,
    0,
    0,
    0,
    0,
    0,
    1373,
    1374,
    0,
    0,
    0,
    0,
    0,
    0,
    0,
    0,
    0,
    0,
    0,
    0,
    0,
    0,
    0,
    0,
    0,
    0,
    0,
    0,
    0,
    0,
    0,
    0,
    0,
    0,
    0,
    0,
    0,
    0,
    0,
    0,
    0,
    0,
    0,
    0,
    0,
    0,
    0,
    0,
    0,
    0,
    0,
    0,
    0,
    0,
    0,
    0,
    0,
    0,
    0,
    0,
    0,
    0,
    0,
    0,
    0,
    0,
    0,
    0,
    0,
    0,
    0,
    0,
    0,
    0,
    0,
    0,
    0,
    0,
    0,
    0,
    0,
    0,
    0,
    1373,
    1374,
    0,
    0,
    0,
    0,
    0,
    0,
    0,
    0,
    0,
    0,
    0,
    0,
    1306,
    0,
    0,
    1389,
    1390,
    0,
    0,
    0,
    0,
    0,
    0,
    0,
    0,
    0,
    0,
    0,
    0,
    0,
    0,
    0,
    0,
    0,
    0,
    0,
    0,
    0,
    0,
    0,
    0,
    0,
    0,
    0,
    0,
    0,
    0,
    1197,
    1326,
    1327,
    1326,
    1327,
    1326,
    1327,
    1326,
    1327,
    1326,
    1327,
    1197,
    0,
    0,
    0,
    0,
    0,
    0,
    0,
    0,
    0,
    0,
    0,
    0,
    0,
    0,
    0,
    0,
    0,
    0,
    0,
    0,
    0,
    0,
    0,
    0,
    0,
    0,
    0,
    0,
    0,
    0,
    1306,
    0,
    0,
    1389,
    1390,
    0,
    0,
    0,
    0,
    0,
    0,
    0,
    0,
    0,
    0,
    0,
    0,
    0,
    0,
    0,
    0,
    0,
    0,
    0,
    0,
    0,
    0,
    0,
    0,
    0,
    0,
    0,
    0,
    0,
    0,
    0,
    0,
    0,
    0,
    0,
    0,
    0,
    0,
    0,
    0,
    0,
    0,
    0,
    0,
    0,
    0,
    0,
    0,
    0,
    0,
    0,
    0,
    0,
    0,
    0,
    0,
    0,
    0,
    0,
    0,
    0,
    0,
    0,
    0,
    0,
    0,
    0,
    0,
    0,
    0,
    0,
    0,
    0,
    0,
    0,
    0,
    0,
    0,
    0,
    0,
    0,
    0,
    0,
    0,
    0,
    0,
    0,
    0,
    0,
    0,
    0,
    0,
    0,
    0,
    0,
    0,
    0,
    0,
    0,
    0,
    0,
    0,
    0,
    0,
    0,
    1412,
    1413,
    0,
    0,
    0,
    0,
    0,
    0,
    0,
    0,
    0,
    0,
    0,
    0,
    0,
    0,
    0,
    0,
    0,
    0,
    0,
    0,
    0,
    0,
    0,
    0,
    0,
    0,
    0,
    0,
    0,
    0,
    0,
    0,
    0,
    0,
    0,
    0,
    0,
    0,
    0,
    0,
    0,
    0,
    0,
    0,
    0,
    0,
    0,
    0,
    0,
    0,
    0,
    0,
    0,
    0,
    0,
    0,
    0,
    0,
    0,
    0,
    0,
    0,
    0,
    0,
    0,
    0,
    0,
    0,
    0,
    0,
    0,
    0,
    0,
    0,
    0,
    1412,
    1413,
    0,
    0,
    0,
    0,
    0,
    0,
    0,
    0,
    0,
    0,
    0,
    0,
    0,
    0,
    0,
    0,
    0,
    0,
    1346,
    0,
    1350,
    0,
    0,
    0,
    0,
    0,
    0,
    0,
    0,
    0,
    0,
    0,
    0,
    0,
    0,
    0,
    0,
    0,
    0,
    0,
    0,
    0,
    0,
    0,
    0,
    0,
    0,
    0,
    0,
    0,
    0,
    0,
    1412,
    1413,
    0,
    1412,
    1413,
    0,
    1412,
    1413,
    0,
    1412,
    1413,
    0,
    0,
    0,
    0,
    0,
    0,
    0,
    0,
    0,
    0,
    0,
    0,
    0,
    0,
    0,
    0,
    0,
    0,
    0,
    0,
    0,
    0,
    0,
    0,
    0,
    0,
    0,
    0,
    0,
    0,
    0,
    0,
    1346,
    0,
    1350,
    0,
    0,
    0,
    0,
    0,
    0,
    0,
    0,
    0,
    0,
    0,
    1326,
    1327,
    0,
    0,
    0,
    0,
    0,
    0,
    0,
    0,
    0,
    0,
    0,
    0,
    0,
    0,
    0,
    0,
    0,
    0,
    0,
    0,
    0,
    0,
    0,
    0,
    0,
    0,
    0,
    0,
    0,
    0,
    0,
    0,
    0,
    0,
    0,
    0,
    0,
    0,
    0,
    0,
    0,
    0,
    0,
    0,
    0,
    0,
    0,
    0,
    0,
    0,
    0,
    0,
    0,
    0,
    0,
    0,
    0,
    0,
    0,
    0,
    0,
    0,
    0,
    0,
    0,
    0,
    0,
    0,
    0,
    0,
    0,
    0,
    0,
    0,
    0,
    1326,
    1327,
    0,
    0,
    0,
    0,
    0,
    0,
    0,
    0,
    0,
    0,
    0,
    0,
    0,
    0,
    0,
    0,
    0,
    0,
    0,
    0,
    1341,
    0,
    0,
    0,
    0,
    0,
    0,
    0,
    0,
    0,
    0,
    0,
    0,
    0,
    0,
    0,
    0,
    0,
    0,
    0,
    0,
    0,
    0,
    0,
    0,
    0,
    0,
    0,
    0,
    0,
    0,
    0,
    1412,
    1413,
    0,
    1412,
    1413,
    0,
    1412,
    1413,
    0,
    1412,
    1413,
    0,
    0,
    0,
    0,
    0,
    0,
    0,
    0,
    0,
    0,
    0,
    0,
    0,
    0,
    0,
    0,
    0,
    0,
    0,
    0,
    0,
    0,
    0,
    0,
    0,
    0,
    0,
    0,
    0,
    0,
    0,
    0,
    0,
    0,
    1341,
    0,
    0,
    0,
    0,
    0,
    0,
    0,
    0,
    0,
    0,
    0,
    0,
    0,
    0,
    0,
    0,
    0,
    0,
    0,
    0,
    0,
    0,
    0,
    0,
    0,
    0,
    0,
    0,
    0,
    0,
    0,
    0,
    0,
    0,
    0,
    0,
    0,
    0,
    0,
    0,
    0,
    0,
    0,
    0,
    0,
    0,
    0,
    0,
    0,
    0,
    0,
    0,
    0,
    0,
    0,
    0,
    0,
    0,
    0,
    0,
    0,
    0,
    0,
    0,
    0,
    0,
    0,
    0,
    0,
    0,
    0,
    0,
    0,
    0,
    0,
    0,
    0,
    0,
    0,
    0,
    0,
    0,
    0,
    0,
    0,
    0,
    0,
    0,
    0,
    0,
    0,
    0,
    0,
    0,
    0,
    0,
    0,
    0,
    0,
    0,
    0,
    0,
    0,
    0,
    0,
    0,
    0,
    0,
    0,
    0,
    0,
    0,
    0,
    0,
    0,
    0,
    0,
    0,
    0,
    0,
    0,
    0,
    0,
    0,
    0,
    0,
    0,
    0,
    0,
    0,
    0,
    0,
    0,
    0,
    0,
    0,
    0,
    0,
    0,
    0,
    0,
    0,
    1412,
    1413,
    0,
    1412,
    1413,
    0,
    1412,
    1413,
    0,
    1412,
    1413,
    0,
    0,
    0,
    0,
    0,
    0,
    0,
    0,
    0,
    0,
    0,
    0,
    0,
    0,
    0,
    0,
    0,
    0,
    0,
    0,
    0,
    0,
    0,
    0,
    0,
    0,
    0,
    0,
    0,
    0,
    0,
    0,
    0,
    0,
    0,
    0,
    0,
    0,
    0,
    0,
    0,
    0,
    0,
    0,
    0,
    0,
    0,
    0,
    0,
    0,
    0,
    0,
    0,
    0,
    0,
    0,
    0,
    0,
    0,
    0,
    0,
    0,
    0,
    0,
    0,
    0,
    0,
    0,
    0,
    0,
    0,
    0,
    0,
    0,
    0,
    0,
    0,
    0,
    0,
    0,
    0,
    0,
    0,
    0,
    0,
    0,
    0,
    0,
    0,
    0,
    0,
    0,
    0,
    0,
    0,
    0,
    0,
    0,
    0,
    0,
    0,
    0,
    0,
    0,
    0,
    0,
    0,
    0,
    0,
    0,
    0,
    0,
    0,
    0,
    0,
    0,
    0,
    0,
    0,
    0,
    0,
    0,
    0,
    0,
    0,
    0,
    0,
    0,
    0,
    0,
    0,
    0,
    0,
    0,
    0,
    0,
    0,
    0,
    0,
    0,
    0,
    0,
    0,
    0,
    0,
    0,
    0,
    0,
    0,
    0,
    0,
    0,
    0,
    0,
    0,
    0,
    0,
    0,
    0,
    0,
    0,
    0,
    0,
    0,
    0,
    0,
    0,
    0,
    0,
    0,
    0,
    0,
    0,
    0,
    0,
    0,
    0,
    0,
    0,
    0,
    0,
    0,
    0,
    0,
    0,
    0,
    0,
    0,
    0,
    0,
    0,
    0,
    0,
    0,
    0,
    0,
    0,
    0,
    0,
    0,
    0,
    0,
    0,
    0,
    0,
    0,
    0,
    0,
    0,
    0,
    0,
    0,
    0,
    0,
    0,
    0,
    0,
    0,
    0,
    0,
    0,
    0,
    0,
    0,
    0,
    0,
    0,
    0,
    0,
    0,
    0,
    0,
    0,
    0,
    0,
    0,
    0,
    0,
    0,
    0,
    0,
    0,
    0,
    0,
    0,
    0,
    0,
    0,
    0,
    0,
    0,
    0,
    0,
    0,
    0,
    0,
    0,
    0,
    0,
    0,
    0,
    0,
    0,
    0,
    0,
    0,
    0,
    0,
    0,
    0,
    0,
    0,
    0,
    0,
    0,
    0,
    0,
    0,
    0,
    0,
    0,
    0,
    0,
    0,
    0,
    0,
    0,
    0,
    0,
    0,
    0,
    0,
    0,
    0,
    0,
    0,
    0,
    0,
    0,
    0,
    0,
    0,
    0,
    0,
    0,
    0,
    0,
    0,
    0,
    0,
    0,
    0,
    0,
    0,
    0,
    0,
    0,
    0,
    0,
    0,
    0,
    0,
    0,
    0,
    0,
    0,
    0,
    0,
    0,
    0,
    0,
    0,
    1373,
    1374,
    0,
    0,
    0,
    0,
    0,
    0,
    0,
    0,
    0,
    0,
    0,
    0,
    0,
    0,
    0,
    0,
    0,
    0,
    0,
    0,
    0,
    0,
    0,
    0,
    0,
    0,
    0,
    0,
    0,
    0,
    0,
    0,
    0,
    0,
    0,
    0,
    0,
    0,
    0,
    0,
    0,
    0,
    0,
    0,
    0,
    0,
    0,
    0,
    0,
    0,
    0,
    0,
    0,
    0,
    0,
    0,
    0,
    0,
    0,
    0,
    0,
    0,
    0,
    0,
    0,
    0,
    0,
    0,
    0,
    0,
    0,
    0,
    0,
    0,
    0,
    1373,
    1374,
    0,
    0,
    0,
    0,
    0,
    0,
    0,
    0,
    0,
    0,
    0,
    0,
    1306,
    0,
    0,
    1389,
    1390,
    0,
    0,
    0,
    0,
    0,
    0,
    0,
    0,
    0,
    0,
    0,
    0,
    0,
    0,
    0,
    0,
    0,
    0,
    0,
    0,
    0,
    0,
    0,
    0,
    0,
    0,
    0,
    0,
    0,
    0,
    0,
    0,
    0,
    0,
    0,
    0,
    0,
    0,
    0,
    0,
    0,
    0,
    0,
    0,
    0,
    0,
    0,
    0,
    0,
    0,
    0,
    0,
    0,
    0,
    0,
    0,
    0,
    0,
    0,
    0,
    0,
    0,
    0,
    0,
    0,
    0,
    0,
    0,
    0,
    0,
    0,
    0,
    1306,
    0,
    0,
    1389,
    1390,
    0,
    0,
    0,
    0,
    0,
    0,
    0,
    0,
    0,
    0,
    0,
    0,
    0,
    0,
    0,
    0,
    0,
    0,
    0,
    0,
    0,
    0,
    0,
    0,
    0,
    0,
    0,
    0,
    0,
    0,
    0,
    0,
    0,
    0,
    0,
    0,
    0,
    0,
    0,
    0,
    0,
    0,
    0,
    0,
    0,
    0,
    0,
    0,
    0,
    0,
    0,
    0,
    0,
    0,
    0,
    0,
    0,
    0,
    0,
    0,
    0,
    0,
    0,
    0,
    0,
    0,
    0,
    0,
    0,
    0,
    0,
    0,
    0,
    0,
    0,
    0,
    0,
    0,
    0,
    0,
    0,
    0,
    0,
    0,
    0,
    0,
    0,
    0,
    0,
    0,
    0,
    0,
    0,
    0,
    0,
    0,
    0,
    0,
    0,
    0,
    0,
    0,
    0,
    0,
    0,
    1412,
    1413,
    0,
    0,
    0,
    0,
    0,
    0,
    0,
    0,
    0,
    0,
    0,
    0,
    0,
    0,
    0,
    0,
    0,
    0,
    0,
    0,
    0,
    0,
    0,
    0,
    0,
    0,
    0,
    0,
    0,
    0,
    0,
    0,
    0,
    0,
    0,
    0,
    0,
    0,
    0,
    0,
    0,
    0,
    0,
    0,
    0,
    0,
    0,
    0,
    0,
    0,
    0,
    0,
    0,
    0,
    0,
    0,
    0,
    0,
    0,
    0,
    0,
    0,
    0,
    0,
    0,
    0,
    0,
    0,
    0,
    0,
    0,
    0,
    0,
    0,
    0,
    1412,
    1413,
    0,
    0,
    0,
    0,
    0,
    0,
    0,
    0,
    0,
    0,
    0,
    0,
    0,
    0,
    0,
    0,
    0,
    0,
    1346,
    0,
    1350,
    0,
    0,
    0,
    0,
    0,
    0,
    0,
    0,
    0,
    0,
    0,
    0,
    0,
    0,
    0,
    0,
    0,
    0,
    0,
    0,
    0,
    0,
    0,
    0,
    0,
    0,
    0,
    0,
    0,
    0,
    0,
    0,
    0,
    0,
    0,
    0,
    0,
    0,
    0,
    0,
    0,
    0,
    0,
    0,
    0,
    0,
    0,
    0,
    0,
    0,
    0,
    0,
    0,
    0,
    0,
    0,
    0,
    0,
    0,
    0,
    0,
    0,
    0,
    0,
    0,
    0,
    0,
    0,
    0,
    0,
    0,
    0,
    0,
    0,
    1346,
    0,
    1350,
    0,
    0,
    0,
    0,
    0,
    0,
    0,
    0,
    0,
    0,
    0,
    1326,
    1327,
    0,
    0,
    0,
    0,
    0,
    0,
    0,
    0,
    0,
    0,
    0,
    0,
    0,
    0,
    0,
    0,
    0,
    0,
    0,
    0,
    0,
    0,
    0,
    0,
    0,
    0,
    0,
    0,
    0,
    0,
    0,
    0,
    0,
    0,
    0,
    0,
    0,
    0,
    0,
    0,
    0,
    0,
    0,
    0,
    0,
    0,
    0,
    0,
    0,
    0,
    0,
    0,
    0,
    0,
    0,
    0,
    0,
    0,
    0,
    0,
    0,
    0,
    0,
    0,
    0,
    0,
    0,
    0,
    0,
    0,
    0,
    0,
    0,
    0,
    0,
    1326,
    1327,
    0,
    0,
    0,
    0,
    0,
    0,
    0,
    0,
    0,
    0,
    0,
    0,
    0,
    0,
    0,
    0,
    0,
    0,
    0,
    0,
    1341,
    0,
    0,
    0,
    0,
    0,
    0,
    0,
    0,
    0,
    0,
    0,
    0,
    0,
    0,
    0,
    0,
    0,
    0,
    0,
    0,
    0,
    0,
    0,
    0,
    0,
    0,
    0,
    0,
    0,
    0,
    0,
    0,
    0,
    0,
    0,
    0,
    0,
    0,
    0,
    0,
    0,
    0,
    0,
    0,
    0,
    0,
    0,
    0,
    0,
    0,
    0,
    0,
    0,
    0,
    0,
    0,
    0,
    0,
    0,
    0,
    0,
    0,
    0,
    0,
    0,
    0,
    0,
    0,
    0,
    0,
    0,
    0,
    0,
    0,
    0,
    0,
    1341,
    0,
    0,
    0,
    0,
    0,
    0,
    0,
    0,
    0,
    0,
    0,
    0,
    0,
    0,
    0,
    0,
    0,
    0,
    0,
    0,
    0,
    0,
    0,
    0,
    0,
    0,
    0,
    0,
    0,
    0,
    0,
    0,
    0,
    0,
    0,
    0,
    0,
    0,
    0,
    0,
    0,
    0,
    0,
    0,
    0,
    0,
    0,
    0,
    0,
    0,
    0,
    0,
    0,
    0,
    0,
    0,
    0,
    0,
    0,
    0,
    0,
    0,
    0,
    0,
    0,
    0,
    0,
    0,
    0,
    0,
    0,
    0,
    0,
    0,
    0,
    0,
    0,
    0,
    0,
    0,
    0,
    0,
    0,
    0,
    0,
    0,
    0,
    0,
    0,
    0,
    0,
    0,
    0,
    0,
    0,
    0,
    0,
    0,
    0,
    0,
    0,
    0,
    0,
    0,
    0,
    0,
    0,
    0,
    0,
    0,
    0,
    0,
    0,
    0,
    0,
    0,
    0,
    0,
    0,
    0,
    0,
    0,
    0,
    0,
    0,
    0,
    0,
    0,
    0,
    0,
    0,
    0,
    0,
    0,
    0,
    0,
    0,
    0,
    0,
    0,
    0,
    0,
    0,
    0,
    0,
    0,
    0,
    0,
    0,
    0,
    0,
    0,
    0,
    0,
    0,
    0,
    0,
    0,
    0,
    0,
    0,
    0,
    0,
    0,
    0,
    0,
    0,
    0,
    0,
    0,
    0,
    0,
    0,
    0,
    0,
    0,
    0,
    0,
    0,
    0,
    0,
    0,
    0,
    0,
    0,
    0,
    0,
    0,
    0,
    0,
    0,
    0,
    0,
    0,
    0,
    0,
    0,
    0,
    0,
    0,
    0,
    0,
    0,
    0,
    0,
    0,
    0,
    0,
    0,
    0,
    0,
    0,
    0,
    0,
    0,
    0,
    0,
    0,
    0,
    0,
    0,
    0,
    0,
    0,
    0,
    0,
    0,
    0,
    0,
    0,
    0,
    0,
    0,
    0,
    0,
    0,
    0,
    0,
    0,
    0,
    0,
    0,
    0,
    0,
    0,
    0,
    0,
    0,
    0,
    0,
    0,
    0,
    0,
    0,
    0,
    0,
    0,
    0,
    0,
    0,
    0,
    0,
    0,
    0,
    0,
    0,
    0,
    0,
    0,
    0,
    0,
    0,
    0,
    0,
    0,
    0,
    0,
    0,
    0,
    0,
    0,
    0,
    0,
    0,
    0,
    0,
    0,
    0,
    0,
    0,
    0,
    0,
    0,
    0,
    0,
    0,
    0,
    0,
    0,
    0,
    0,
    0,
    0,
    0,
    0,
    0,
    0,
    0,
    0,
    0,
    0,
    0,
    0,
    0,
    0,
    0,
    0,
    0,
    0,
    0,
    0,
    0,
    0,
    0,
    0,
    0,
    0,
    0,
    0,
    0,
    0,
    0,
    0,
    0,
    0,
    0,
    0,
    0,
    0,
    0,
    0,
    0,
    0,
    0,
    0,
    0,
    0,
    0,
    0,
    0,
    0,
    0,
    0,
    0,
    0,
    0,
    0,
    0,
    0,
    0,
    0,
    0,
    0,
    0,
    0,
    0,
    0,
    0,
    0,
    0,
    0,
    0,
    0,
    0,
    0,
    0,
    0,
    0,
    0,
    0,
    0,
    0,
    0,
    0,
    0,
    0,
    0,
    0,
    0,
    0,
    0,
    0,
    0,
    0,
    0,
    0,
    0,
    0,
    0,
    0,
    0,
    0,
    0,
    0,
    0,
    0,
    0,
    0,
    0,
    0,
    0,
    0,
    0,
    0,
    0,
    0,
    0,
    0,
    0,
    0,
    0,
    0,
    0,
    0,
    0,
    0,
    0,
    0,
    0,
    0,
    0,
    0,
    0,
    0,
    0,
    0,
    0,
    0,
    0,
    0,
    0,
    0,
    0,
    0,
    0,
    0,
    0,
    0,
    0,
    0,
    0,
    0,
    0,
    0,
    0,
    0,
    0,
    0,
    0,
    0,
    0,
    0,
    0,
    0,
    0,
    0,
    0,
    0,
    0,
    0,
    0,
    0,
    0,
    0,
    0,
    0,
    0,
    0,
    0,
    0,
    0,
    0,
    0,
    0,
    0,
    1373,
    1374,
    0,
    0,
    0,
    0,
    0,
    0,
    0,
    0,
    0,
    0,
    0,
    0,
    0,
    0,
    0,
    0,
    0,
    0,
    0,
    0,
    0,
    0,
    0,
    0,
    0,
    0,
    0,
    0,
    0,
    0,
    0,
    0,
    0,
    0,
    0,
    0,
    0,
    0,
    0,
    0,
    0,
    0,
    0,
    0,
    0,
    0,
    0,
    0,
    0,
    0,
    0,
    0,
    0,
    0,
    0,
    0,
    0,
    0,
    0,
    0,
    0,
    0,
    0,
    0,
    0,
    0,
    0,
    0,
    0,
    0,
    0,
    0,
    0,
    0,
    0,
    1373,
    1374,
    0,
    0,
    0,
    0,
    0,
    0,
    0,
    0,
    0,
    0,
    0,
    0,
    1306,
    0,
    0,
    1389,
    1390,
    0,
    0,
    0,
    0,
    0,
    0,
    0,
    0,
    0,
    0,
    0,
    0,
    0,
    0,
    0,
    0,
    0,
    0,
    0,
    0,
    0,
    0,
    0,
    0,
    0,
    0,
    0,
    0,
    0,
    0,
    0,
    0,
    0,
    0,
    0,
    0,
    0,
    0,
    0,
    0,
    0,
    0,
    0,
    0,
    0,
    0,
    0,
    0,
    0,
    0,
    0,
    0,
    0,
    0,
    0,
    0,
    0,
    0,
    0,
    0,
    0,
    0,
    0,
    0,
    0,
    0,
    0,
    0,
    0,
    0,
    0,
    0,
    1306,
    0,
    0,
    1389,
    1390,
    0,
    0,
    0,
    0,
    0,
    0,
    0,
    0,
    0,
    0,
    0,
    0,
    0,
    0,
    0,
    0,
    0,
    0,
    0,
    0,
    0,
    0,
    0,
    0,
    0,
    0,
    0,
    0,
    0,
    0,
    0,
    0,
    0,
    0,
    0,
    0,
    0,
    0,
    0,
    0,
    0,
    0,
    0,
    0,
    0,
    0,
    0,
    0,
    0,
    0,
    0,
    0,
    0,
    0,
    0,
    0,
    0,
    0,
    0,
    0,
    0,
    0,
    0,
    0,
    0,
    0,
    0,
    0,
    0,
    0,
    0,
    0,
    0,
    0,
    0,
    0,
    0,
    0,
    0,
    0,
    0,
    0,
    0,
    0,
    0,
    0,
    0,
    0,
    0,
    0,
    0,
    0,
    0,
    0,
    0,
    0,
    0,
    0,
    0,
    0,
    0,
    0,
    0,
    0,
    0,
    1412,
    1413,
    0,
    0,
    0,
    0,
    0,
    0,
    0,
    0,
    0,
    0,
    0,
    0,
    0,
    0,
    0,
    0,
    0,
    0,
    0,
    0,
    0,
    0,
    0,
    0,
    0,
    0,
    0,
    0,
    0,
    0,
    0,
    0,
    0,
    0,
    0,
    0,
    0,
    0,
    0,
    0,
    0,
    0,
    0,
    0,
    0,
    0,
    0,
    0,
    0,
    0,
    0,
    0,
    0,
    0,
    0,
    0,
    0,
    0,
    0,
    0,
    0,
    0,
    0,
    0,
    0,
    0,
    0,
    0,
    0,
    0,
    0,
    0,
    0,
    0,
    0,
    1412,
    1413,
    0,
    0,
    0,
    0,
    0,
    0,
    0,
    0,
    0,
    0,
    0,
    0,
    0,
    0,
    0,
    0,
    0,
    0,
    1346,
    0,
    1350,
    0,
    0,
    0,
    0,
    0,
    0,
    0,
    0,
    0,
    0,
    0,
    0,
    0,
    0,
    0,
    0,
    0,
    0,
    0,
    0,
    0,
    0,
    0,
    0,
    0,
    0,
    0,
    0,
    0,
    0,
    0,
    0,
    0,
    0,
    0,
    0,
    0,
    0,
    0,
    0,
    0,
    0,
    0,
    0,
    0,
    0,
    0,
    0,
    0,
    0,
    0,
    0,
    0,
    0,
    0,
    0,
    0,
    0,
    0,
    0,
    0,
    0,
    0,
    0,
    0,
    0,
    0,
    0,
    0,
    0,
    0,
    0,
    0,
    0,
    1346,
    0,
    1350,
    0,
    0,
    0,
    0,
    0,
    0,
    0,
    0,
    0,
    0,
    0,
    1326,
    1327,
    0,
    0,
    0,
    0,
    0,
    0,
    0,
    0,
    0,
    0,
    0,
    0,
    0,
    0,
    0,
    0,
    0,
    0,
    0,
    0,
    0,
    0,
    0,
    0,
    0,
    0,
    0,
    0,
    0,
    0,
    0,
    0,
    0,
    0,
    0,
    0,
    0,
    0,
    0,
    0,
    0,
    0,
    0,
    0,
    0,
    0,
    0,
    0,
    0,
    0,
    0,
    0,
    0,
    0,
    0,
    0,
    0,
    0,
    0,
    0,
    0,
    0,
    0,
    0,
    0,
    0,
    0,
    0,
    0,
    0,
    0,
    0,
    0,
    0,
    0,
    1326,
    1327,
    0,
    0,
    0,
    0,
    0,
    0,
    0,
    0,
    0,
    0,
    0,
    0,
    0,
    0,
    0,
    0,
    0,
    0,
    0,
    0,
    1341,
    0,
    0,
    0,
    0,
    0,
    0,
    0,
    0,
    0,
    0,
    0,
    0,
    0,
    0,
    0,
    0,
    0,
    0,
    0,
    0,
    0,
    0,
    0,
    0,
    0,
    0,
    0,
    0,
    0,
    0,
    0,
    0,
    0,
    0,
    0,
    0,
    0,
    0,
    0,
    0,
    0,
    0,
    0,
    0,
    0,
    0,
    0,
    0,
    0,
    0,
    0,
    0,
    0,
    0,
    0,
    0,
    0,
    0,
    0,
    0,
    0,
    0,
    0,
    0,
    0,
    0,
    0,
    0,
    0,
    0,
    0,
    0,
    0,
    0,
    0,
    0,
    1341,
    0,
    0,
    0,
    0,
    0,
    0,
    0,
    0,
    0,
    0,
    0,
    0,
    0,
    0,
    0,
    0,
    0,
    0,
    0,
    0,
    0,
    0,
    0,
    0,
    0,
    0,
    0,
    0,
    0,
    0,
    0,
    0,
    0,
    0,
    0,
    0,
    0,
    0,
    0,
    0,
    0,
    0,
    0,
    0,
    0,
    0,
    0,
    0,
    0,
    0,
    0,
    0,
    0,
    0,
    0,
    0,
    0,
    0,
    0,
    0,
    0,
    0,
    0,
    0,
    0,
    0,
    0,
    0,
    0,
    0,
    0,
    0,
    0,
    0,
    0,
    0,
    0,
    0,
    0,
    0,
    0,
    0,
    0,
    0,
    0,
    0,
    0,
    0,
    0,
    0,
    0,
    0,
    0,
    0,
    0,
    0,
    0,
    0,
    0,
    0,
    0,
    0,
    0,
    0,
    0,
    0,
    0,
    0,
    0,
    0,
    0,
    0,
    0,
    0,
    0,
    0,
    0,
    0,
    0,
    0,
    0,
    0,
    0,
    0,
    0,
    0,
    0,
    0,
    0,
    0,
    0,
    0,
    0,
    0,
    0,
    0,
    0,
    0,
    0,
    0,
    0,
    0,
    0,
    0,
    0,
    0,
    0,
    0,
    0,
    0,
    0,
    0,
    0,
    0,
    0,
    0,
    0,
    0,
    0,
    0,
    0,
    0,
    0,
    0,
    0,
    0,
    0,
    0,
    0,
    0,
    0,
    0,
    0,
    0,
    0,
    0,
    0,
    0,
    0,
    0,
    0,
    0,
    0,
    0,
    0,
    0,
    0,
    0,
    0,
    0,
    0,
    0,
    0,
    0,
    0,
    0,
    0,
    0,
    0,
    0,
    0,
    0,
    0,
    0,
    0,
    0,
    0,
    0,
    0,
    0,
    0,
    0,
    0,
    0,
    0,
    0,
    0,
    0,
    0,
    0,
    0,
    0,
    0,
    0,
    0,
    0,
    0,
    0,
    0,
    0,
    0,
    0,
    0,
    0,
    0,
    0,
    0,
    0,
    0,
    0,
    0,
    0,
    0,
    0,
    0,
    0,
    0,
    0,
    0,
    0,
    0,
    0,
    0,
    0,
    0,
    0,
    0,
    0,
    0,
    0,
    0,
    0,
    0,
    0,
    0,
    0,
    0,
    0,
    0,
    0,
    0,
    0,
    0,
    0,
    0,
    0,
    0,
    0,
    0,
    0,
    0,
    0,
    0,
    0,
    0,
    0,
    0,
    0,
    0,
    0,
    0,
    0,
    0,
    0,
    0,
    0,
    0,
    0,
    0,
    0,
    0,
    0,
    0,
    0,
    0,
    0,
    0,
    0,
    0,
    0,
    0,
    0,
    0,
    0,
    0,
    0,
    0,
    0,
    0,
    0,
    0,
    0,
    0,
    0,
    0,
    0,
    0,
    0,
    0,
    0,
    0,
    0,
    0,
    0,
    0,
    0,
    0,
    0,
    0,
    0,
    0,
    0,
    0,
    0,
    0,
    0,
    0,
    0,
    0,
    0,
    0,
    0,
    0,
    0,
    0,
    0,
    0,
    0,
    0,
    0,
    0,
    0,
    0,
    0,
    0,
    0,
    0,
    0,
    0,
    0,
    0,
    0,
    0,
    0,
    0,
    0,
    0,
    0,
    0,
    0,
    0,
    0,
    0,
    0,
    0,
    0,
    0,
    0,
    0,
    0,
    0,
    0,
    0,
    0,
    0,
    0,
    0,
    0,
    0,
    0,
    0,
    0,
    0,
    0,
    0,
    0,
    0,
    0,
    0,
    0,
    0,
    0,
    0,
    0,
    0,
    0,
    0,
    0,
    0,
    0,
    0,
    0,
    0,
    0,
    0,
    0,
    0,
    0,
    0,
    0,
    0,
    0,
    0,
    0,
    0,
    0,
    0,
    0,
    0,
    0,
    0,
    0,
    0,
    0,
    0,
    0,
    0,
    0,
    0,
    0,
    0,
    0,
    0,
    0,
    0,
    0,
    0,
    0,
    0,
    0,
    0,
    0,
    0,
    0,
    0,
    0,
    0,
    0,
    0,
    0,
    0,
    0,
    0,
    0,
    0,
    0,
    0,
    0,
    0,
    0,
    0,
    0,
    0,
    0,
    0,
    0,
    0,
    0,
    0,
    0,
    0,
    0,
    0,
    0,
    0,
    0,
    0,
    0,
    0,
    0,
    0,
    0,
    0,
    0,
    0,
    0,
    0,
    0,
    0,
    0,
    0,
    0,
    0,
    0,
    0,
    0,
    0,
    0,
    0,
    0,
    0,
    0,
    0,
    0,
    0,
    0,
    0,
    0,
    0,
    0,
    0,
    0,
    0,
    0,
    0,
    0,
    0,
    0,
    0,
    0,
    0,
    0,
    0,
    0,
    0,
    0,
    0,
    0,
    0,
    0,
    0,
    0,
    0,
    0,
    0,
    0,
    0,
    0,
    0,
    0,
    0,
    0,
    0,
    0,
    0,
    0,
    0,
    0,
    0,
    0,
    0,
    0,
    0,
    0,
    0,
    0,
    0,
    0,
    0,
    0,
    0,
    0,
    0,
    0,
    0,
    0,
    0,
    0,
    0,
    0,
    0,
    0,
    0,
    0,
    0,
    0,
    0,
    0,
    0,
    0,
    0,
    0,
    0,
    0,
    0,
    0,
    0,
    0,
    0,
    0,
    0,
    0,
    0,
    0,
    0,
    0,
    0,
    0,
    0,
    0,
    0,
    0,
    0,
    0,
    0,
    0,
    0,
    0,
    0,
    0,
    0,
    0,
    0,
    0,
    0,
    0,
    0,
    0,
    0,
    0,
    0,
    0,
    0,
    0,
    0,
    0,
    0,
    0,
    0,
    0,
    0,
    0,
    0,
    0,
    0,
    0,
    0,
    0,
    0,
    0,
    0,
    0,
    0,
    0,
    0,
    0,
    0,
    0,
    0,
    0,
    0,
    0,
    0,
    0,
    0,
    0,
    0,
    0,
    0,
    0,
    0,
    0,
    0,
    0,
    0,
    0,
    0,
    0,
    0,
    0,
    0,
    0,
    0,
    0,
    0,
    0,
    0,
    1306,
    1306,
    0,
    0,
    0,
    0,
    0,
    0,
    0,
    0,
    0,
    0,
    0,
    0,
    0,
    0,
    0,
    0,
    0,
    0,
    0,
    0,
    0,
    0,
    0,
    0,
    1306,
    1306,
    0,
    0,
    0,
    0,
    0,
    0,
    0,
    0,
    0,
    0,
    0,
    0,
    0,
    0,
    0,
    0,
    0,
    0,
    0,
    0,
    0,
    0,
    0,
    0,
    0,
    0,
    0,
    0,
    0,
    0,
    0,
    0,
    0,
    0,
    0,
    0,
    0,
    0,
    0,
    0,
    0,
    0,
    0,
    0,
    0,
    0,
    0,
    0,
    0,
    0,
    0,
    0,
    0,
    0,
    0,
    0,
    0,
    0,
    0,
    0,
    0,
    0,
    0,
    0,
    1341,
    1326,
    1327,
    1326,
    1327,
    1341,
    0,
    0,
    0,
    0,
    0,
    0,
    0,
    0,
    0,
    0,
    0,
    0,
    0,
    0,
    0,
    0,
    0,
    0,
    0,
    0,
    1341,
    1326,
    1327,
    1326,
    1327,
    1341,
    0,
    0,
    0,
    0,
    0,
    0,
    0,
    0,
    0,
    0,
    0,
    0,
    0,
    0,
    0,
    0,
    0,
    0,
    0,
    0,
    0,
    0,
    0,
    0,
    0,
    0,
    0,
    0,
    0,
    0,
    0,
    0,
    0,
    0,
    0,
    0,
    0,
    0,
    0,
    0,
    0,
    0,
    0,
    0,
    0,
    0,
    0,
    0,
    0,
    0,
    0,
    0,
    0,
    0,
    0,
    0,
    0,
    0,
    0,
    0,
    0,
    0,
    0,
    0,
    0,
    0,
    0,
    0,
    0,
    0,
    0,
    0,
    0,
    0,
    0,
    0,
    0,
    0,
    0,
    0,
    0,
    0,
    0,
    0,
    0,
    0,
    0,
    0,
    0,
    0,
    0,
    0,
    0,
    0,
    0,
    0,
    0,
    0,
    0,
    0,
    0,
    0,
    0,
    0,
    0,
    0,
    0,
    0,
    0,
    0,
    0,
    0,
    0,
    0,
    0,
    0,
    0,
    0,
    0,
    0,
    0,
    0,
    0,
    0,
    0,
    0,
    0,
    0,
    0,
    0,
    0,
    0,
    0,
    0,
    0,
    0,
    0,
    0,
    0,
    0,
    0,
    0,
    0,
    0,
    0,
    0,
    0,
    0,
    0,
    0,
    0,
    0,
    0,
    0,
    0,
    0,
    0,
    0,
    0,
    0,
    0,
    0,
    0,
    0,
    0,
    0,
    0,
    0,
    0,
    0,
    0,
    0,
    0,
    0,
    0,
    0,
    0,
    0,
    0,
    0,
    0,
    0,
    0,
    0,
    0,
    0,
    0,
    0,
    0,
    0,
    0,
    0,
    0,
    0,
    0,
    0,
    0,
    0,
    0,
    0,
    0,
    0,
    0,
    0,
    0,
    0,
    0,
    0,
    0,
    0,
    0,
    0,
    0,
    0,
    0,
    0,
    0,
    0,
    0,
    0,
    0,
    0,
    0,
    0,
    0,
    0,
    0,
    0,
    0,
    0,
    0,
    0,
    0,
    0,
    0,
    0,
    0,
    0,
    0,
    0,
    0,
    0,
    0,
    0,
    0,
    0,
    0,
    0,
    0,
    0,
    0,
    0,
    0,
    0,
    0,
    0,
    0,
    0,
    0,
    0,
    0,
    0,
    0,
    0,
    0,
    0,
    0,
    0,
    0,
    0,
    0,
    0,
    0,
    0,
    0,
    0,
    0,
    0,
    0,
    0,
    0,
    0,
    0,
    0,
    0,
    0,
    0,
    0,
    0,
    0,
    0,
    0,
    0,
    0,
    0,
    0,
    0,
    0,
    0,
    0,
    0,
    0,
    0,
    0,
    0,
    0,
    0,
    0,
    0,
    0,
    0,
    0,
    0,
    0,
    0,
    0,
    0,
    0,
    0,
    0,
    0,
    0,
    0,
    0,
    0,
    0,
    0,
    0,
    0,
    0,
    0,
    0,
    0,
    0,
    0,
    0,
    0,
    0,
    0,
    0,
    0,
    0,
    0,
    0,
    0,
    0,
    0,
    0,
    0,
    0,
    0,
    0,
    0,
    0,
    0,
    0,
    0,
    0,
    0,
    0,
    0,
    0,
    0,
    0,
    0,
    0,
    0,
    0,
    0,
    0,
    0,
    0,
    0,
    0,
    0,
    0,
    0,
    0,
    0,
    0,
    0,
    0,
    0,
    0,
    0,
    0,
    0,
    0,
    0,
    0,
    0,
    0,
    0,
    0,
    0,
    0,
    0,
    0,
    0,
    0,
    0,
    0,
    0,
    0,
    0,
    0,
    0,
    0,
    0,
    0,
    0,
    0,
    0,
    0,
    0,
    0,
    0,
    0,
    0,
    0,
    0,
    0,
    0,
    0,
    0,
    0,
    0,
    0,
    0,
    0,
    0,
    0,
    0,
    0,
    0,
    0,
    0,
    0,
    0,
    0,
    0,
    0,
    0,
    0,
    0,
    0,
    0,
    0,
    0,
    0,
    0,
    0,
    0,
    0,
    0,
    0,
    0,
    0,
    0,
    0,
    0,
    0,
    0,
    0,
    0,
    0,
    0,
    0,
    0,
    0,
    0,
    0,
    0,
    0,
    0,
    0,
    0,
    0,
    0,
    0,
    0,
    0,
    0,
    0,
    0,
    0,
    0,
    0,
    0,
    0,
    0,
    0,
    0,
    0,
    0,
    0,
    0,
    0,
    0,
    0,
    0,
    0,
    0,
    0,
    0,
    0,
    0,
    0,
    0,
    0,
    0,
    0,
    0,
    0,
    0,
    0,
    0,
    0,
    0,
    0,
    0,
    0,
    0,
    0,
    0,
    0,
    0,
    0,
    0,
    0,
    0,
    0,
    0,
    0,
    0,
    0,
    0,
    0,
    0,
    0,
    0,
    0,
    0,
    0,
    0,
    0,
    0,
    0,
    0,
    0,
    0,
    0,
    0,
    0,
    0,
    0,
    0,
    0,
    0,
    0,
    0,
    0,
    0,
    0,
    0,
    0,
    0,
    0,
    0,
    0,
    0,
    0,
    0,
    0,
    0,
    0,
    0,
    0,
    0,
    0,
    0,
    0,
    0,
    0,
    0,
    0,
    0,
    0,
    0,
    0,
    0,
    0,
    0,
    0,
    0,
    0,
    0,
    0,
    0,
    0,
    0,
    0,
    0,
    0,
    0,
    0,
    0,
    0,
    0,
    0,
    0,
    0,
    0,
    0,
    0,
    0,
    0,
    0,
    0,
    0,
    0,
    0,
    0,
    0,
    0,
    0,
    0,
    0,
    0,
    0,
    0,
    0,
    0,
    0,
    0,
    0,
    0,
    0,
    0,
    0,
    0,
    0,
    0,
    0,
    0,
    0,
    0,
    0,
    0,
    0,
    0,
    0,
    0,
    0,
    0,
    0,
    0,
    0,
    0,
    0,
    0,
    0,
    0,
    0,
    0,
    0,
    0,
    0,
    0,
    0,
    0,
    0,
    0,
    0,
    0,
    0,
    0,
    0,
    0,
    0,
    0,
    0,
    0,
    0,
    0,
    0,
    0,
    0,
    0,
    0,
    0,
    0,
    0,
    0,
    0,
    0,
    0,
    0,
    0,
    0,
    0,
    0,
    0,
    0,
    0,
    0,
    0,
    0,
    0,
    0,
    0,
    0,
    0,
    0,
    0,
    0,
    0,
    0,
    0,
    0,
    0,
    0,
    0,
    0,
    0,
    0,
    0,
    0,
    0,
    0,
    0,
    0,
    0,
    0,
    0,
    0,
    0,
    0,
    0,
    0,
    0,
    0,
    0,
    0,
    0,
    0,
    0,
    0,
    0,
    0,
    0,
    0,
    0,
    0,
    0,
    0,
    0,
    0,
    0,
    0,
    0,
    0,
    0,
    0,
    0,
    0,
    0,
    0,
    0,
    0,
    0,
    0,
    0,
    0,
    0,
    0,
    0,
    0,
    0,
    0,
    0,
    0,
    0,
    0,
    0,
    0,
    0,
    0,
    0,
    0,
    0,
    0,
    0,
    0,
    0,
    0,
    0,
    0,
    0,
    0,
    0,
    0,
    0,
    0,
    0,
    0,
    0,
    0,
    0,
    0,
    0,
    0,
    0,
    0,
    0,
    0,
    0,
    0,
    0,
    0,
    0,
    0,
    0,
    0,
    0,
    0,
    0,
    0,
    0,
    0,
    0,
    0,
    0,
    0,
    0,
    0,
    0,
    0,
    0,
    0,
    0,
    0,
    0,
    0,
    0,
    0,
    0,
    0,
    0,
    0,
    0,
    0,
    0,
    0,
    0,
    0,
    0,
    0,
    0,
    0,
    0,
    0,
    0,
    0,
    0,
    0,
    0,
    0,
    0,
    0,
    0,
    0,
    0,
    0,
    0,
    0,
    0,
    0,
    0,
    0,
    0,
    0,
    0,
    0,
    0,
    0,
    0,
    0,
    0,
    0,
    0,
    0,
    0,
    0,
    0,
    0,
    0,
    0,
    0,
    0,
    0,
    0,
    0,
    0,
    0,
    0,
    0,
    0,
    0,
    0,
    0,
    0,
    0,
    0,
    0,
    0,
    0,
    0,
    0,
    0,
    0,
    0,
    0,
    0,
    0,
    0,
    0,
    0,
    0,
    0,
    0,
    0,
    0,
    0,
    0,
    0,
    0,
    0,
    0,
    0,
    0,
    0,
    0,
    0,
    0,
    0,
    0,
    0,
    0,
    0,
    0,
    0,
    0,
    0,
    0,
    0,
    0,
    0,
    0,
    0,
    0,
    0,
    0,
    0,
    0,
    0,
    0,
    0,
    0,
    0,
    0,
    0,
    0,
    0,
    0,
    0,
    0,
    0,
    0,
    0,
    0,
    0,
    0,
    0,
    0,
    0,
    0,
    0,
    0,
    0,
    0,
    0,
    0,
    0,
    0,
    0,
    0,
    0,
    0,
    0,
    0,
    0,
    0,
    0,
    0,
    0,
    0,
    0,
    0,
    0,
    0,
    0,
    0,
    0,
    0,
    0,
    0,
    0,
    0,
    0,
    0,
    0,
    0,
    0,
    0,
    0,
    0,
    0,
    0,
    0,
    0,
    0,
    0,
    0,
    0,
    0,
    0,
    0,
    0,
    0,
    0,
    0,
    0,
    0,
    0,
    0,
    0,
    0,
    0,
    0,
    0,
    0,
    0,
    0,
    0,
    0,
    0,
    0,
    0,
    0,
    0,
    0,
    0,
    0,
    0,
    0,
    0,
    0,
    0,
    0,
    0,
    0,
    0,
    0,
    0,
    0,
    0,
    0,
    0,
    0,
    0,
    0,
    0,
    0,
    0,
    0,
    0,
    0,
    0,
    0,
    0,
    0,
    0,
    0,
    0,
    0,
    0,
    0,
    0,
    0,
    0,
    0,
    0,
    0,
    0,
    0,
    0,
    0,
    0,
    0,
    0,
    0,
    0,
    0,
    0,
    0,
    0,
    0,
    0,
    0,
    0,
    0,
    0,
    0,
    0,
    0,
    0,
    0,
    0,
    0,
    0,
    0,
    0,
    0,
    0,
    0,
    0,
    0,
    0,
    0,
    0,
    0,
    0,
    0,
    0,
    0,
    0,
    0,
    0,
    0,
    0,
    0,
    0,
    0,
    0,
    0,
    0,
    0,
    0,
    0,
    0,
    0,
    0,
    0,
    0,
    0,
    0,
    0,
    0,
    0,
    0,
    0,
    0,
    0,
    0,
    0,
    0,
    0,
    0,
    0,
    0,
    0,
    0,
    0,
    0,
    0,
    0,
    0,
    0,
    0,
    0,
    0,
    0,
    0,
    0,
    0,
    0,
    0,
    0,
    0,
    0,
    0,
    0,
    0,
    0,
    0,
    0,
    0,
    0,
    0,
    0,
    0,
    0,
    0,
    0,
    0,
    0,
    0,
    0,
    0,
    0,
    0,
    0,
    0,
    0,
    0,
    0,
    0,
    0,
    0,
    0,
    0,
    0,
    0,
    0,
    0,
    0,
    0,
    0,
    0,
    0,
    0,
    0,
    0,
    0,
    0,
    0,
    0,
    0,
    0,
    0,
    0,
    0,
    0,
    0,
    0,
    0,
    0,
    0,
    0,
    0,
    0,
    0,
    0,
    0,
    0,
    0,
    0,
    0,
    0,
    0,
    0,
    0,
    0,
    0,
    0,
    0,
    0,
    0,
    0,
    0,
    0,
    0,
    0,
    0,
    0,
    0,
    0,
    0,
    0,
    0,
    0,
    0,
    0,
    0,
    0,
    0,
    0,
    0,
    0,
    0,
    0,
    0,
    0,
    0,
    0,
    0,
    0,
    0,
    0,
    0,
    0,
    0,
    0,
    0,
    0,
    0,
    0,
    0,
    0,
    0,
    0,
    0,
    0,
    0,
    0,
    0,
    0,
    0,
    0,
    0,
    0,
    0,
    0,
    0,
    0,
    0,
    0,
    0,
    0,
    0,
    0,
    0,
    0,
    0,
    0,
    0,
    0,
    0,
    0,
    0,
    0,
    0,
    0,
    0,
    0,
    0,
    0,
    0,
    0,
    0,
    0,
    0,
    0,
    0,
    0,
    0,
    0,
    0,
    0,
    0,
    0,
    0,
    0,
    0,
    0,
    0,
    0,
    0,
    0,
    0,
    0,
    0,
    0,
    0,
    0,
    0,
    0,
    0,
    0,
    0,
    0,
    0,
    0,
    0,
    0,
    0,
    0,
    0,
    0,
    0,
    0,
    0,
    0,
    0,
    0,
    0,
    0,
    0,
    0,
    0,
    0,
    0,
    0,
    0,
    0,
    0,
    0,
    0,
    0,
    0,
    0,
    0,
    0,
    0,
    0,
    0,
    0,
    0,
    0,
    0,
    0,
    0,
    0,
    0,
    0,
    0,
    0,
    0,
    0,
    0,
    0,
    0,
    0,
    0,
    0,
    0,
    0,
    0,
    0,
    0,
    0,
    0,
    0,
    0,
    0,
    0,
    0,
    0,
    0,
    0,
    0,
    0,
    0,
    0,
    0,
    0,
    0,
    0,
    0,
    0,
    0,
    0,
    0,
    0,
    0,
    0,
    0,
    0,
    0,
    0,
    0,
    0,
    0,
    0,
    0,
    0,
    0,
    0,
    0,
    0,
    0,
    0,
    0,
    0,
    0,
    0,
    0,
    0,
    0,
    0,
    0,
    0,
    0,
    0,
    0,
    0,
    0,
    0,
    0,
    0,
    0,
    0,
    0,
    0,
    0,
    0,
    0,
    0,
    0,
    0,
    0,
    0,
    0,
    0,
    0,
    0,
    0,
    0,
    0,
    0,
    0,
    0,
    0,
    0,
    0,
    0,
    0,
    0,
    0,
    0,
    0,
    0,
    0,
    0,
    0,
    0,
    0,
    0,
    0,
    0,
    0,
    0,
    0,
    0,
    0,
    0,
    0,
    0,
    0,
    0,
    0,
    0,
    0,
    0,
    0,
    0,
    0,
    0,
    0,
    0,
    0,
    0,
    0,
    0,
    0,
    0,
    0,
    0,
    0,
    0,
    0,
    0,
    0,
    0,
    0,
    0,
    0,
    0,
    0,
    0,
    0,
    0,
    0,
    0,
    0,
    0,
    0,
    0,
    0,
    0,
    0,
    0,
    0,
    0,
    0,
    0,
    0,
    0,
    0,
    0,
    0,
    0,
    0,
    0,
    0,
    0,
    0,
    0,
    0,
    0,
    0,
    0,
    0,
    0,
    0,
    0,
    0,
    0,
    0,
    0,
    0,
    0,
    0,
    0,
    0,
    0,
    0,
    0,
    0,
    0,
    0,
    0,
    0,
    0,
    0,
    0,
    0,
    0,
    0,
    0,
    0,
    0,
    0,
    0,
    0,
    0,
    0,
    0,
    0,
    0,
    0,
    0,
    0,
    0,
    0,
    0,
    0,
    0,
    0,
    0,
    0,
    0,
    0,
    0,
    0,
    0,
    0,
    0,
    0,
    0,
    0,
    0,
    0,
    0,
    0,
    0,
    0,
    0,
    0,
    0,
    0,
    0,
    0,
    0,
    0,
    0,
    0,
    0,
    0,
    0,
    0,
    0,
    0,
    0,
    0,
    0,
    0,
    0,
    0,
    0,
    0,
    0,
    0,
    0,
    0,
    0,
    0,
    0,
    0,
    0,
    0,
    0,
    0,
    0,
    0,
    0,
    0,
    0,
    0,
    0,
    0,
    0,
    0,
    0,
    0,
    0,
    0,
    0,
    0,
    0,
    0,
    0,
    0,
    0,
    0,
    0,
    0,
    0,
    0,
    0,
    0,
    0,
    0,
    0,
    0,
    0,
    0,
    0,
    0,
    0,
    0,
    0,
    0,
    0,
    0,
    0,
    0,
    0,
    0,
    0,
    0,
    0,
    0,
    0,
    0,
    0,
    0,
    0,
    0,
    0,
    0,
    0,
    0,
    0,
    0,
    0,
    0,
    0,
    0,
    0,
    0,
    0,
    0,
    0,
    0,
    0,
    0,
    0,
    0,
    0,
    0,
    0,
    0,
    0,
    0,
    0,
    0,
    0,
    0,
    0,
    0,
    0,
    0,
    0,
    0,
    0,
    0,
    0,
    0,
    0,
    0,
    0,
    0,
    0,
    0,
    0,
    0,
    0,
    0,
    0,
    0,
    0,
    0,
    0,
    0,
    0,
    0,
    0,
    0,
    0,
    0,
    0,
    0,
    0,
    0,
    0,
    0,
    0,
    0,
    0,
    0,
    0,
    0,
    0,
    0,
    0,
    0,
    0,
    0,
    0,
    0,
    0,
    0,
    0,
    0,
    0,
    0,
    0,
    0,
    0,
    0,
    0,
    0,
    0,
    0,
    0,
    0,
    0,
    0,
    0,
    0,
    0,
    0,
    0,
    0,
    0,
    0,
    0,
    0,
    0,
    0,
    0,
    0,
    0,
    0,
    0,
    0,
    0,
    0,
    0,
    0,
    0,
    0,
    0,
    0,
    0,
    0,
    0,
    0,
    0
   ]
  },
  {
   "name": "walls",
   "type": "tilelayer",
   "visible": true,
   "opacity": 1,
   "x": 0,
   "y": 0,
   "width": 94,
   "height": 123,
   "data": [
    0,
    0,
    0,
    0,
    0,
    0,
    0,
    0,
    0,
    0,
    0,
    0,
    0,
    0,
    0,
    0,
    0,
    0,
    0,
    0,
    0,
    0,
    0,
    0,
    0,
    0,
    0,
    0,
    0,
    0,
    0,
    0,
    0,
    0,
    0,
    0,
    0,
    0,
    0,
    0,
    0,
    0,
    0,
    0,
    0,
    0,
    0,
    0,
    0,
    0,
    0,
    0,
    0,
    0,
    0,
    0,
    0,
    0,
    0,
    0,
    0,
    0,
    0,
    0,
    0,
    0,
    0,
    0,
    0,
    0,
    0,
    0,
    0,
    0,
    0,
    0,
    0,
    0,
    0,
    0,
    0,
    0,
    0,
    0,
    0,
    0,
    0,
    0,
    0,
    0,
    0,
    0,
    0,
    0,
    0,
    0,
    0,
    0,
    0,
    0,
    0,
    0,
    0,
    0,
    0,
    0,
    0,
    0,
    0,
    0,
    0,
    0,
    0,
    0,
    0,
    0,
    0,
    0,
    0,
    0,
    0,
    0,
    0,
    0,
    0,
    0,
    0,
    0,
    0,
    0,
    0,
    0,
    0,
    0,
    0,
    0,
    0,
    0,
    0,
    0,
    0,
    0,
    0,
    0,
    0,
    0,
    0,
    0,
    0,
    0,
    0,
    0,
    0,
    0,
    0,
    0,
    0,
    0,
    0,
    0,
    0,
    0,
    0,
    0,
    0,
    0,
    0,
    0,
    0,
    0,
    0,
    0,
    0,
    0,
    0,
    0,
    0,
    0,
    0,
    0,
    0,
    0,
    0,
    0,
    0,
    0,
    0,
    0,
    0,
    0,
    0,
    0,
    0,
    0,
    0,
    0,
    0,
    0,
    0,
    0,
    0,
    0,
    0,
    0,
    0,
    0,
    0,
    0,
    0,
    0,
    0,
    0,
    0,
    0,
    0,
    0,
    0,
    0,
    0,
    0,
    0,
    0,
    0,
    0,
    0,
    0,
    0,
    0,
    0,
    0,
    0,
    0,
    0,
    0,
    0,
    0,
    0,
    0,
    0,
    0,
    0,
    0,
    0,
    0,
    0,
    0,
    0,
    0,
    0,
    0,
    0,
    0,
    0,
    0,
    0,
    0,
    0,
    0,
    0,
    0,
    0,
    0,
    0,
    0,
    0,
    0,
    0,
    0,
    0,
    0,
    0,
    0,
    0,
    0,
    0,
    0,
    0,
    0,
    0,
    0,
    0,
    0,
    0,
    0,
    0,
    0,
    0,
    0,
    0,
    0,
    0,
    0,
    0,
    0,
    0,
    0,
    0,
    0,
    0,
    0,
    0,
    0,
    0,
    0,
    0,
    0,
    0,
    0,
    0,
    0,
    0,
    0,
    0,
    0,
    0,
    0,
    0,
    0,
    0,
    0,
    0,
    0,
    0,
    0,
    0,
    0,
    0,
    0,
    0,
    0,
    0,
    0,
    0,
    0,
    0,
    0,
    0,
    0,
    0,
    0,
    0,
    0,
    0,
    0,
    0,
    0,
    0,
    0,
    0,
    0,
    0,
    0,
    0,
    0,
    0,
    0,
    0,
    0,
    0,
    0,
    0,
    0,
    0,
    0,
    0,
    0,
    0,
    0,
    0,
    0,
    0,
    0,
    0,
    0,
    0,
    0,
    0,
    0,
    0,
    0,
    0,
    0,
    0,
    0,
    0,
    0,
    0,
    0,
    0,
    0,
    0,
    0,
    0,
    0,
    0,
    0,
    0,
    0,
    0,
    0,
    0,
    0,
    0,
    0,
    0,
    0,
    0,
    0,
    0,
    0,
    0,
    0,
    0,
    0,
    0,
    0,
    0,
    0,
    0,
    0,
    0,
    0,
    0,
    0,
    0,
    0,
    0,
    0,
    0,
    0,
    0,
    0,
    0,
    0,
    0,
    0,
    0,
    0,
    0,
    0,
    0,
    0,
    0,
    0,
    0,
    0,
    0,
    0,
    0,
    0,
    0,
    0,
    0,
    0,
    0,
    0,
    0,
    0,
    0,
    0,
    0,
    0,
    0,
    0,
    0,
    0,
    0,
    0,
    0,
    0,
    0,
    0,
    0,
    0,
    0,
    0,
    0,
    0,
    0,
    0,
    0,
    0,
    0,
    0,
    0,
    0,
    0,
    0,
    0,
    0,
    0,
    0,
    0,
    0,
    0,
    0,
    0,
    0,
    0,
    0,
    0,
    0,
    0,
    0,
    0,
    0,
    0,
    0,
    0,
    0,
    0,
    0,
    0,
    0,
    0,
    0,
    0,
    0,
    0,
    0,
    0,
    0,
    0,
    0,
    0,
    0,
    0,
    0,
    0,
    0,
    0,
    0,
    0,
    0,
    0,
    0,
    0,
    0,
    0,
    0,
    0,
    0,
    0,
    0,
    0,
    0,
    0,
    0,
    0,
    0,
    0,
    0,
    0,
    0,
    0,
    0,
    0,
    0,
    0,
    0,
    0,
    0,
    0,
    0,
    0,
    0,
    0,
    0,
    0,
    0,
    0,
    0,
    0,
    0,
    0,
    0,
    0,
    0,
    0,
    0,
    0,
    0,
    0,
    0,
    0,
    0,
    0,
    0,
    0,
    0,
    0,
    0,
    0,
    0,
    0,
    0,
    0,
    0,
    0,
    0,
    0,
    0,
    0,
    0,
    0,
    0,
    0,
    0,
    0,
    0,
    0,
    0,
    0,
    0,
    0,
    0,
    0,
    0,
    0,
    0,
    0,
    0,
    0,
    0,
    0,
    0,
    0,
    0,
    0,
    0,
    0,
    0,
    0,
    0,
    0,
    0,
    0,
    0,
    0,
    0,
    0,
    0,
    0,
    0,
    0,
    0,
    0,
    0,
    0,
    0,
    0,
    0,
    0,
    0,
    0,
    0,
    0,
    0,
    0,
    0,
    0,
    0,
    0,
    0,
    0,
    0,
    0,
    0,
    0,
    0,
    0,
    0,
    0,
    0,
    0,
    0,
    0,
    0,
    0,
    0,
    0,
    0,
    0,
    0,
    0,
    0,
    0,
    0,
    0,
    0,
    0,
    0,
    0,
    0,
    0,
    0,
    0,
    0,
    0,
    0,
    0,
    0,
    0,
    0,
    0,
    0,
    0,
    0,
    0,
    0,
    0,
    0,
    0,
    0,
    0,
    0,
    0,
    0,
    0,
    0,
    0,
    0,
    0,
    0,
    0,
    0,
    0,
    0,
    0,
    0,
    0,
    0,
    0,
    0,
    0,
    0,
    0,
    0,
    0,
    0,
    0,
    0,
    0,
    0,
    0,
    0,
    0,
    0,
    0,
    0,
    0,
    0,
    0,
    0,
    0,
    0,
    0,
    0,
    0,
    0,
    0,
    0,
    0,
    0,
    0,
    0,
    0,
    0,
    0,
    0,
    0,
    0,
    0,
    0,
    0,
    0,
    0,
    0,
    0,
    0,
    0,
    0,
    0,
    0,
    0,
    0,
    0,
    0,
    0,
    0,
    0,
    0,
    0,
    0,
    0,
    0,
    0,
    0,
    0,
    0,
    0,
    0,
    0,
    0,
    0,
    0,
    0,
    0,
    0,
    0,
    0,
    0,
    0,
    0,
    0,
    0,
    0,
    0,
    0,
    0,
    0,
    0,
    0,
    0,
    0,
    0,
    0,
    0,
    0,
    0,
    0,
    0,
    0,
    0,
    0,
    0,
    0,
    0,
    0,
    0,
    0,
    0,
    0,
    0,
    0,
    0,
    0,
    0,
    0,
    0,
    0,
    0,
    0,
    0,
    0,
    0,
    0,
    0,
    0,
    0,
    0,
    0,
    0,
    0,
    0,
    0,
    0,
    0,
    0,
    0,
    0,
    0,
    0,
    0,
    0,
    0,
    0,
    0,
    0,
    0,
    0,
    0,
    0,
    0,
    0,
    0,
    0,
    0,
    0,
    0,
    0,
    0,
    0,
    0,
    0,
    0,
    0,
    0,
    0,
    0,
    0,
    0,
    0,
    0,
    0,
    0,
    0,
    0,
    0,
    0,
    0,
    0,
    0,
    0,
    0,
    0,
    0,
    0,
    0,
    0,
    0,
    0,
    0,
    0,
    0,
    0,
    0,
    0,
    0,
    0,
    0,
    0,
    0,
    0,
    0,
    0,
    0,
    0,
    0,
    0,
    0,
    0,
    0,
    0,
    0,
    0,
    0,
    0,
    0,
    0,
    0,
    0,
    0,
    0,
    0,
    0,
    0,
    0,
    0,
    0,
    0,
    0,
    0,
    0,
    0,
    0,
    0,
    0,
    0,
    0,
    0,
    0,
    0,
    0,
    0,
    0,
    0,
    0,
    0,
    0,
    0,
    0,
    0,
    0,
    0,
    0,
    0,
    0,
    0,
    0,
    0,
    0,
    0,
    0,
    0,
    0,
    0,
    0,
    0,
    0,
    0,
    0,
    0,
    0,
    0,
    0,
    0,
    0,
    0,
    0,
    0,
    0,
    0,
    0,
    0,
    0,
    0,
    0,
    0,
    0,
    0,
    0,
    0,
    0,
    0,
    0,
    0,
    0,
    0,
    0,
    0,
    0,
    0,
    0,
    0,
    0,
    0,
    0,
    0,
    0,
    0,
    0,
    0,
    0,
    0,
    0,
    0,
    0,
    0,
    0,
    0,
    0,
    0,
    0,
    0,
    0,
    0,
    0,
    0,
    0,
    0,
    0,
    0,
    0,
    0,
    0,
    0,
    0,
    0,
    0,
    0,
    0,
    0,
    0,
    0,
    0,
    0,
    0,
    0,
    0,
    0,
    0,
    0,
    0,
    0,
    0,
    0,
    0,
    0,
    0,
    0,
    0,
    0,
    0,
    0,
    0,
    0,
    0,
    0,
    0,
    0,
    0,
    0,
    0,
    0,
    0,
    0,
    0,
    0,
    0,
    0,
    0,
    0,
    0,
    0,
    0,
    0,
    0,
    0,
    0,
    0,
    0,
    0,
    0,
    0,
    0,
    0,
    0,
    0,
    0,
    0,
    0,
    0,
    0,
    0,
    0,
    0,
    0,
    0,
    0,
    0,
    0,
    0,
    0,
    0,
    0,
    0,
    0,
    0,
    0,
    0,
    0,
    0,
    0,
    0,
    0,
    0,
    0,
    0,
    0,
    0,
    0,
    0,
    0,
    0,
    0,
    0,
    0,
    0,
    0,
    0,
    0,
    0,
    0,
    0,
    0,
    0,
    0,
    0,
    0,
    0,
    0,
    0,
    0,
    0,
    0,
    0,
    0,
    0,
    0,
    0,
    0,
    0,
    0,
    0,
    0,
    0,
    0,
    0,
    0,
    0,
    0,
    0,
    0,
    0,
    0,
    0,
    0,
    0,
    0,
    0,
    0,
    0,
    0,
    0,
    0,
    0,
    0,
    0,
    0,
    0,
    0,
    0,
    0,
    0,
    0,
    0,
    0,
    0,
    0,
    0,
    0,
    0,
    0,
    0,
    0,
    0,
    0,
    0,
    0,
    0,
    0,
    0,
    0,
    0,
    0,
    0,
    0,
    0,
    0,
    0,
    0,
    0,
    0,
    0,
    0,
    0,
    0,
    0,
    0,
    0,
    0,
    0,
    0,
    0,
    0,
    0,
    0,
    0,
    0,
    0,
    0,
    0,
    0,
    0,
    0,
    0,
    0,
    0,
    0,
    0,
    0,
    0,
    0,
    0,
    0,
    0,
    0,
    0,
    0,
    0,
    0,
    0,
    0,
    0,
    0,
    0,
    0,
    0,
    0,
    0,
    0,
    0,
    0,
    0,
    0,
    0,
    0,
    0,
    0,
    0,
    0,
    0,
    0,
    0,
    0,
    0,
    0,
    0,
    0,
    86,
    21,
    21,
    21,
    21,
    21,
    21,
    82,
    0,
    0,
    0,
    86,
    21,
    21,
    21,
    21,
    21,
    21,
    82,
    0,
    0,
    0,
    86,
    21,
    21,
    21,
    21,
    21,
    21,
    82,
    0,
    0,
    0,
    86,
    21,
    21,
    21,
    21,
    21,
    21,
    82,
    0,
    0,
    0,
    86,
    21,
    21,
    21,
    21,
    21,
    21,
    82,
    0,
    0,
    0,
    86,
    21,
    21,
    21,
    21,
    21,
    21,
    82,
    0,
    0,
    0,
    86,
    21,
    21,
    21,
    21,
    21,
    21,
    82,
    0,
    0,
    0,
    86,
    21,
    21,
    21,
    21,
    21,
    21,
    82,
    0,
    0,
    0,
    0,
    0,
    0,
    0,
    0,
    0,
    83,
    0,
    0,
    0,
    0,
    0,
    0,
    83,
    0,
    0,
    0,
    83,
    0,
    0,
    0,
    0,
    0,
    0,
    83,
    0,
    0,
    0,
    83,
    0,
    0,
    0,
    0,
    0,
    0,
    83,
    0,
    0,
    0,
    83,
    0,
    0,
    0,
    0,
    0,
    0,
    83,
    0,
    0,
    0,
    83,
    0,
    0,
    0,
    0,
    0,
    0,
    83,
    0,
    0,
    0,
    83,
    0,
    0,
    0,
    0,
    0,
    0,
    83,
    0,
    0,
    0,
    83,
    0,
    0,
    0,
    0,
    0,
    0,
    83,
    0,
    0,
    0,
    83,
    0,
    0,
    0,
    0,
    0,
    0,
    83,
    0,
    0,
    0,
    0,
    0,
    0,
    0,
    0,
    0,
    83,
    0,
    0,
    0,
    0,
    0,
    0,
    83,
    0,
    0,
    0,
    83,
    0,
    0,
    0,
    0,
    0,
    0,
    83,
    0,
    0,
    0,
    83,
    0,
    0,
    0,
    0,
    0,
    0,
    83,
    0,
    0,
    0,
    83,
    0,
    0,
    0,
    0,
    0,
    0,
    83,
    0,
    0,
    0,
    83,
    0,
    0,
    0,
    0,
    0,
    0,
    83,
    0,
    0,
    0,
    83,
    0,
    0,
    0,
    0,
    0,
    0,
    83,
    0,
    0,
    0,
    83,
    0,
    0,
    0,
    0,
    0,
    0,
    83,
    0,
    0,
    0,
    83,
    0,
    0,
    0,
    0,
    0,
    0,
    83,
    0,
    0,
    0,
    0,
    0,
    0,
    0,
    0,
    0,
    83,
    0,
    0,
    0,
    0,
    0,
    0,
    83,
    0,
    0,
    0,
    83,
    0,
    0,
    0,
    0,
    0,
    0,
    83,
    0,
    0,
    0,
    83,
    0,
    0,
    0,
    0,
    0,
    0,
    83,
    0,
    0,
    0,
    83,
    0,
    0,
    0,
    0,
    0,
    0,
    83,
    0,
    0,
    0,
    83,
    0,
    0,
    0,
    0,
    0,
    0,
    83,
    0,
    0,
    0,
    83,
    0,
    0,
    0,
    0,
    0,
    0,
    83,
    0,
    0,
    0,
    83,
    0,
    0,
    0,
    0,
    0,
    0,
    83,
    0,
    0,
    0,
    83,
    0,
    0,
    0,
    0,
    0,
    0,
    83,
    0,
    0,
    0,
    0,
    0,
    0,
    0,
    0,
    0,
    83,
    0,
    0,
    0,
    0,
    0,
    0,
    0,
    0,
    0,
    0,
    83,
    0,
    0,
    0,
    0,
    0,
    0,
    83,
    0,
    0,
    0,
    83,
    0,
    0,
    0,
    0,
    0,
    0,
    83,
    0,
    0,
    0,
    83,
    0,
    0,
    0,
    0,
    0,
    0,
    83,
    0,
    0,
    0,
    83,
    0,
    0,
    0,
    0,
    0,
    0,
    83,
    0,
    0,
    0,
    83,
    0,
    0,
    0,
    0,
    0,
    0,
    83,
    0,
    0,
    0,
    83,
    0,
    0,
    0,
    0,
    0,
    0,
    83,
    0,
    0,
    0,
    0,
    0,
    0,
    0,
    0,
    0,
    0,
    83,
    0,
    0,
    0,
    0,
    0,
    0,
    0,
    0,
    0,
    83,
    0,
    0,
    0,
    0,
    0,
    0,
    0,
    0,
    0,
    0,
    83,
    0,
    0,
    0,
    0,
    0,
    0,
    83,
    0,
    0,
    0,
    83,
    0,
    0,
    0,
    0,
    0,
    0,
    83,
    0,
    0,
    0,
    83,
    0,
    0,
    0,
    0,
    0,
    0,
    83,
    0,
    0,
    0,
    83,
    0,
    0,
    0,
    0,
    0,
    0,
    83,
    0,
    0,
    0,
    83,
    0,
    0,
    0,
    0,
    0,
    0,
    83,
    0,
    0,
    0,
    83,
    0,
    0,
    0,
    0,
    0,
    0,
    83,
    0,
    0,
    0,
    0,
    0,
    0,
    0,
    0,
    0,
    0,
    83,
    0,
    0,
    0,
    0,
    0,
    0,
    0,
    0,
    0,
    83,
    0,
    0,
    0,
    0,
    0,
    0,
    83,
    0,
    0,
    0,
    83,
    0,
    0,
    0,
    0,
    0,
    0,
    83,
    0,
    0,
    0,
    83,
    0,
    0,
    0,
    0,
    0,
    0,
    83,
    0,
    0,
    0,
    83,
    0,
    0,
    0,
    0,
    0,
    0,
    83,
    0,
    0,
    0,
    83,
    0,
    0,
    0,
    0,
    0,
    0,
    83,
    0,
    0,
    0,
    83,
    0,
    0,
    0,
    0,
    0,
    0,
    83,
    0,
    0,
    0,
    83,
    0,
    0,
    0,
    0,
    0,
    0,
    83,
    0,
    0,
    0,
    83,
    0,
    0,
    0,
    0,
    0,
    0,
    83,
    0,
    0,
    0,
    0,
    0,
    0,
    0,
    0,
    0,
    83,
    0,
    0,
    0,
    0,
    0,
    0,
    83,
    0,
    0,
    0,
    83,
    0,
    0,
    0,
    0,
    0,
    0,
    83,
    0,
    0,
    0,
    83,
    0,
    0,
    0,
    0,
    0,
    0,
    83,
    0,
    0,
    0,
    83,
    0,
    0,
    0,
    0,
    0,
    0,
    83,
    0,
    0,
    0,
    83,
    0,
    0,
    0,
    0,
    0,
    0,
    83,
    0,
    0,
    0,
    83,
    0,
    0,
    0,
    0,
    0,
    0,
    83,
    0,
    0,
    0,
    83,
    0,
    0,
    0,
    0,
    0,
    0,
    83,
    0,
    0,
    0,
    83,
    0,
    0,
    0,
    0,
    0,
    0,
    83,
    0,
    0,
    0,
    0,
    0,
    0,
    0,
    0,
    0,
    83,
    8,
    8,
    8,
    8,
    8,
    8,
    45,
    0,
    0,
    0,
    83,
    8,
    8,
    0,
    0,
    8,
    8,
    45,
    0,
    0,
    0,
    83,
    8,
    8,
    0,
    0,
    8,
    8,
    45,
    0,
    0,
    0,
    83,
    8,
    8,
    0,
    0,
    8,
    8,
    45,
    0,
    0,
    0,
    83,
    8,
    8,
    0,
    0,
    8,
    8,
    45,
    0,
    0,
    0,
    83,
    8,
    8,
    0,
    0,
    8,
    8,
    45,
    0,
    0,
    0,
    83,
    8,
    8,
    0,
    0,
    8,
    8,
    45,
    0,
    0,
    0,
    83,
    8,
    8,
    8,
    8,
    8,
    8,
    45,
    0,
    0,
    0,
    0,
    0,
    0,
    0,
    0,
    0,
    0,
    0,
    0,
    0,
    0,
    0,
    0,
    0,
    0,
    0,
    0,
    0,
    0,
    0,
    0,
    0,
    0,
    0,
    0,
    0,
    0,
    0,
    0,
    0,
    0,
    0,
    0,
    0,
    0,
    0,
    0,
    0,
    0,
    0,
    0,
    0,
    0,
    0,
    0,
    0,
    0,
    0,
    0,
    0,
    0,
    0,
    0,
    0,
    0,
    0,
    0,
    0,
    0,
    0,
    0,
    0,
    0,
    0,
    0,
    0,
    0,
    0,
    0,
    0,
    0,
    0,
    0,
    0,
    0,
    0,
    0,
    0,
    0,
    0,
    0,
    0,
    0,
    0,
    0,
    0,
    0,
    0,
    0,
    0,
    0,
    0,
    0,
    0,
    0,
    0,
    0,
    0,
    0,
    0,
    0,
    0,
    0,
    0,
    0,
    0,
    0,
    0,
    0,
    0,
    0,
    0,
    0,
    0,
    0,
    0,
    0,
    0,
    0,
    0,
    0,
    0,
    0,
    0,
    0,
    0,
    0,
    0,
    0,
    0,
    0,
    0,
    0,
    0,
    0,
    0,
    0,
    0,
    0,
    0,
    0,
    0,
    0,
    0,
    0,
    0,
    0,
    0,
    0,
    0,
    0,
    0,
    0,
    0,
    0,
    0,
    0,
    0,
    0,
    0,
    0,
    0,
    0,
    0,
    0,
    0,
    0,
    0,
    0,
    0,
    0,
    0,
    0,
    0,
    0,
    0,
    0,
    0,
    0,
    0,
    0,
    0,
    0,
    0,
    0,
    0,
    0,
    0,
    0,
    0,
    0,
    0,
    0,
    0,
    0,
    0,
    0,
    0,
    0,
    0,
    0,
    0,
    0,
    0,
    0,
    0,
    0,
    0,
    0,
    0,
    0,
    0,
    0,
    0,
    0,
    0,
    0,
    0,
    0,
    0,
    0,
    0,
    0,
    0,
    0,
    0,
    0,
    0,
    0,
    0,
    0,
    0,
    0,
    0,
    0,
    0,
    0,
    0,
    0,
    0,
    0,
    0,
    0,
    0,
    0,
    0,
    0,
    0,
    0,
    0,
    0,
    0,
    0,
    0,
    0,
    0,
    0,
    0,
    0,
    0,
    0,
    0,
    0,
    0,
    0,
    0,
    0,
    0,
    0,
    0,
    0,
    0,
    0,
    0,
    0,
    0,
    0,
    0,
    0,
    0,
    0,
    0,
    0,
    0,
    0,
    0,
    0,
    0,
    86,
    21,
    21,
    21,
    21,
    21,
    21,
    82,
    0,
    0,
    0,
    0,
    0,
    0,
    0,
    0,
    0,
    0,
    0,
    0,
    0,
    0,
    0,
    0,
    0,
    0,
    0,
    0,
    0,
    0,
    0,
    0,
    0,
    0,
    0,
    0,
    0,
    0,
    0,
    0,
    0,
    0,
    0,
    0,
    0,
    0,
    0,
    0,
    0,
    0,
    0,
    0,
    0,
    0,
    0,
    0,
    0,
    0,
    0,
    0,
    0,
    0,
    0,
    0,
    0,
    0,
    0,
    0,
    0,
    0,
    0,
    0,
    0,
    0,
    0,
    0,
    0,
    86,
    21,
    21,
    21,
    21,
    21,
    21,
    82,
    0,
    0,
    0,
    0,
    0,
    0,
    0,
    0,
    0,
    83,
    0,
    0,
    0,
    0,
    0,
    0,
    83,
    0,
    0,
    0,
    0,
    0,
    0,
    0,
    0,
    0,
    0,
    0,
    0,
    0,
    0,
    0,
    0,
    0,
    0,
    0,
    0,
    0,
    0,
    0,
    0,
    0,
    0,
    0,
    0,
    0,
    0,
    0,
    0,
    0,
    0,
    0,
    0,
    0,
    0,
    0,
    0,
    0,
    0,
    0,
    0,
    0,
    0,
    0,
    0,
    0,
    0,
    0,
    0,
    0,
    0,
    0,
    0,
    0,
    0,
    0,
    0,
    0,
    0,
    0,
    0,
    0,
    0,
    0,
    0,
    0,
    83,
    0,
    0,
    0,
    0,
    0,
    0,
    83,
    0,
    0,
    0,
    0,
    0,
    0,
    0,
    0,
    0,
    83,
    0,
    0,
    0,
    0,
    0,
    0,
    83,
    0,
    0,
    0,
    0,
    0,
    0,
    0,
    0,
    0,
    0,
    0,
    0,
    0,
    0,
    0,
    0,
    0,
    0,
    0,
    0,
    0,
    0,
    0,
    0,
    0,
    0,
    0,
    0,
    0,
    0,
    0,
    0,
    0,
    0,
    0,
    0,
    0,
    0,
    0,
    0,
    0,
    0,
    0,
    0,
    0,
    0,
    0,
    0,
    0,
    0,
    0,
    0,
    0,
    0,
    0,
    0,
    0,
    0,
    0,
    0,
    0,
    0,
    0,
    0,
    0,
    0,
    0,
    0,
    0,
    83,
    0,
    0,
    0,
    0,
    0,
    0,
    83,
    0,
    0,
    0,
    0,
    0,
    0,
    0,
    0,
    0,
    83,
    0,
    0,
    0,
    0,
    0,
    0,
    83,
    0,
    0,
    0,
    0,
    0,
    0,
    0,
    0,
    0,
    0,
    0,
    0,
    0,
    0,
    0,
    0,
    0,
    0,
    0,
    0,
    0,
    0,
    0,
    0,
    0,
    0,
    0,
    0,
    0,
    0,
    0,
    0,
    0,
    0,
    0,
    0,
    0,
    0,
    0,
    0,
    0,
    0,
    0,
    0,
    0,
    0,
    0,
    0,
    0,
    0,
    0,
    0,
    0,
    0,
    0,
    0,
    0,
    0,
    0,
    0,
    0,
    0,
    0,
    0,
    0,
    0,
    0,
    0,
    0,
    83,
    0,
    0,
    0,
    0,
    0,
    0,
    83,
    0,
    0,
    0,
    0,
    0,
    0,
    0,
    0,
    0,
    83,
    0,
    0,
    0,
    0,
    0,
    0,
    0,
    0,
    0,
    0,
    0,
    0,
    0,
    0,
    0,
    0,
    0,
    0,
    0,
    0,
    0,
    0,
    0,
    0,
    0,
    0,
    0,
    0,
    0,
    0,
    0,
    0,
    0,
    0,
    0,
    0,
    0,
    0,
    0,
    0,
    0,
    0,
    0,
    0,
    0,
    0,
    0,
    0,
    0,
    0,
    0,
    0,
    0,
    0,
    0,
    0,
    0,
    0,
    0,
    0,
    0,
    0,
    0,
    0,
    0,
    0,
    0,
    0,
    0,
    0,
    0,
    0,
    0,
    0,
    0,
    0,
    0,
    0,
    0,
    0,
    0,
    0,
    0,
    83,
    0,
    0,
    0,
    0,
    0,
    0,
    0,
    0,
    0,
    83,
    0,
    0,
    0,
    0,
    0,
    0,
    0,
    0,
    0,
    0,
    0,
    0,
    0,
    0,
    0,
    0,
    0,
    0,
    0,
    0,
    0,
    0,
    0,
    0,
    0,
    0,
    0,
    0,
    0,
    0,
    0,
    0,
    0,
    0,
    0,
    0,
    0,
    0,
    0,
    0,
    0,
    0,
    0,
    0,
    0,
    0,
    0,
    0,
    0,
    0,
    0,
    0,
    0,
    0,
    0,
    0,
    0,
    0,
    0,
    0,
    0,
    0,
    0,
    0,
    0,
    0,
    0,
    0,
    0,
    0,
    0,
    0,
    0,
    0,
    0,
    0,
    0,
    0,
    0,
    0,
    0,
    0,
    0,
    83,
    0,
    0,
    0,
    0,
    0,
    0,
    0,
    0,
    0,
    83,
    0,
    0,
    0,
    0,
    0,
    0,
    83,
    0,
    0,
    0,
    0,
    0,
    0,
    0,
    0,
    0,
    0,
    0,
    0,
    0,
    0,
    0,
    0,
    0,
    0,
    0,
    0,
    0,
    0,
    0,
    0,
    0,
    0,
    0,
    0,
    0,
    0,
    0,
    0,
    0,
    0,
    0,
    0,
    0,
    0,
    0,
    0,
    0,
    0,
    0,
    0,
    0,
    0,
    0,
    0,
    0,
    0,
    0,
    0,
    0,
    0,
    0,
    0,
    0,
    0,
    0,
    0,
    0,
    0,
    0,
    0,
    0,
    0,
    0,
    0,
    0,
    83,
    0,
    0,
    0,
    0,
    0,
    0,
    83,
    0,
    0,
    0,
    0,
    0,
    0,
    0,
    0,
    0,
    83,
    0,
    0,
    0,
    0,
    0,
    0,
    83,
    0,
    0,
    0,
    0,
    0,
    0,
    0,
    0,
    0,
    0,
    0,
    0,
    0,
    0,
    0,
    0,
    0,
    0,
    0,
    0,
    0,
    0,
    0,
    0,
    0,
    0,
    0,
    0,
    0,
    0,
    0,
    0,
    0,
    0,
    0,
    0,
    0,
    0,
    0,
    0,
    0,
    0,
    0,
    0,
    0,
    0,
    0,
    0,
    0,
    0,
    0,
    0,
    0,
    0,
    0,
    0,
    0,
    0,
    0,
    0,
    0,
    0,
    0,
    0,
    0,
    0,
    0,
    0,
    0,
    83,
    0,
    0,
    0,
    0,
    0,
    0,
    83,
    0,
    0,
    0,
    0,
    0,
    0,
    0,
    0,
    0,
    83,
    8,
    8,
    8,
    8,
    8,
    8,
    45,
    0,
    0,
    0,
    0,
    0,
    0,
    0,
    0,
    0,
    0,
    0,
    0,
    0,
    0,
    0,
    0,
    0,
    0,
    0,
    0,
    0,
    0,
    0,
    0,
    0,
    0,
    0,
    0,
    0,
    0,
    0,
    0,
    0,
    0,
    0,
    0,
    0,
    0,
    0,
    0,
    0,
    0,
    0,
    0,
    0,
    0,
    0,
    0,
    0,
    0,
    0,
    0,
    0,
    0,
    0,
    0,
    0,
    0,
    0,
    0,
    0,
    0,
    0,
    0,
    0,
    0,
    0,
    0,
    0,
    83,
    8,
    8,
    8,
    8,
    8,
    8,
    45,
    0,
    0,
    0,
    0,
    0,
    0,
    0,
    0,
    0,
    0,
    0,
    0,
    0,
    0,
    0,
    0,
    0,
    0,
    0,
    0,
    0,
    0,
    0,
    0,
    0,
    0,
    0,
    0,
    0,
    0,
    0,
    0,
    0,
    0,
    0,
    0,
    0,
    0,
    0,
    0,
    0,
    0,
    0,
    0,
    0,
    0,
    0,
    0,
    0,
    0,
    0,
    0,
    0,
    0,
    0,
    0,
    0,
    0,
    0,
    0,
    0,
    0,
    0,
    0,
    0,
    0,
    0,
    0,
    0,
    0,
    0,
    0,
    0,
    0,
    0,
    0,
    0,
    0,
    0,
    0,
    0,
    0,
    0,
    0,
    0,
    0,
    0,
    0,
    0,
    0,
    0,
    0,
    0,
    0,
    0,
    0,
    0,
    0,
    0,
    0,
    0,
    0,
    0,
    0,
    0,
    0,
    0,
    0,
    0,
    0,
    0,
    0,
    0,
    0,
    0,
    0,
    0,
    0,
    0,
    0,
    0,
    0,
    0,
    0,
    0,
    0,
    0,
    0,
    0,
    0,
    0,
    0,
    0,
    0,
    0,
    0,
    0,
    0,
    0,
    0,
    0,
    0,
    0,
    0,
    0,
    0,
    0,
    0,
    0,
    0,
    0,
    0,
    0,
    0,
    0,
    0,
    0,
    0,
    0,
    0,
    0,
    0,
    0,
    0,
    0,
    0,
    0,
    0,
    0,
    0,
    0,
    0,
    0,
    0,
    0,
    0,
    0,
    0,
    0,
    0,
    0,
    0,
    0,
    0,
    0,
    0,
    0,
    0,
    0,
    0,
    0,
    0,
    0,
    0,
    0,
    0,
    0,
    0,
    0,
    0,
    0,
    0,
    0,
    0,
    0,
    0,
    0,
    0,
    0,
    0,
    0,
    0,
    0,
    0,
    0,
    0,
    0,
    0,
    0,
    0,
    0,
    0,
    0,
    0,
    0,
    0,
    0,
    0,
    0,
    0,
    0,
    0,
    0,
    0,
    0,
    0,
    0,
    0,
    0,
    0,
    0,
    0,
    0,
    0,
    0,
    0,
    0,
    0,
    0,
    0,
    0,
    0,
    0,
    0,
    0,
    0,
    0,
    0,
    0,
    0,
    0,
    0,
    0,
    0,
    0,
    0,
    0,
    0,
    0,
    0,
    0,
    0,
    0,
    0,
    0,
    0,
    0,
    0,
    0,
    0,
    0,
    0,
    0,
    0,
    0,
    0,
    0,
    0,
    0,
    0,
    0,
    86,
    21,
    21,
    21,
    21,
    21,
    21,
    82,
    0,
    0,
    0,
    0,
    0,
    0,
    0,
    0,
    0,
    0,
    0,
    0,
    0,
    0,
    0,
    0,
    0,
    0,
    0,
    0,
    0,
    0,
    0,
    0,
    0,
    0,
    0,
    0,
    0,
    0,
    0,
    0,
    0,
    0,
    0,
    0,
    0,
    0,
    0,
    0,
    0,
    0,
    0,
    0,
    0,
    0,
    0,
    0,
    0,
    0,
    0,
    0,
    0,
    0,
    0,
    0,
    0,
    0,
    0,
    0,
    0,
    0,
    0,
    0,
    0,
    0,
    0,
    0,
    0,
    86,
    21,
    21,
    21,
    21,
    21,
    21,
    82,
    0,
    0,
    0,
    0,
    0,
    0,
    0,
    0,
    0,
    83,
    0,
    0,
    0,
    0,
    0,
    0,
    83,
    0,
    0,
    0,
    0,
    0,
    0,
    0,
    0,
    0,
    0,
    0,
    0,
    0,
    0,
    0,
    0,
    0,
    0,
    0,
    0,
    0,
    0,
    0,
    0,
    0,
    0,
    0,
    0,
    0,
    0,
    0,
    0,
    0,
    0,
    0,
    0,
    0,
    0,
    0,
    0,
    0,
    0,
    0,
    0,
    0,
    0,
    0,
    0,
    0,
    0,
    0,
    0,
    0,
    0,
    0,
    0,
    0,
    0,
    0,
    0,
    0,
    0,
    0,
    0,
    0,
    0,
    0,
    0,
    0,
    83,
    0,
    0,
    0,
    0,
    0,
    0,
    83,
    0,
    0,
    0,
    0,
    0,
    0,
    0,
    0,
    0,
    83,
    0,
    0,
    0,
    0,
    0,
    0,
    83,
    0,
    0,
    0,
    0,
    0,
    0,
    0,
    0,
    0,
    0,
    0,
    0,
    0,
    0,
    0,
    0,
    0,
    0,
    0,
    0,
    0,
    0,
    0,
    0,
    0,
    0,
    0,
    0,
    0,
    0,
    0,
    0,
    0,
    0,
    0,
    0,
    0,
    0,
    0,
    0,
    0,
    0,
    0,
    0,
    0,
    0,
    0,
    0,
    0,
    0,
    0,
    0,
    0,
    0,
    0,
    0,
    0,
    0,
    0,
    0,
    0,
    0,
    0,
    0,
    0,
    0,
    0,
    0,
    0,
    83,
    0,
    0,
    0,
    0,
    0,
    0,
    83,
    0,
    0,
    0,
    0,
    0,
    0,
    0,
    0,
    0,
    83,
    0,
    0,
    0,
    0,
    0,
    0,
    83,
    0,
    0,
    0,
    0,
    0,
    0,
    0,
    0,
    0,
    0,
    0,
    0,
    0,
    0,
    0,
    0,
    0,
    0,
    0,
    0,
    0,
    0,
    0,
    0,
    0,
    0,
    0,
    0,
    0,
    0,
    0,
    0,
    0,
    0,
    0,
    0,
    0,
    0,
    0,
    0,
    0,
    0,
    0,
    0,
    0,
    0,
    0,
    0,
    0,
    0,
    0,
    0,
    0,
    0,
    0,
    0,
    0,
    0,
    0,
    0,
    0,
    0,
    0,
    0,
    0,
    0,
    0,
    0,
    0,
    83,
    0,
    0,
    0,
    0,
    0,
    0,
    83,
    0,
    0,
    0,
    0,
    0,
    0,
    0,
    0,
    0,
    83,
    0,
    0,
    0,
    0,
    0,
    0,
    0,
    0,
    0,
    0,
    0,
    0,
    0,
    0,
    0,
    0,
    0,
    0,
    0,
    0,
    0,
    0,
    0,
    0,
    0,
    0,
    0,
    0,
    0,
    0,
    0,
    0,
    0,
    0,
    0,
    0,
    0,
    0,
    0,
    0,
    0,
    0,
    0,
    0,
    0,
    0,
    0,
    0,
    0,
    0,
    0,
    0,
    0,
    0,
    0,
    0,
    0,
    0,
    0,
    0,
    0,
    0,
    0,
    0,
    0,
    0,
    0,
    0,
    0,
    0,
    0,
    0,
    0,
    0,
    0,
    0,
    0,
    0,
    0,
    0,
    0,
    0,
    0,
    83,
    0,
    0,
    0,
    0,
    0,
    0,
    0,
    0,
    0,
    83,
    0,
    0,
    0,
    0,
    0,
    0,
    0,
    0,
    0,
    0,
    0,
    0,
    0,
    0,
    0,
    0,
    0,
    0,
    0,
    0,
    0,
    0,
    0,
    0,
    0,
    0,
    0,
    0,
    0,
    0,
    0,
    0,
    0,
    0,
    0,
    0,
    0,
    0,
    0,
    0,
    0,
    0,
    0,
    0,
    0,
    0,
    0,
    0,
    0,
    0,
    0,
    0,
    0,
    0,
    0,
    0,
    0,
    0,
    0,
    0,
    0,
    0,
    0,
    0,
    0,
    0,
    0,
    0,
    0,
    0,
    0,
    0,
    0,
    0,
    0,
    0,
    0,
    0,
    0,
    0,
    0,
    0,
    0,
    83,
    0,
    0,
    0,
    0,
    0,
    0,
    0,
    0,
    0,
    83,
    0,
    0,
    0,
    0,
    0,
    0,
    83,
    0,
    0,
    0,
    0,
    0,
    0,
    0,
    0,
    0,
    0,
    0,
    0,
    0,
    0,
    0,
    0,
    0,
    0,
    0,
    0,
    0,
    0,
    0,
    0,
    0,
    0,
    0,
    0,
    0,
    0,
    0,
    0,
    0,
    0,
    0,
    0,
    0,
    0,
    0,
    0,
    0,
    0,
    0,
    0,
    0,
    0,
    0,
    0,
    0,
    0,
    0,
    0,
    0,
    0,
    0,
    0,
    0,
    0,
    0,
    0,
    0,
    0,
    0,
    0,
    0,
    0,
    0,
    0,
    0,
    83,
    0,
    0,
    0,
    0,
    0,
    0,
    83,
    0,
    0,
    0,
    0,
    0,
    0,
    0,
    0,
    0,
    83,
    0,
    0,
    0,
    0,
    0,
    0,
    83,
    0,
    0,
    0,
    0,
    0,
    0,
    0,
    0,
    0,
    0,
    0,
    0,
    0,
    0,
    0,
    0,
    0,
    0,
    0,
    0,
    0,
    0,
    0,
    0,
    0,
    0,
    0,
    0,
    0,
    0,
    0,
    0,
    0,
    0,
    0,
    0,
    0,
    0,
    0,
    0,
    0,
    0,
    0,
    0,
    0,
    0,
    0,
    0,
    0,
    0,
    0,
    0,
    0,
    0,
    0,
    0,
    0,
    0,
    0,
    0,
    0,
    0,
    0,
    0,
    0,
    0,
    0,
    0,
    0,
    83,
    0,
    0,
    0,
    0,
    0,
    0,
    83,
    0,
    0,
    0,
    0,
    0,
    0,
    0,
    0,
    0,
    83,
    8,
    8,
    8,
    8,
    8,
    8,
    45,
    0,
    0,
    0,
    0,
    0,
    0,
    0,
    0,
    0,
    0,
    0,
    0,
    0,
    0,
    0,
    0,
    0,
    0,
    0,
    0,
    0,
    0,
    0,
    0,
    0,
    0,
    0,
    0,
    0,
    0,
    0,
    0,
    0,
    0,
    0,
    0,
    0,
    0,
    0,
    0,
    0,
    0,
    0,
    0,
    0,
    0,
    0,
    0,
    0,
    0,
    0,
    0,
    0,
    0,
    0,
    0,
    0,
    0,
    0,
    0,
    0,
    0,
    0,
    0,
    0,
    0,
    0,
    0,
    0,
    83,
    8,
    8,
    8,
    8,
    8,
    8,
    45,
    0,
    0,
    0,
    0,
    0,
    0,
    0,
    0,
    0,
    0,
    0,
    0,
    0,
    0,
    0,
    0,
    0,
    0,
    0,
    0,
    0,
    0,
    0,
    0,
    0,
    0,
    0,
    0,
    0,
    0,
    0,
    0,
    0,
    0,
    0,
    0,
    0,
    0,
    0,
    0,
    0,
    0,
    0,
    0,
    0,
    0,
    0,
    0,
    0,
    0,
    0,
    0,
    0,
    0,
    0,
    0,
    0,
    0,
    0,
    0,
    0,
    0,
    0,
    0,
    0,
    0,
    0,
    0,
    0,
    0,
    0,
    0,
    0,
    0,
    0,
    0,
    0,
    0,
    0,
    0,
    0,
    0,
    0,
    0,
    0,
    0,
    0,
    0,
    0,
    0,
    0,
    0,
    0,
    0,
    0,
    0,
    0,
    0,
    0,
    0,
    0,
    0,
    0,
    0,
    0,
    0,
    0,
    0,
    0,
    0,
    0,
    0,
    0,
    0,
    0,
    0,
    0,
    0,
    0,
    0,
    0,
    0,
    0,
    0,
    0,
    0,
    0,
    0,
    0,
    0,
    0,
    0,
    0,
    0,
    0,
    0,
    0,
    0,
    0,
    0,
    0,
    0,
    0,
    0,
    0,
    0,
    0,
    0,
    0,
    0,
    0,
    0,
    0,
    0,
    0,
    0,
    0,
    0,
    0,
    0,
    0,
    0,
    0,
    0,
    0,
    0,
    0,
    0,
    0,
    0,
    0,
    0,
    0,
    0,
    0,
    0,
    0,
    0,
    0,
    0,
    0,
    0,
    0,
    0,
    0,
    0,
    0,
    0,
    0,
    0,
    0,
    0,
    0,
    0,
    0,
    0,
    0,
    0,
    0,
    0,
    0,
    0,
    0,
    0,
    0,
    0,
    0,
    0,
    0,
    0,
    0,
    0,
    0,
    0,
    0,
    0,
    0,
    0,
    0,
    0,
    0,
    0,
    0,
    0,
    0,
    0,
    0,
    0,
    0,
    0,
    0,
    0,
    0,
    0,
    0,
    0,
    0,
    0,
    0,
    0,
    0,
    0,
    0,
    0,
    0,
    0,
    0,
    0,
    0,
    0,
    0,
    0,
    0,
    0,
    0,
    0,
    0,
    0,
    0,
    0,
    0,
    0,
    0,
    0,
    0,
    0,
    0,
    0,
    0,
    0,
    0,
    0,
    0,
    0,
    0,
    0,
    0,
    0,
    0,
    0,
    0,
    0,
    0,
    0,
    0,
    0,
    0,
    0,
    0,
    0,
    0,
    86,
    21,
    21,
    21,
    21,
    21,
    21,
    82,
    0,
    0,
    0,
    0,
    0,
    0,
    0,
    0,
    0,
    0,
    0,
    0,
    0,
    0,
    0,
    0,
    0,
    0,
    0,
    0,
    0,
    0,
    0,
    0,
    0,
    0,
    0,
    0,
    0,
    0,
    0,
    0,
    0,
    0,
    0,
    0,
    0,
    0,
    0,
    0,
    0,
    0,
    0,
    0,
    0,
    0,
    0,
    0,
    0,
    0,
    0,
    0,
    0,
    0,
    0,
    0,
    0,
    0,
    0,
    0,
    0,
    0,
    0,
    0,
    0,
    0,
    0,
    0,
    0,
    86,
    21,
    21,
    21,
    21,
    21,
    21,
    82,
    0,
    0,
    0,
    0,
    0,
    0,
    0,
    0,
    0,
    83,
    0,
    0,
    0,
    0,
    0,
    0,
    83,
    0,
    0,
    0,
    0,
    0,
    0,
    0,
    0,
    0,
    0,
    0,
    0,
    0,
    0,
    0,
    0,
    0,
    0,
    0,
    0,
    0,
    0,
    0,
    0,
    0,
    0,
    0,
    0,
    0,
    0,
    0,
    0,
    0,
    0,
    0,
    0,
    0,
    0,
    0,
    0,
    0,
    0,
    0,
    0,
    0,
    0,
    0,
    0,
    0,
    0,
    0,
    0,
    0,
    0,
    0,
    0,
    0,
    0,
    0,
    0,
    0,
    0,
    0,
    0,
    0,
    0,
    0,
    0,
    0,
    83,
    0,
    0,
    0,
    0,
    0,
    0,
    83,
    0,
    0,
    0,
    0,
    0,
    0,
    0,
    0,
    0,
    83,
    0,
    0,
    0,
    0,
    0,
    0,
    83,
    0,
    0,
    0,
    0,
    0,
    0,
    0,
    0,
    0,
    0,
    0,
    0,
    0,
    0,
    0,
    0,
    0,
    0,
    0,
    0,
    0,
    0,
    0,
    0,
    0,
    0,
    0,
    0,
    0,
    0,
    0,
    0,
    0,
    0,
    0,
    0,
    0,
    0,
    0,
    0,
    0,
    0,
    0,
    0,
    0,
    0,
    0,
    0,
    0,
    0,
    0,
    0,
    0,
    0,
    0,
    0,
    0,
    0,
    0,
    0,
    0,
    0,
    0,
    0,
    0,
    0,
    0,
    0,
    0,
    83,
    0,
    0,
    0,
    0,
    0,
    0,
    83,
    0,
    0,
    0,
    0,
    0,
    0,
    0,
    0,
    0,
    83,
    0,
    0,
    0,
    0,
    0,
    0,
    83,
    0,
    0,
    0,
    0,
    0,
    0,
    0,
    0,
    0,
    0,
    0,
    0,
    0,
    0,
    0,
    0,
    0,
    0,
    0,
    0,
    0,
    0,
    0,
    0,
    0,
    0,
    0,
    0,
    0,
    0,
    0,
    0,
    0,
    0,
    0,
    0,
    0,
    0,
    0,
    0,
    0,
    0,
    0,
    0,
    0,
    0,
    0,
    0,
    0,
    0,
    0,
    0,
    0,
    0,
    0,
    0,
    0,
    0,
    0,
    0,
    0,
    0,
    0,
    0,
    0,
    0,
    0,
    0,
    0,
    83,
    0,
    0,
    0,
    0,
    0,
    0,
    83,
    0,
    0,
    0,
    0,
    0,
    0,
    0,
    0,
    0,
    83,
    0,
    0,
    0,
    0,
    0,
    0,
    0,
    0,
    0,
    0,
    0,
    0,
    0,
    0,
    0,
    0,
    0,
    0,
    0,
    0,
    0,
    0,
    0,
    0,
    0,
    0,
    0,
    0,
    0,
    0,
    0,
    0,
    0,
    0,
    0,
    0,
    0,
    0,
    0,
    0,
    0,
    0,
    0,
    0,
    0,
    0,
    0,
    0,
    0,
    0,
    0,
    0,
    0,
    0,
    0,
    0,
    0,
    0,
    0,
    0,
    0,
    0,
    0,
    0,
    0,
    0,
    0,
    0,
    0,
    0,
    0,
    0,
    0,
    0,
    0,
    0,
    0,
    0,
    0,
    0,
    0,
    0,
    0,
    83,
    0,
    0,
    0,
    0,
    0,
    0,
    0,
    0,
    0,
    83,
    0,
    0,
    0,
    0,
    0,
    0,
    0,
    0,
    0,
    0,
    0,
    0,
    0,
    0,
    0,
    0,
    0,
    0,
    0,
    0,
    0,
    0,
    0,
    0,
    0,
    0,
    0,
    0,
    0,
    0,
    0,
    0,
    0,
    0,
    0,
    0,
    0,
    0,
    0,
    0,
    0,
    0,
    0,
    0,
    0,
    0,
    0,
    0,
    0,
    0,
    0,
    0,
    0,
    0,
    0,
    0,
    0,
    0,
    0,
    0,
    0,
    0,
    0,
    0,
    0,
    0,
    0,
    0,
    0,
    0,
    0,
    0,
    0,
    0,
    0,
    0,
    0,
    0,
    0,
    0,
    0,
    0,
    0,
    83,
    0,
    0,
    0,
    0,
    0,
    0,
    0,
    0,
    0,
    83,
    0,
    0,
    0,
    0,
    0,
    0,
    83,
    0,
    0,
    0,
    0,
    0,
    0,
    0,
    0,
    0,
    0,
    0,
    0,
    0,
    0,
    0,
    0,
    0,
    0,
    0,
    0,
    0,
    0,
    0,
    0,
    0,
    0,
    0,
    0,
    0,
    0,
    0,
    0,
    0,
    0,
    0,
    0,
    0,
    0,
    0,
    0,
    0,
    0,
    0,
    0,
    0,
    0,
    0,
    0,
    0,
    0,
    0,
    0,
    0,
    0,
    0,
    0,
    0,
    0,
    0,
    0,
    0,
    0,
    0,
    0,
    0,
    0,
    0,
    0,
    0,
    83,
    0,
    0,
    0,
    0,
    0,
    0,
    83,
    0,
    0,
    0,
    0,
    0,
    0,
    0,
    0,
    0,
    83,
    0,
    0,
    0,
    0,
    0,
    0,
    83,
    0,
    0,
    0,
    0,
    0,
    0,
    0,
    0,
    0,
    0,
    0,
    0,
    0,
    0,
    0,
    0,
    0,
    0,
    0,
    0,
    0,
    0,
    0,
    0,
    0,
    0,
    0,
    0,
    0,
    0,
    0,
    0,
    0,
    0,
    0,
    0,
    0,
    0,
    0,
    0,
    0,
    0,
    0,
    0,
    0,
    0,
    0,
    0,
    0,
    0,
    0,
    0,
    0,
    0,
    0,
    0,
    0,
    0,
    0,
    0,
    0,
    0,
    0,
    0,
    0,
    0,
    0,
    0,
    0,
    83,
    0,
    0,
    0,
    0,
    0,
    0,
    83,
    0,
    0,
    0,
    0,
    0,
    0,
    0,
    0,
    0,
    83,
    8,
    8,
    8,
    8,
    8,
    8,
    45,
    0,
    0,
    0,
    0,
    0,
    0,
    0,
    0,
    0,
    0,
    0,
    0,
    0,
    0,
    0,
    0,
    0,
    0,
    0,
    0,
    0,
    0,
    0,
    0,
    0,
    0,
    0,
    0,
    0,
    0,
    0,
    0,
    0,
    0,
    0,
    0,
    0,
    0,
    0,
    0,
    0,
    0,
    0,
    0,
    0,
    0,
    0,
    0,
    0,
    0,
    0,
    0,
    0,
    0,
    0,
    0,
    0,
    0,
    0,
    0,
    0,
    0,
    0,
    0,
    0,
    0,
    0,
    0,
    0,
    83,
    8,
    8,
    8,
    8,
    8,
    8,
    45,
    0,
    0,
    0,
    0,
    0,
    0,
    0,
    0,
    0,
    0,
    0,
    0,
    0,
    0,
    0,
    0,
    0,
    0,
    0,
    0,
    0,
    0,
    0,
    0,
    0,
    0,
    0,
    0,
    0,
    0,
    0,
    0,
    0,
    0,
    0,
    0,
    0,
    0,
    0,
    0,
    0,
    0,
    0,
    0,
    0,
    0,
    0,
    0,
    0,
    0,
    0,
    0,
    0,
    0,
    0,
    0,
    0,
    0,
    0,
    0,
    0,
    0,
    0,
    0,
    0,
    0,
    0,
    0,
    0,
    0,
    0,
    0,
    0,
    0,
    0,
    0,
    0,
    0,
    0,
    0,
    0,
    0,
    0,
    0,
    0,
    0,
    0,
    0,
    0,
    0,
    0,
    0,
    0,
    0,
    0,
    0,
    0,
    0,
    0,
    0,
    0,
    0,
    0,
    0,
    0,
    0,
    0,
    0,
    0,
    0,
    0,
    0,
    0,
    0,
    0,
    0,
    0,
    0,
    0,
    0,
    0,
    0,
    0,
    0,
    0,
    0,
    0,
    0,
    0,
    0,
    0,
    0,
    0,
    0,
    0,
    0,
    0,
    0,
    0,
    0,
    0,
    0,
    0,
    0,
    0,
    0,
    0,
    0,
    0,
    0,
    0,
    0,
    0,
    0,
    0,
    0,
    0,
    0,
    0,
    0,
    0,
    0,
    0,
    0,
    0,
    0,
    0,
    0,
    0,
    0,
    0,
    0,
    0,
    0,
    0,
    0,
    0,
    0,
    0,
    0,
    0,
    0,
    0,
    0,
    0,
    0,
    0,
    0,
    0,
    0,
    0,
    0,
    0,
    0,
    0,
    0,
    0,
    0,
    0,
    0,
    0,
    0,
    0,
    0,
    0,
    0,
    0,
    0,
    0,
    0,
    0,
    0,
    0,
    0,
    0,
    0,
    0,
    0,
    0,
    0,
    0,
    0,
    0,
    0,
    0,
    0,
    0,
    0,
    0,
    0,
    0,
    0,
    0,
    0,
    0,
    0,
    0,
    0,
    0,
    0,
    0,
    0,
    0,
    0,
    0,
    0,
    0,
    0,
    0,
    0,
    0,
    0,
    0,
    0,
    0,
    0,
    0,
    0,
    0,
    0,
    0,
    0,
    0,
    0,
    0,
    0,
    0,
    0,
    0,
    0,
    0,
    0,
    0,
    0,
    0,
    0,
    0,
    0,
    0,
    0,
    0,
    0,
    0,
    0,
    0,
    0,
    0,
    0,
    0,
    0,
    0,
    86,
    21,
    21,
    21,
    21,
    21,
    21,
    82,
    0,
    0,
    0,
    0,
    0,
    0,
    0,
    0,
    0,
    0,
    0,
    0,
    0,
    0,
    0,
    0,
    0,
    0,
    0,
    0,
    0,
    0,
    0,
    0,
    0,
    0,
    0,
    0,
    0,
    0,
    0,
    0,
    0,
    0,
    0,
    0,
    0,
    0,
    0,
    0,
    0,
    0,
    0,
    0,
    0,
    0,
    0,
    0,
    0,
    0,
    0,
    0,
    0,
    0,
    0,
    0,
    0,
    0,
    0,
    0,
    0,
    0,
    0,
    0,
    0,
    0,
    0,
    0,
    0,
    86,
    21,
    21,
    21,
    21,
    21,
    21,
    82,
    0,
    0,
    0,
    0,
    0,
    0,
    0,
    0,
    0,
    83,
    0,
    0,
    0,
    0,
    0,
    0,
    83,
    0,
    0,
    0,
    0,
    0,
    0,
    0,
    0,
    0,
    0,
    0,
    0,
    0,
    0,
    0,
    0,
    0,
    0,
    0,
    0,
    0,
    0,
    0,
    0,
    0,
    0,
    0,
    0,
    0,
    0,
    0,
    0,
    0,
    0,
    0,
    0,
    0,
    0,
    0,
    0,
    0,
    0,
    0,
    0,
    0,
    0,
    0,
    0,
    0,
    0,
    0,
    0,
    0,
    0,
    0,
    0,
    0,
    0,
    0,
    0,
    0,
    0,
    0,
    0,
    0,
    0,
    0,
    0,
    0,
    83,
    0,
    0,
    0,
    0,
    0,
    0,
    83,
    0,
    0,
    0,
    0,
    0,
    0,
    0,
    0,
    0,
    83,
    0,
    0,
    0,
    0,
    0,
    0,
    83,
    0,
    0,
    0,
    0,
    0,
    0,
    0,
    0,
    0,
    0,
    0,
    0,
    0,
    0,
    0,
    0,
    0,
    0,
    0,
    0,
    0,
    0,
    0,
    0,
    0,
    0,
    0,
    0,
    0,
    0,
    0,
    0,
    0,
    0,
    0,
    0,
    0,
    0,
    0,
    0,
    0,
    0,
    0,
    0,
    0,
    0,
    0,
    0,
    0,
    0,
    0,
    0,
    0,
    0,
    0,
    0,
    0,
    0,
    0,
    0,
    0,
    0,
    0,
    0,
    0,
    0,
    0,
    0,
    0,
    83,
    0,
    0,
    0,
    0,
    0,
    0,
    83,
    0,
    0,
    0,
    0,
    0,
    0,
    0,
    0,
    0,
    83,
    0,
    0,
    0,
    0,
    0,
    0,
    83,
    0,
    0,
    0,
    0,
    0,
    0,
    0,
    0,
    0,
    0,
    0,
    0,
    0,
    0,
    0,
    0,
    0,
    0,
    0,
    0,
    0,
    0,
    0,
    0,
    0,
    0,
    0,
    0,
    0,
    0,
    0,
    0,
    0,
    0,
    0,
    0,
    0,
    0,
    0,
    0,
    0,
    0,
    0,
    0,
    0,
    0,
    0,
    0,
    0,
    0,
    0,
    0,
    0,
    0,
    0,
    0,
    0,
    0,
    0,
    0,
    0,
    0,
    0,
    0,
    0,
    0,
    0,
    0,
    0,
    83,
    0,
    0,
    0,
    0,
    0,
    0,
    83,
    0,
    0,
    0,
    0,
    0,
    0,
    0,
    0,
    0,
    83,
    0,
    0,
    0,
    0,
    0,
    0,
    0,
    0,
    0,
    0,
    0,
    0,
    0,
    0,
    0,
    0,
    0,
    0,
    0,
    0,
    0,
    0,
    0,
    0,
    0,
    0,
    0,
    0,
    0,
    0,
    0,
    0,
    0,
    0,
    0,
    0,
    0,
    0,
    0,
    0,
    0,
    0,
    0,
    0,
    0,
    0,
    0,
    0,
    0,
    0,
    0,
    0,
    0,
    0,
    0,
    0,
    0,
    0,
    0,
    0,
    0,
    0,
    0,
    0,
    0,
    0,
    0,
    0,
    0,
    0,
    0,
    0,
    0,
    0,
    0,
    0,
    0,
    0,
    0,
    0,
    0,
    0,
    0,
    83,
    0,
    0,
    0,
    0,
    0,
    0,
    0,
    0,
    0,
    83,
    0,
    0,
    0,
    0,
    0,
    0,
    0,
    0,
    0,
    0,
    0,
    0,
    0,
    0,
    0,
    0,
    0,
    0,
    0,
    0,
    0,
    0,
    0,
    0,
    0,
    0,
    0,
    0,
    0,
    0,
    0,
    0,
    0,
    0,
    0,
    0,
    0,
    0,
    0,
    0,
    0,
    0,
    0,
    0,
    0,
    0,
    0,
    0,
    0,
    0,
    0,
    0,
    0,
    0,
    0,
    0,
    0,
    0,
    0,
    0,
    0,
    0,
    0,
    0,
    0,
    0,
    0,
    0,
    0,
    0,
    0,
    0,
    0,
    0,
    0,
    0,
    0,
    0,
    0,
    0,
    0,
    0,
    0,
    83,
    0,
    0,
    0,
    0,
    0,
    0,
    0,
    0,
    0,
    83,
    0,
    0,
    0,
    0,
    0,
    0,
    83,
    0,
    0,
    0,
    0,
    0,
    0,
    0,
    0,
    0,
    0,
    0,
    0,
    0,
    0,
    0,
    0,
    0,
    0,
    0,
    0,
    0,
    0,
    0,
    0,
    0,
    0,
    0,
    0,
    0,
    0,
    0,
    0,
    0,
    0,
    0,
    0,
    0,
    0,
    0,
    0,
    0,
    0,
    0,
    0,
    0,
    0,
    0,
    0,
    0,
    0,
    0,
    0,
    0,
    0,
    0,
    0,
    0,
    0,
    0,
    0,
    0,
    0,
    0,
    0,
    0,
    0,
    0,
    0,
    0,
    83,
    0,
    0,
    0,
    0,
    0,
    0,
    83,
    0,
    0,
    0,
    0,
    0,
    0,
    0,
    0,
    0,
    83,
    0,
    0,
    0,
    0,
    0,
    0,
    83,
    0,
    0,
    0,
    0,
    0,
    0,
    0,
    0,
    0,
    0,
    0,
    0,
    0,
    0,
    0,
    0,
    0,
    0,
    0,
    0,
    0,
    0,
    0,
    0,
    0,
    0,
    0,
    0,
    0,
    0,
    0,
    0,
    0,
    0,
    0,
    0,
    0,
    0,
    0,
    0,
    0,
    0,
    0,
    0,
    0,
    0,
    0,
    0,
    0,
    0,
    0,
    0,
    0,
    0,
    0,
    0,
    0,
    0,
    0,
    0,
    0,
    0,
    0,
    0,
    0,
    0,
    0,
    0,
    0,
    83,
    0,
    0,
    0,
    0,
    0,
    0,
    83,
    0,
    0,
    0,
    0,
    0,
    0,
    0,
    0,
    0,
    83,
    8,
    8,
    8,
    8,
    8,
    8,
    45,
    0,
    0,
    0,
    0,
    0,
    0,
    0,
    0,
    0,
    0,
    0,
    0,
    0,
    0,
    0,
    0,
    0,
    0,
    0,
    0,
    0,
    0,
    0,
    0,
    0,
    0,
    0,
    0,
    0,
    0,
    0,
    0,
    0,
    0,
    0,
    0,
    0,
    0,
    0,
    0,
    0,
    0,
    0,
    0,
    0,
    0,
    0,
    0,
    0,
    0,
    0,
    0,
    0,
    0,
    0,
    0,
    0,
    0,
    0,
    0,
    0,
    0,
    0,
    0,
    0,
    0,
    0,
    0,
    0,
    83,
    8,
    8,
    8,
    8,
    8,
    8,
    45,
    0,
    0,
    0,
    0,
    0,
    0,
    0,
    0,
    0,
    0,
    0,
    0,
    0,
    0,
    0,
    0,
    0,
    0,
    0,
    0,
    0,
    0,
    0,
    0,
    0,
    0,
    0,
    0,
    0,
    0,
    0,
    0,
    0,
    0,
    0,
    0,
    0,
    0,
    0,
    0,
    0,
    0,
    0,
    0,
    0,
    0,
    0,
    0,
    0,
    0,
    0,
    0,
    0,
    0,
    0,
    0,
    0,
    0,
    0,
    0,
    0,
    0,
    0,
    0,
    0,
    0,
    0,
    0,
    0,
    0,
    0,
    0,
    0,
    0,
    0,
    0,
    0,
    0,
    0,
    0,
    0,
    0,
    0,
    0,
    0,
    0,
    0,
    0,
    0,
    0,
    0,
    0,
    0,
    0,
    0,
    0,
    0,
    0,
    0,
    0,
    0,
    0,
    0,
    0,
    0,
    0,
    0,
    0,
    0,
    0,
    0,
    0,
    0,
    0,
    0,
    0,
    0,
    0,
    0,
    0,
    0,
    0,
    0,
    0,
    0,
    0,
    0,
    0,
    0,
    0,
    0,
    0,
    0,
    0,
    0,
    0,
    0,
    0,
    0,
    0,
    0,
    0,
    0,
    0,
    0,
    0,
    0,
    0,
    0,
    0,
    0,
    0,
    0,
    0,
    0,
    0,
    0,
    0,
    0,
    0,
    0,
    0,
    0,
    0,
    0,
    0,
    0,
    0,
    0,
    0,
    0,
    0,
    0,
    0,
    0,
    0,
    0,
    0,
    0,
    0,
    0,
    0,
    0,
    0,
    0,
    0,
    0,
    0,
    0,
    0,
    0,
    0,
    0,
    0,
    0,
    0,
    0,
    0,
    0,
    0,
    0,
    0,
    0,
    0,
    0,
    0,
    0,
    0,
    0,
    0,
    0,
    0,
    0,
    0,
    0,
    0,
    0,
    0,
    0,
    0,
    0,
    0,
    0,
    0,
    0,
    0,
    0,
    0,
    0,
    0,
    0,
    0,
    0,
    0,
    0,
    0,
    0,
    0,
    0,
    0,
    0,
    0,
    0,
    0,
    0,
    0,
    0,
    0,
    0,
    0,
    0,
    0,
    0,
    0,
    0,
    0,
    0,
    0,
    0,
    0,
    0,
    0,
    0,
    0,
    0,
    0,
    0,
    0,
    0,
    0,
    0,
    0,
    0,
    0,
    0,
    0,
    0,
    0,
    0,
    0,
    0,
    0,
    0,
    0,
    0,
    0,
    0,
    0,
    0,
    0,
    0,
    86,
    21,
    21,
    21,
    21,
    21,
    21,
    82,
    0,
    0,
    0,
    0,
    0,
    0,
    0,
    0,
    0,
    0,
    0,
    0,
    0,
    0,
    0,
    0,
    0,
    0,
    0,
    0,
    0,
    0,
    0,
    0,
    0,
    0,
    0,
    0,
    0,
    0,
    0,
    0,
    0,
    0,
    0,
    0,
    0,
    0,
    0,
    0,
    0,
    0,
    0,
    0,
    0,
    0,
    0,
    0,
    0,
    0,
    0,
    0,
    0,
    0,
    0,
    0,
    0,
    0,
    0,
    0,
    0,
    0,
    0,
    0,
    0,
    0,
    0,
    0,
    0,
    86,
    21,
    21,
    21,
    21,
    21,
    21,
    82,
    0,
    0,
    0,
    0,
    0,
    0,
    0,
    0,
    0,
    83,
    0,
    0,
    0,
    0,
    0,
    0,
    83,
    0,
    0,
    0,
    0,
    0,
    0,
    0,
    0,
    0,
    0,
    0,
    0,
    0,
    0,
    0,
    0,
    0,
    0,
    0,
    0,
    0,
    0,
    0,
    0,
    0,
    0,
    0,
    0,
    0,
    0,
    0,
    0,
    0,
    0,
    0,
    0,
    0,
    0,
    0,
    0,
    0,
    0,
    0,
    0,
    0,
    0,
    0,
    0,
    0,
    0,
    0,
    0,
    0,
    0,
    0,
    0,
    0,
    0,
    0,
    0,
    0,
    0,
    0,
    0,
    0,
    0,
    0,
    0,
    0,
    83,
    0,
    0,
    0,
    0,
    0,
    0,
    83,
    0,
    0,
    0,
    0,
    0,
    0,
    0,
    0,
    0,
    83,
    0,
    0,
    0,
    0,
    0,
    0,
    83,
    0,
    0,
    0,
    0,
    0,
    0,
    0,
    0,
    0,
    0,
    0,
    0,
    0,
    0,
    0,
    0,
    0,
    0,
    0,
    0,
    0,
    0,
    0,
    0,
    0,
    0,
    0,
    0,
    0,
    0,
    0,
    0,
    0,
    0,
    0,
    0,
    0,
    0,
    0,
    0,
    0,
    0,
    0,
    0,
    0,
    0,
    0,
    0,
    0,
    0,
    0,
    0,
    0,
    0,
    0,
    0,
    0,
    0,
    0,
    0,
    0,
    0,
    0,
    0,
    0,
    0,
    0,
    0,
    0,
    83,
    0,
    0,
    0,
    0,
    0,
    0,
    83,
    0,
    0,
    0,
    0,
    0,
    0,
    0,
    0,
    0,
    83,
    0,
    0,
    0,
    0,
    0,
    0,
    83,
    0,
    0,
    0,
    0,
    0,
    0,
    0,
    0,
    0,
    0,
    0,
    0,
    0,
    0,
    0,
    0,
    0,
    0,
    0,
    0,
    0,
    0,
    0,
    0,
    0,
    0,
    0,
    0,
    0,
    0,
    0,
    0,
    0,
    0,
    0,
    0,
    0,
    0,
    0,
    0,
    0,
    0,
    0,
    0,
    0,
    0,
    0,
    0,
    0,
    0,
    0,
    0,
    0,
    0,
    0,
    0,
    0,
    0,
    0,
    0,
    0,
    0,
    0,
    0,
    0,
    0,
    0,
    0,
    0,
    83,
    0,
    0,
    0,
    0,
    0,
    0,
    83,
    0,
    0,
    0,
    0,
    0,
    0,
    0,
    0,
    0,
    83,
    0,
    0,
    0,
    0,
    0,
    0,
    0,
    0,
    0,
    0,
    0,
    0,
    0,
    0,
    0,
    0,
    0,
    0,
    0,
    0,
    0,
    0,
    0,
    0,
    0,
    0,
    0,
    0,
    0,
    0,
    0,
    0,
    0,
    0,
    0,
    0,
    0,
    0,
    0,
    0,
    0,
    0,
    0,
    0,
    0,
    0,
    0,
    0,
    0,
    0,
    0,
    0,
    0,
    0,
    0,
    0,
    0,
    0,
    0,
    0,
    0,
    0,
    0,
    0,
    0,
    0,
    0,
    0,
    0,
    0,
    0,
    0,
    0,
    0,
    0,
    0,
    0,
    0,
    0,
    0,
    0,
    0,
    0,
    83,
    0,
    0,
    0,
    0,
    0,
    0,
    0,
    0,
    0,
    83,
    0,
    0,
    0,
    0,
    0,
    0,
    0,
    0,
    0,
    0,
    0,
    0,
    0,
    0,
    0,
    0,
    0,
    0,
    0,
    0,
    0,
    0,
    0,
    0,
    0,
    0,
    0,
    0,
    0,
    0,
    0,
    0,
    0,
    0,
    0,
    0,
    0,
    0,
    0,
    0,
    0,
    0,
    0,
    0,
    0,
    0,
    0,
    0,
    0,
    0,
    0,
    0,
    0,
    0,
    0,
    0,
    0,
    0,
    0,
    0,
    0,
    0,
    0,
    0,
    0,
    0,
    0,
    0,
    0,
    0,
    0,
    0,
    0,
    0,
    0,
    0,
    0,
    0,
    0,
    0,
    0,
    0,
    0,
    83,
    0,
    0,
    0,
    0,
    0,
    0,
    0,
    0,
    0,
    83,
    0,
    0,
    0,
    0,
    0,
    0,
    83,
    0,
    0,
    0,
    0,
    0,
    0,
    0,
    0,
    0,
    0,
    0,
    0,
    0,
    0,
    0,
    0,
    0,
    0,
    0,
    0,
    0,
    0,
    0,
    0,
    0,
    0,
    0,
    0,
    0,
    0,
    0,
    0,
    0,
    0,
    0,
    0,
    0,
    0,
    0,
    0,
    0,
    0,
    0,
    0,
    0,
    0,
    0,
    0,
    0,
    0,
    0,
    0,
    0,
    0,
    0,
    0,
    0,
    0,
    0,
    0,
    0,
    0,
    0,
    0,
    0,
    0,
    0,
    0,
    0,
    83,
    0,
    0,
    0,
    0,
    0,
    0,
    83,
    0,
    0,
    0,
    0,
    0,
    0,
    0,
    0,
    0,
    83,
    0,
    0,
    0,
    0,
    0,
    0,
    83,
    0,
    0,
    0,
    0,
    0,
    0,
    0,
    0,
    0,
    0,
    0,
    0,
    0,
    0,
    0,
    0,
    0,
    0,
    0,
    0,
    0,
    0,
    0,
    0,
    0,
    0,
    0,
    0,
    0,
    0,
    0,
    0,
    0,
    0,
    0,
    0,
    0,
    0,
    0,
    0,
    0,
    0,
    0,
    0,
    0,
    0,
    0,
    0,
    0,
    0,
    0,
    0,
    0,
    0,
    0,
    0,
    0,
    0,
    0,
    0,
    0,
    0,
    0,
    0,
    0,
    0,
    0,
    0,
    0,
    83,
    0,
    0,
    0,
    0,
    0,
    0,
    83,
    0,
    0,
    0,
    0,
    0,
    0,
    0,
    0,
    0,
    83,
    8,
    8,
    8,
    8,
    8,
    8,
    45,
    0,
    0,
    0,
    0,
    0,
    0,
    0,
    0,
    0,
    0,
    0,
    0,
    0,
    0,
    0,
    0,
    0,
    0,
    0,
    0,
    0,
    0,
    0,
    0,
    0,
    0,
    0,
    0,
    0,
    0,
    0,
    0,
    0,
    0,
    0,
    0,
    0,
    0,
    0,
    0,
    0,
    0,
    0,
    0,
    0,
    0,
    0,
    0,
    0,
    0,
    0,
    0,
    0,
    0,
    0,
    0,
    0,
    0,
    0,
    0,
    0,
    0,
    0,
    0,
    0,
    0,
    0,
    0,
    0,
    83,
    8,
    8,
    8,
    8,
    8,
    8,
    45,
    0,
    0,
    0,
    0,
    0,
    0,
    0,
    0,
    0,
    0,
    0,
    0,
    0,
    0,
    0,
    0,
    0,
    0,
    0,
    0,
    0,
    0,
    0,
    0,
    0,
    0,
    0,
    0,
    0,
    0,
    0,
    0,
    0,
    0,
    0,
    0,
    0,
    0,
    0,
    0,
    0,
    0,
    0,
    0,
    0,
    0,
    0,
    0,
    0,
    0,
    0,
    0,
    0,
    0,
    0,
    0,
    0,
    0,
    0,
    0,
    0,
    0,
    0,
    0,
    0,
    0,
    0,
    0,
    0,
    0,
    0,
    0,
    0,
    0,
    0,
    0,
    0,
    0,
    0,
    0,
    0,
    0,
    0,
    0,
    0,
    0,
    0,
    0,
    0,
    0,
    0,
    0,
    0,
    0,
    0,
    0,
    0,
    0,
    0,
    0,
    0,
    0,
    0,
    0,
    0,
    0,
    0,
    0,
    0,
    0,
    0,
    0,
    0,
    0,
    0,
    0,
    0,
    0,
    0,
    0,
    0,
    0,
    0,
    0,
    0,
    0,
    0,
    0,
    0,
    0,
    0,
    0,
    0,
    0,
    0,
    0,
    0,
    0,
    0,
    0,
    0,
    0,
    0,
    0,
    0,
    0,
    0,
    0,
    0,
    0,
    0,
    0,
    0,
    0,
    0,
    0,
    0,
    0,
    0,
    0,
    0,
    0,
    0,
    0,
    0,
    0,
    0,
    0,
    0,
    0,
    0,
    0,
    0,
    0,
    0,
    0,
    0,
    0,
    0,
    0,
    0,
    0,
    0,
    0,
    0,
    0,
    0,
    0,
    0,
    0,
    0,
    0,
    0,
    0,
    0,
    0,
    0,
    0,
    0,
    0,
    0,
    0,
    0,
    0,
    0,
    0,
    0,
    0,
    0,
    0,
    0,
    0,
    0,
    0,
    0,
    0,
    0,
    0,
    0,
    0,
    0,
    0,
    0,
    0,
    0,
    0,
    0,
    0,
    0,
    0,
    0,
    0,
    0,
    0,
    0,
    0,
    0,
    0,
    0,
    0,
    0,
    0,
    0,
    0,
    0,
    0,
    0,
    0,
    0,
    0,
    0,
    0,
    0,
    0,
    0,
    0,
    0,
    0,
    0,
    0,
    0,
    0,
    0,
    0,
    0,
    0,
    0,
    0,
    0,
    0,
    0,
    0,
    0,
    0,
    0,
    0,
    0,
    0,
    0,
    0,
    0,
    0,
    0,
    0,
    0,
    0,
    0,
    0,
    0,
    0,
    0,
    86,
    21,
    21,
    21,
    21,
    21,
    21,
    82,
    0,
    0,
    0,
    0,
    0,
    0,
    0,
    0,
    0,
    0,
    0,
    0,
    0,
    0,
    0,
    0,
    0,
    0,
    0,
    0,
    0,
    0,
    0,
    0,
    0,
    0,
    0,
    0,
    0,
    0,
    0,
    0,
    0,
    0,
    0,
    0,
    0,
    0,
    0,
    0,
    0,
    0,
    0,
    0,
    0,
    0,
    0,
    0,
    0,
    0,
    0,
    0,
    0,
    0,
    0,
    0,
    0,
    0,
    0,
    0,
    0,
    0,
    0,
    0,
    0,
    0,
    0,
    0,
    0,
    86,
    21,
    21,
    21,
    21,
    21,
    21,
    82,
    0,
    0,
    0,
    0,
    0,
    0,
    0,
    0,
    0,
    83,
    0,
    0,
    0,
    0,
    0,
    0,
    83,
    0,
    0,
    0,
    0,
    0,
    0,
    0,
    0,
    0,
    0,
    0,
    0,
    0,
    0,
    0,
    0,
    0,
    0,
    0,
    0,
    0,
    0,
    0,
    0,
    0,
    0,
    0,
    0,
    0,
    0,
    0,
    0,
    0,
    0,
    0,
    0,
    0,
    0,
    0,
    0,
    0,
    0,
    0,
    0,
    0,
    0,
    0,
    0,
    0,
    0,
    0,
    0,
    0,
    0,
    0,
    0,
    0,
    0,
    0,
    0,
    0,
    0,
    0,
    0,
    0,
    0,
    0,
    0,
    0,
    83,
    0,
    0,
    0,
    0,
    0,
    0,
    83,
    0,
    0,
    0,
    0,
    0,
    0,
    0,
    0,
    0,
    83,
    0,
    0,
    0,
    0,
    0,
    0,
    83,
    0,
    0,
    0,
    0,
    0,
    0,
    0,
    0,
    0,
    0,
    0,
    0,
    0,
    0,
    0,
    0,
    0,
    0,
    0,
    0,
    0,
    0,
    0,
    0,
    0,
    0,
    0,
    0,
    0,
    0,
    0,
    0,
    0,
    0,
    0,
    0,
    0,
    0,
    0,
    0,
    0,
    0,
    0,
    0,
    0,
    0,
    0,
    0,
    0,
    0,
    0,
    0,
    0,
    0,
    0,
    0,
    0,
    0,
    0,
    0,
    0,
    0,
    0,
    0,
    0,
    0,
    0,
    0,
    0,
    83,
    0,
    0,
    0,
    0,
    0,
    0,
    83,
    0,
    0,
    0,
    0,
    0,
    0,
    0,
    0,
    0,
    83,
    0,
    0,
    0,
    0,
    0,
    0,
    83,
    0,
    0,
    0,
    0,
    0,
    0,
    0,
    0,
    0,
    0,
    0,
    0,
    0,
    0,
    0,
    0,
    0,
    0,
    0,
    0,
    0,
    0,
    0,
    0,
    0,
    0,
    0,
    0,
    0,
    0,
    0,
    0,
    0,
    0,
    0,
    0,
    0,
    0,
    0,
    0,
    0,
    0,
    0,
    0,
    0,
    0,
    0,
    0,
    0,
    0,
    0,
    0,
    0,
    0,
    0,
    0,
    0,
    0,
    0,
    0,
    0,
    0,
    0,
    0,
    0,
    0,
    0,
    0,
    0,
    83,
    0,
    0,
    0,
    0,
    0,
    0,
    83,
    0,
    0,
    0,
    0,
    0,
    0,
    0,
    0,
    0,
    83,
    0,
    0,
    0,
    0,
    0,
    0,
    0,
    0,
    0,
    0,
    0,
    0,
    0,
    0,
    0,
    0,
    0,
    0,
    0,
    0,
    0,
    0,
    0,
    0,
    0,
    0,
    0,
    0,
    0,
    0,
    0,
    0,
    0,
    0,
    0,
    0,
    0,
    0,
    0,
    0,
    0,
    0,
    0,
    0,
    0,
    0,
    0,
    0,
    0,
    0,
    0,
    0,
    0,
    0,
    0,
    0,
    0,
    0,
    0,
    0,
    0,
    0,
    0,
    0,
    0,
    0,
    0,
    0,
    0,
    0,
    0,
    0,
    0,
    0,
    0,
    0,
    0,
    0,
    0,
    0,
    0,
    0,
    0,
    83,
    0,
    0,
    0,
    0,
    0,
    0,
    0,
    0,
    0,
    83,
    0,
    0,
    0,
    0,
    0,
    0,
    0,
    0,
    0,
    0,
    0,
    0,
    0,
    0,
    0,
    0,
    0,
    0,
    0,
    0,
    0,
    0,
    0,
    0,
    0,
    0,
    0,
    0,
    0,
    0,
    0,
    0,
    0,
    0,
    0,
    0,
    0,
    0,
    0,
    0,
    0,
    0,
    0,
    0,
    0,
    0,
    0,
    0,
    0,
    0,
    0,
    0,
    0,
    0,
    0,
    0,
    0,
    0,
    0,
    0,
    0,
    0,
    0,
    0,
    0,
    0,
    0,
    0,
    0,
    0,
    0,
    0,
    0,
    0,
    0,
    0,
    0,
    0,
    0,
    0,
    0,
    0,
    0,
    83,
    0,
    0,
    0,
    0,
    0,
    0,
    0,
    0,
    0,
    83,
    0,
    0,
    0,
    0,
    0,
    0,
    83,
    0,
    0,
    0,
    0,
    0,
    0,
    0,
    0,
    0,
    0,
    0,
    0,
    0,
    0,
    0,
    0,
    0,
    0,
    0,
    0,
    0,
    0,
    0,
    0,
    0,
    0,
    0,
    0,
    0,
    0,
    0,
    0,
    0,
    0,
    0,
    0,
    0,
    0,
    0,
    0,
    0,
    0,
    0,
    0,
    0,
    0,
    0,
    0,
    0,
    0,
    0,
    0,
    0,
    0,
    0,
    0,
    0,
    0,
    0,
    0,
    0,
    0,
    0,
    0,
    0,
    0,
    0,
    0,
    0,
    83,
    0,
    0,
    0,
    0,
    0,
    0,
    83,
    0,
    0,
    0,
    0,
    0,
    0,
    0,
    0,
    0,
    83,
    0,
    0,
    0,
    0,
    0,
    0,
    83,
    0,
    0,
    0,
    0,
    0,
    0,
    0,
    0,
    0,
    0,
    0,
    0,
    0,
    0,
    0,
    0,
    0,
    0,
    0,
    0,
    0,
    0,
    0,
    0,
    0,
    0,
    0,
    0,
    0,
    0,
    0,
    0,
    0,
    0,
    0,
    0,
    0,
    0,
    0,
    0,
    0,
    0,
    0,
    0,
    0,
    0,
    0,
    0,
    0,
    0,
    0,
    0,
    0,
    0,
    0,
    0,
    0,
    0,
    0,
    0,
    0,
    0,
    0,
    0,
    0,
    0,
    0,
    0,
    0,
    83,
    0,
    0,
    0,
    0,
    0,
    0,
    83,
    0,
    0,
    0,
    0,
    0,
    0,
    0,
    0,
    0,
    83,
    8,
    8,
    8,
    8,
    8,
    8,
    45,
    0,
    0,
    0,
    0,
    0,
    0,
    0,
    0,
    0,
    0,
    0,
    0,
    0,
    0,
    0,
    0,
    0,
    0,
    0,
    0,
    0,
    0,
    0,
    0,
    0,
    0,
    0,
    0,
    0,
    0,
    0,
    0,
    0,
    0,
    0,
    0,
    0,
    0,
    0,
    0,
    0,
    0,
    0,
    0,
    0,
    0,
    0,
    0,
    0,
    0,
    0,
    0,
    0,
    0,
    0,
    0,
    0,
    0,
    0,
    0,
    0,
    0,
    0,
    0,
    0,
    0,
    0,
    0,
    0,
    83,
    8,
    8,
    8,
    8,
    8,
    8,
    45,
    0,
    0,
    0,
    0,
    0,
    0,
    0,
    0,
    0,
    0,
    0,
    0,
    0,
    0,
    0,
    0,
    0,
    0,
    0,
    0,
    0,
    0,
    0,
    0,
    0,
    0,
    0,
    0,
    0,
    0,
    0,
    0,
    0,
    0,
    0,
    0,
    0,
    0,
    0,
    0,
    0,
    0,
    0,
    0,
    0,
    0,
    0,
    0,
    0,
    0,
    0,
    0,
    0,
    0,
    0,
    0,
    0,
    0,
    0,
    0,
    0,
    0,
    0,
    0,
    0,
    0,
    0,
    0,
    0,
    0,
    0,
    0,
    0,
    0,
    0,
    0,
    0,
    0,
    0,
    0,
    0,
    0,
    0,
    0,
    0,
    0,
    0,
    0,
    0,
    0,
    0,
    0,
    0,
    0,
    0,
    0,
    0,
    0,
    0,
    0,
    0,
    0,
    0,
    0,
    0,
    0,
    0,
    0,
    0,
    0,
    0,
    0,
    0,
    0,
    0,
    0,
    0,
    0,
    0,
    0,
    0,
    0,
    0,
    0,
    0,
    0,
    0,
    0,
    0,
    0,
    0,
    0,
    0,
    0,
    0,
    0,
    0,
    0,
    0,
    0,
    0,
    0,
    0,
    0,
    0,
    0,
    0,
    0,
    0,
    0,
    0,
    0,
    0,
    0,
    0,
    0,
    0,
    0,
    0,
    0,
    0,
    0,
    0,
    0,
    0,
    0,
    0,
    0,
    0,
    0,
    0,
    0,
    0,
    0,
    0,
    0,
    0,
    0,
    0,
    0,
    0,
    0,
    0,
    0,
    0,
    0,
    0,
    0,
    0,
    0,
    0,
    0,
    0,
    0,
    0,
    0,
    0,
    0,
    0,
    0,
    0,
    0,
    0,
    0,
    0,
    0,
    0,
    0,
    0,
    0,
    0,
    0,
    0,
    0,
    0,
    0,
    0,
    0,
    0,
    0,
    0,
    0,
    0,
    0,
    0,
    0,
    0,
    0,
    0,
    0,
    0,
    0,
    0,
    0,
    0,
    0,
    0,
    0,
    0,
    0,
    0,
    0,
    0,
    0,
    0,
    0,
    0,
    0,
    0,
    0,
    0,
    0,
    0,
    0,
    0,
    0,
    0,
    0,
    0,
    0,
    0,
    0,
    0,
    0,
    0,
    0,
    0,
    0,
    0,
    0,
    0,
    0,
    0,
    0,
    0,
    0,
    0,
    0,
    0,
    0,
    0,
    0,
    0,
    0,
    0,
    0,
    0,
    0,
    0,
    0,
    0,
    0,
    0,
    0,
    0,
    0,
    0,
    0,
    0,
    0,
    0,
    0,
    0,
    0,
    0,
    0,
    0,
    0,
    0,
    0,
    0,
    0,
    0,
    0,
    0,
    0,
    0,
    0,
    0,
    0,
    0,
    0,
    0,
    0,
    0,
    0,
    0,
    0,
    0,
    0,
    0,
    0,
    0,
    0,
    0,
    0,
    0,
    0,
    0,
    0,
    0,
    0,
    0,
    0,
    0,
    0,
    0,
    0,
    0,
    0,
    0,
    0,
    0,
    0,
    0,
    0,
    0,
    0,
    0,
    0,
    0,
    0,
    0,
    0,
    0,
    0,
    0,
    0,
    0,
    0,
    0,
    0,
    0,
    0,
    0,
    0,
    0,
    0,
    0,
    0,
    0,
    0,
    0,
    0,
    0,
    0,
    0,
    0,
    0,
    0,
    0,
    0,
    0,
    0,
    0,
    0,
    0,
    0,
    0,
    0,
    0,
    0,
    0,
    0,
    0,
    0,
    0,
    0,
    0,
    0,
    0,
    0,
    0,
    0,
    0,
    0,
    0,
    0,
    0,
    0,
    0,
    0,
    0,
    0,
    0,
    0,
    0,
    0,
    0,
    0,
    0,
    0,
    0,
    0,
    0,
    0,
    0,
    0,
    0,
    0,
    0,
    0,
    0,
    0,
    0,
    0,
    0,
    0,
    0,
    0,
    0,
    0,
    0,
    0,
    0,
    0,
    0,
    0,
    0,
    0,
    0,
    0,
    0,
    0,
    0,
    0,
    0,
    0,
    0,
    0,
    0,
    0,
    0,
    0,
    0,
    0,
    0,
    0,
    0,
    0,
    0,
    0,
    0,
    0,
    0,
    0,
    0,
    0,
    0,
    0,
    0,
    0,
    0,
    0,
    0,
    0,
    0,
    0,
    0,
    0,
    0,
    0,
    0,
    0,
    0,
    0,
    0,
    0,
    0,
    0,
    0,
    0,
    0,
    0,
    0,
    0,
    0,
    0,
    0,
    0,
    0,
    0,
    0,
    0,
    0,
    0,
    0,
    0,
    0,
    0,
    0,
    0,
    0,
    0,
    0,
    0,
    0,
    0,
    0,
    0,
    0,
    0,
    0,
    0,
    0,
    0,
    0,
    0,
    0,
    0,
    0,
    0,
    0,
    0,
    0,
    0,
    0,
    0,
    0,
    0,
    0,
    0,
    0,
    0,
    0,
    0,
    0,
    0,
    0,
    0,
    0,
    0,
    0,
    0,
    0,
    0,
    0,
    0,
    0,
    0,
    0,
    0,
    0,
    0,
    0,
    0,
    0,
    0,
    0,
    0,
    0,
    0,
    0,
    0,
    0,
    0,
    0,
    0,
    0,
    0,
    0,
    0,
    0,
    0,
    0,
    0,
    0,
    0,
    0,
    0,
    0,
    0,
    0,
    0,
    0,
    0,
    0,
    0,
    0,
    0,
    0,
    0,
    0,
    0,
    0,
    0,
    0,
    0,
    0,
    0,
    0,
    0,
    0,
    0,
    0,
    0,
    0,
    0,
    0,
    0,
    0,
    0,
    0,
    0,
    0,
    0,
    0,
    0,
    0,
    0,
    0,
    0,
    0,
    0,
    0,
    0,
    0,
    0,
    0,
    0,
    0,
    0,
    0,
    0,
    0,
    0,
    0,
    0,
    0,
    0,
    0,
    0,
    0,
    0,
    0,
    0,
    0,
    0,
    0,
    0,
    0,
    0,
    0,
    0,
    0,
    0,
    0,
    0,
    0,
    0,
    0,
    0,
    0,
    0,
    0,
    0,
    0,
    0,
    0,
    0,
    0,
    0,
    0,
    0,
    0,
    0,
    0,
    0,
    0,
    0,
    0,
    0,
    0,
    0,
    0,
    0,
    0,
    0,
    0,
    0,
    0,
    0,
    0,
    0,
    0,
    0,
    0,
    0,
    0,
    0,
    0,
    0,
    0,
    0,
    0,
    0,
    0,
    0,
    0,
    0,
    0,
    0,
    0,
    0,
    0,
    0,
    0,
    0,
    0,
    0,
    0,
    0,
    0,
    0,
    0,
    0,
    0,
    0,
    0,
    0,
    0,
    0,
    0,
    0,
    0,
    0,
    0,
    0,
    0,
    0,
    0,
    0,
    0,
    0,
    0,
    0,
    0,
    0,
    0,
    0,
    0,
    0,
    0,
    0,
    0,
    0,
    0,
    0,
    0,
    0,
    0,
    0,
    0,
    0,
    0,
    0,
    0,
    0,
    0,
    0,
    0,
    0,
    0,
    0,
    0,
    0,
    0,
    0,
    0,
    0,
    0,
    0,
    0,
    0,
    0,
    0,
    0,
    0,
    0,
    0,
    0,
    0,
    0,
    0,
    0,
    0,
    0,
    0,
    0,
    0,
    0,
    0,
    0,
    0,
    0,
    0,
    0,
    0,
    0,
    0,
    0,
    0,
    0,
    0,
    0,
    0,
    0,
    0,
    0,
    0,
    0,
    0,
    0,
    0,
    0,
    0,
    0,
    0,
    0,
    0,
    0,
    0,
    0,
    0,
    0,
    0,
    0,
    0,
    0,
    0,
    0,
    0,
    0,
    0,
    0,
    0,
    0,
    0,
    0,
    0,
    0,
    0,
    0,
    0,
    0,
    0,
    0,
    0,
    0,
    0,
    0,
    0,
    0,
    0,
    0,
    0,
    0,
    0,
    0,
    0,
    0,
    0,
    0,
    0,
    0,
    0,
    0,
    0,
    0,
    0,
    0,
    0,
    0,
    0,
    0,
    0,
    0,
    0,
    0,
    0,
    0,
    0,
    0,
    0,
    0,
    0,
    0,
    0,
    0,
    0,
    0,
    0,
    0,
    0,
    0,
    0,
    0,
    0,
    0,
    0,
    0,
    0,
    0,
    0,
    0,
    0,
    0,
    0,
    0,
    0,
    0,
    0,
    0,
    0,
    0,
    0,
    0,
    0,
    0,
    0,
    0,
    0,
    0,
    0,
    0,
    0,
    0,
    0,
    0,
    0,
    0,
    0,
    0,
    0,
    0,
    0,
    0,
    0,
    0,
    0,
    0,
    0,
    0,
    0,
    0,
    0,
    0,
    0,
    0,
    0,
    0,
    0,
    0,
    0,
    0,
    0,
    0,
    0,
    0,
    0,
    0,
    0,
    0,
    0,
    0,
    0,
    0,
    0,
    0,
    0,
    0,
    0,
    0,
    0,
    0,
    0,
    0,
    0,
    0,
    0,
    0,
    0,
    0,
    0,
    0,
    0,
    0,
    0,
    0,
    0,
    0,
    0,
    0,
    0,
    0,
    0,
    0,
    0,
    0,
    0,
    0,
    0,
    0,
    0,
    0,
    0,
    0,
    0,
    0,
    0,
    0,
    0,
    0,
    0,
    0,
    0,
    0,
    0,
    0,
    0,
    0,
    0,
    0,
    0,
    0,
    0,
    0,
    0,
    0,
    0,
    0,
    0,
    0,
    0,
    0,
    0,
    0,
    0,
    0,
    0,
    0,
    0,
    0,
    0,
    0,
    0,
    0,
    0,
    0,
    0,
    0,
    0,
    0,
    0,
    0,
    0,
    0,
    0,
    0,
    0,
    0,
    0,
    0,
    0,
    0,
    0,
    0,
    0,
    0,
    0,
    0,
    0,
    0,
    0,
    0,
    0,
    0,
    0,
    0,
    0,
    0,
    0,
    0,
    0,
    0,
    0,
    0,
    0,
    0,
    0,
    0,
    0,
    0,
    0,
    0,
    0,
    0,
    0,
    0,
    0,
    0,
    0,
    0,
    0,
    0,
    0,
    0,
    0,
    0,
    0,
    0,
    0,
    0,
    0,
    0,
    0,
    0,
    0,
    0,
    0,
    0,
    0,
    0,
    0,
    0,
    0,
    0,
    0,
    0,
    0,
    0,
    0,
    0,
    0,
    0,
    0,
    0,
    0,
    0,
    0,
    0,
    0,
    0,
    0,
    0,
    0,
    0,
    0,
    0,
    0,
    0,
    0,
    0,
    0,
    0,
    0,
    0,
    0,
    0,
    0,
    0,
    0,
    0,
    0,
    0,
    0,
    0,
    0,
    0,
    0,
    0,
    0,
    0,
    0,
    0,
    0,
    0,
    0,
    0,
    0,
    0,
    0,
    0,
    0,
    0,
    0,
    0,
    0,
    0,
    0,
    0,
    0,
    0,
    0,
    0,
    0,
    0,
    0,
    0,
    0,
    0,
    0,
    0,
    0,
    0,
    0,
    0,
    0,
    0,
    0,
    0,
    0,
    0,
    0,
    0,
    0,
    0,
    0,
    0,
    0,
    0,
    0,
    0,
    0,
    0,
    0,
    0,
    0,
    0,
    0,
    0,
    0,
    0,
    0,
    0,
    0,
    0,
    0,
    0,
    0,
    0,
    0,
    0,
    0,
    0,
    0,
    0,
    0,
    0,
    0,
    0,
    0,
    0,
    0,
    0,
    0,
    0,
    0,
    0,
    0,
    0,
    0,
    0,
    0,
    0,
    0,
    0,
    0,
    0,
    0,
    0,
    0,
    0,
    0,
    0,
    0,
    0,
    0,
    0,
    0,
    0,
    0,
    0,
    0,
    0,
    0,
    0,
    0,
    0,
    0,
    0,
    0,
    0,
    0,
    0,
    0,
    0,
    0,
    0,
    0,
    0,
    0,
    0,
    0,
    0,
    0,
    0,
    0,
    0,
    0,
    0,
    0,
    0,
    0,
    0,
    0,
    0,
    0,
    0,
    0,
    0,
    0,
    0,
    0,
    0,
    0,
    0,
    0,
    0,
    0,
    0,
    0,
    0,
    0,
    0,
    0,
    0,
    0,
    0,
    0,
    0,
    0,
    0,
    0,
    0,
    0,
    0,
    0,
    0,
    0,
    0,
    0,
    0,
    0,
    0,
    0,
    0,
    0,
    0,
    0,
    0,
    0,
    0,
    0,
    0,
    0,
    0,
    0,
    0,
    0,
    0,
    0,
    0,
    0,
    0,
    0,
    0,
    0,
    0,
    0,
    0,
    0,
    0,
    0,
    0,
    0,
    0,
    0,
    0,
    0,
    0,
    0,
    0,
    0,
    0,
    0,
    0,
    0,
    0,
    0,
    0,
    0,
    0,
    0,
    0,
    0,
    0,
    0,
    0,
    0,
    0,
    0,
    0,
    0,
    0,
    0,
    0,
    0,
    0,
    0,
    0,
    0,
    0,
    0,
    0,
    0,
    0,
    0,
    0,
    0,
    0,
    0,
    0,
    0,
    0,
    0,
    0,
    0,
    0,
    0,
    0,
    0,
    0,
    0,
    0,
    0,
    0,
    0,
    0,
    0,
    0,
    0,
    0,
    0,
    0,
    0,
    0,
    0,
    0,
    0,
    0,
    0,
    0,
    0,
    0,
    0,
    0,
    0,
    0,
    0,
    0,
    0,
    0,
    0,
    0,
    0,
    0,
    0,
    0,
    0,
    0,
    0,
    0,
    0,
    0,
    0,
    0,
    0,
    0,
    0,
    0,
    0,
    0,
    0,
    0,
    0,
    0,
    0,
    0,
    0,
    0,
    0,
    0,
    0,
    0,
    0,
    0,
    0,
    0,
    0,
    0,
    0,
    0,
    0,
    0,
    0,
    0,
    0,
    0,
    0,
    0,
    0,
    0,
    0,
    0,
    0,
    0,
    0,
    0,
    0,
    0,
    0,
    0,
    0,
    0,
    0,
    0,
    0,
    0,
    0,
    0,
    0,
    0,
    0,
    0,
    0,
    0,
    0,
    0,
    0,
    0,
    0,
    0,
    0,
    0,
    0,
    0,
    0,
    0,
    0,
    0,
    0,
    0,
    0,
    0,
    0,
    0,
    0,
    0,
    0,
    0,
    0,
    0,
    0,
    0,
    0,
    0,
    0,
    0,
    0,
    0,
    0,
    0,
    0,
    0,
    0,
    0,
    0,
    0,
    0,
    0,
    0,
    0,
    0,
    0,
    0,
    0,
    0,
    0,
    0,
    0,
    0,
    0,
    0,
    0,
    0,
    0,
    0,
    0,
    0,
    0,
    0,
    0,
    0,
    0,
    0,
    0,
    0,
    0,
    0,
    0,
    0,
    0,
    0,
    0,
    0,
    0,
    0,
    0,
    0,
    0,
    0,
    0,
    0,
    0,
    0,
    0,
    0,
    0,
    0,
    0,
    0,
    0,
    0,
    0,
    0,
    0,
    0,
    0,
    0,
    0,
    0,
    0,
    0,
    0,
    0,
    0,
    0,
    0,
    0,
    0,
    0,
    0,
    0,
    0,
    0,
    0,
    0,
    0,
    0,
    0,
    0,
    0,
    0,
    0,
    0,
    0,
    0,
    0,
    0,
    0,
    0,
    0,
    0,
    0,
    0,
    0,
    0,
    0,
    0,
    0,
    0,
    0,
    0,
    0,
    0,
    0,
    0,
    0,
    0,
    0,
    0,
    0,
    0,
    0,
    0,
    0,
    0,
    0,
    0,
    0,
    0,
    0,
    0,
    0,
    0,
    0,
    0,
    0,
    0,
    0,
    0,
    0,
    0,
    0,
    0,
    0,
    0,
    0,
    0,
    0,
    0,
    0,
    0,
    0,
    0,
    0,
    0,
    0,
    0,
    0,
    0,
    0,
    0,
    0,
    0,
    0,
    0,
    0,
    0,
    0,
    0,
    0,
    0,
    0,
    0,
    0,
    0,
    0,
    0,
    0,
    0,
    0,
    0,
    0,
    0,
    0,
    0,
    0,
    0,
    0,
    0,
    0,
    0,
    0,
    0,
    0,
    0,
    0,
    0,
    0,
    0,
    0,
    0,
    0,
    0,
    0,
    0,
    0,
    0,
    0,
    0,
    0,
    0,
    0,
    0,
    0,
    0,
    0,
    0,
    0,
    0,
    0,
    0,
    0,
    0,
    0,
    0,
    0,
    0,
    0,
    0,
    0,
    0,
    0,
    0,
    0,
    0,
    0,
    0,
    0,
    0,
    0,
    0,
    0,
    0,
    0,
    0,
    0,
    0,
    0,
    0,
    0,
    0,
    0,
    0,
    0,
    0,
    0,
    0,
    0,
    0,
    0,
    0,
    0,
    0,
    0,
    0,
    0,
    0,
    0,
    0,
    0,
    0,
    0,
    0,
    0,
    0,
    0,
    0,
    0,
    0,
    0,
    0,
    0,
    0,
    0,
    0,
    0,
    0,
    0,
    0,
    0,
    0,
    0,
    0,
    0,
    0,
    0,
    0,
    0,
    0,
    0,
    0,
    0,
    0,
    0,
    0,
    0,
    0,
    0,
    0,
    0,
    0,
    0,
    0,
    0,
    0,
    0,
    0,
    0,
    0,
    0,
    0,
    0,
    0,
    0,
    0,
    0,
    0,
    0,
    0,
    0,
    0,
    0,
    0,
    0,
    0,
    0,
    0,
    0,
    0,
    0,
    0,
    0,
    0,
    0,
    0,
    0,
    0,
    0,
    0,
    0,
    0,
    0,
    0,
    0,
    0,
    0,
    0,
    0,
    0,
    0,
    0,
    0,
    0,
    0,
    0,
    0,
    0,
    0,
    0,
    0,
    0,
    0,
    0,
    0,
    0,
    0,
    0,
    0,
    0,
    0,
    0,
    0,
    0,
    0,
    0,
    0,
    0,
    0,
    0,
    0,
    0,
    0,
    0,
    0,
    0,
    0,
    0,
    0,
    0,
    0,
    0,
    0,
    0,
    0,
    0,
    0,
    0,
    0,
    0,
    0,
    0,
    0,
    0,
    0,
    0,
    0,
    0,
    0,
    0,
    0,
    0,
    0,
    0,
    0,
    0,
    0,
    0,
    0,
    0,
    0,
    0,
    0,
    0,
    0,
    0,
    0,
    0,
    0,
    0,
    0,
    0,
    0,
    0,
    0,
    0,
    0,
    0,
    0,
    0,
    0,
    0,
    0,
    0,
    0,
    0,
    0,
    0,
    0,
    0,
    0,
    0,
    0,
    0,
    0,
    0,
    0,
    0,
    0,
    0,
    0,
    0,
    0,
    0,
    0,
    0,
    0,
    0,
    0,
    0,
    0,
    0,
    0,
    0,
    0,
    0,
    0,
    0,
    0,
    0,
    0,
    0,
    0,
    0,
    0,
    0,
    0,
    0,
    0,
    0,
    0,
    0,
    0,
    0,
    0,
    0,
    0,
    0,
    0,
    0,
    0,
    0,
    0,
    0,
    0,
    0,
    0,
    0,
    0,
    0,
    0,
    0,
    0,
    0,
    0,
    0,
    0,
    0,
    0,
    0,
    0,
    0,
    0,
    0,
    0,
    0,
    0,
    0,
    0,
    0,
    0,
    0,
    0,
    0,
    0,
    0,
    0,
    0,
    0,
    0,
    0,
    0,
    0,
    0,
    0,
    0,
    0,
    0,
    0,
    0,
    0,
    0,
    0,
    0,
    0,
    0,
    0,
    0,
    0,
    0,
    0,
    0,
    0,
    0,
    0,
    0,
    0,
    0,
    0,
    0,
    0,
    0,
    0,
    0,
    0,
    0,
    0,
    0,
    0,
    0,
    0,
    0,
    0,
    0,
    0,
    0,
    0,
    0,
    0,
    0,
    0,
    0,
    0,
    0,
    0,
    0,
    0,
    0,
    0,
    0,
    0,
    0,
    0,
    0,
    0,
    0,
    0,
    0,
    0,
    0,
    0,
    0,
    0,
    0,
    0,
    0,
    0,
    0,
    0,
    0,
    0,
    0,
    0,
    0,
    0,
    0,
    0,
    0,
    0,
    0,
    0,
    0,
    0,
    0,
    0,
    0,
    0,
    0,
    0,
    0,
    0,
    0,
    0,
    0,
    0,
    0,
    0,
    0,
    0,
    0,
    0,
    0,
    0,
    0,
    0,
    0,
    0,
    0,
    0,
    0,
    0,
    0,
    0,
    0,
    0,
    0,
    0,
    0,
    0,
    0,
    0,
    0,
    0,
    0,
    0,
    0,
    0,
    0,
    0,
    0,
    0,
    0,
    0,
    0,
    0,
    0,
    0,
    0,
    0,
    0,
    0,
    0,
    0,
    0,
    0,
    0,
    0,
    0,
    0,
    0,
    0,
    0,
    0,
    0,
    0,
    0,
    0,
    0,
    0,
    0,
    0,
    0,
    0,
    0,
    0,
    0,
    0,
    0,
    0,
    0,
    0,
    0,
    0,
    0,
    0,
    0,
    0,
    0,
    0,
    0,
    0,
    0,
    0,
    0,
    0,
    0,
    0,
    0,
    0,
    0,
    0,
    0,
    0,
    0,
    0,
    0,
    0,
    0,
    0,
    0,
    0,
    0,
    0,
    0,
    0,
    0,
    0,
    0,
    0,
    0,
    0,
    0,
    0,
    0,
    0,
    0,
    0,
    0,
    0,
    0,
    0,
    0,
    0,
    0,
    0,
    0,
    0,
    0,
    0,
    0,
    0,
    0,
    0,
    0,
    0,
    0,
    0,
    0,
    0,
    0,
    0,
    0,
    0,
    0,
    0,
    0,
    0,
    0,
    0,
    0,
    0,
    0,
    0,
    0,
    0,
    0,
    0,
    0,
    0,
    0,
    0,
    0,
    0,
    0,
    0,
    0,
    0,
    0,
    0,
    0,
    0,
    0,
    0,
    0,
    0,
    0,
    0,
    0,
    0,
    0,
    0,
    0,
    0,
    0,
    0,
    0,
    0,
    0,
    0,
    0,
    0,
    0,
    0,
    0,
    0,
    0,
    0,
    0,
    0,
    0,
    0,
    0,
    0,
    0,
    0,
    0,
    0,
    0,
    0,
    0,
    0,
    0,
    0,
    0,
    0,
    0,
    0,
    0,
    0,
    0,
    0,
    0,
    0,
    0,
    0,
    0,
    0,
    0,
    0,
    0,
    0,
    0,
    0,
    0,
    0,
    0,
    0,
    0,
    0,
    0,
    0,
    0,
    0,
    0,
    0,
    0,
    0,
    0,
    0,
    0,
    0,
    0,
    0,
    0,
    0,
    0,
    0,
    0,
    0,
    0,
    0,
    0,
    0,
    0,
    0,
    0,
    0,
    0,
    0,
    0,
    0,
    0,
    0,
    0,
    0,
    0,
    0,
    0,
    0,
    0,
    0,
    0,
    0,
    0,
    0,
    0,
    0,
    0,
    0,
    0,
    0,
    0,
    0,
    0,
    0,
    0,
    0,
    0,
    0,
    0,
    0,
    0,
    0,
    0,
    0,
    0,
    0,
    0,
    0,
    0,
    0,
    0,
    0,
    0,
    0,
    0,
    0,
    0,
    0,
    0,
    0,
    0,
    0,
    0,
    0,
    0,
    0,
    0,
    0,
    0,
    0,
    0,
    0,
    0,
    0,
    0,
    0,
    0,
    0,
    0,
    0,
    0,
    0,
    0,
    0,
    0,
    0,
    0,
    0,
    0,
    0,
    0,
    0,
    0,
    0
   ]
  },
  {
   "name": "collisions",
   "type": "tilelayer",
   "visible": false,
   "opacity": 1,
   "x": 0,
   "y": 0,
   "width": 94,
   "height": 123,
   "data": [
    0,
    0,
    0,
    0,
    0,
    0,
    0,
    0,
    0,
    0,
    0,
    0,
    0,
    0,
    0,
    0,
    0,
    0,
    0,
    0,
    0,
    0,
    0,
    0,
    0,
    0,
    0,
    0,
    0,
    0,
    0,
    0,
    0,
    0,
    0,
    0,
    0,
    0,
    0,
    0,
    0,
    0,
    0,
    0,
    0,
    0,
    0,
    0,
    0,
    0,
    0,
    0,
    0,
    0,
    0,
    0,
    0,
    0,
    0,
    0,
    0,
    0,
    0,
    0,
    0,
    0,
    0,
    0,
    0,
    0,
    0,
    0,
    0,
    0,
    0,
    0,
    0,
    0,
    0,
    0,
    0,
    0,
    0,
    0,
    0,
    0,
    0,
    0,
    0,
    0,
    0,
    0,
    0,
    0,
    0,
    0,
    0,
    0,
    0,
    0,
    0,
    0,
    0,
    0,
    0,
    0,
    0,
    0,
    0,
    0,
    0,
    0,
    0,
    0,
    0,
    0,
    0,
    0,
    0,
    0,
    0,
    0,
    0,
    0,
    0,
    0,
    0,
    0,
    0,
    0,
    0,
    0,
    0,
    0,
    0,
    0,
    0,
    0,
    0,
    0,
    0,
    0,
    0,
    0,
    0,
    0,
    0,
    0,
    0,
    0,
    0,
    0,
    0,
    0,
    0,
    0,
    0,
    0,
    0,
    0,
    0,
    0,
    0,
    0,
    0,
    0,
    0,
    0,
    0,
    0,
    0,
    0,
    0,
    0,
    0,
    0,
    0,
    0,
    0,
    0,
    0,
    0,
    0,
    0,
    0,
    0,
    0,
    0,
    0,
    0,
    0,
    0,
    0,
    0,
    0,
    0,
    0,
    0,
    0,
    0,
    0,
    0,
    0,
    0,
    0,
    0,
    0,
    0,
    0,
    0,
    0,
    0,
    0,
    0,
    0,
    0,
    0,
    0,
    0,
    0,
    0,
    0,
    0,
    0,
    0,
    0,
    0,
    0,
    0,
    0,
    0,
    0,
    0,
    0,
    0,
    0,
    0,
    0,
    0,
    0,
    0,
    0,
    0,
    0,
    0,
    0,
    0,
    0,
    0,
    0,
    0,
    0,
    0,
    0,
    0,
    0,
    0,
    0,
    0,
    0,
    0,
    0,
    0,
    0,
    0,
    0,
    0,
    0,
    0,
    0,
    0,
    0,
    0,
    0,
    0,
    0,
    0,
    0,
    0,
    0,
    0,
    0,
    0,
    0,
    0,
    0,
    0,
    0,
    0,
    0,
    0,
    0,
    0,
    0,
    0,
    0,
    0,
    0,
    0,
    0,
    0,
    0,
    0,
    0,
    0,
    0,
    0,
    0,
    0,
    0,
    0,
    0,
    0,
    0,
    0,
    0,
    0,
    0,
    0,
    0,
    0,
    0,
    0,
    0,
    0,
    0,
    0,
    0,
    0,
    0,
    0,
    0,
    0,
    0,
    0,
    0,
    0,
    0,
    0,
    0,
    0,
    0,
    0,
    0,
    0,
    0,
    0,
    0,
    0,
    0,
    0,
    0,
    0,
    0,
    0,
    0,
    0,
    0,
    0,
    0,
    0,
    0,
    0,
    0,
    0,
    0,
    0,
    0,
    0,
    0,
    0,
    0,
    0,
    0,
    0,
    0,
    0,
    0,
    0,
    0,
    0,
    0,
    0,
    0,
    0,
    0,
    0,
    0,
    0,
    0,
    0,
    0,
    0,
    0,
    0,
    0,
    0,
    0,
    0,
    0,
    0,
    0,
    0,
    0,
    0,
    0,
    0,
    0,
    0,
    0,
    0,
    0,
    0,
    0,
    0,
    0,
    0,
    0,
    0,
    0,
    0,
    0,
    0,
    0,
    0,
    0,
    0,
    0,
    0,
    0,
    0,
    0,
    0,
    0,
    0,
    0,
    0,
    0,
    0,
    0,
    0,
    0,
    0,
    0,
    0,
    0,
    0,
    0,
    0,
    0,
    0,
    0,
    0,
    0,
    0,
    0,
    0,
    0,
    0,
    0,
    0,
    0,
    0,
    0,
    0,
    0,
    0,
    0,
    0,
    0,
    0,
    0,
    0,
    0,
    0,
    0,
    0,
    0,
    0,
    0,
    0,
    0,
    0,
    0,
    0,
    0,
    0,
    0,
    0,
    0,
    0,
    0,
    0,
    0,
    0,
    0,
    0,
    0,
    0,
    0,
    0,
    0,
    0,
    0,
    0,
    0,
    0,
    0,
    0,
    0,
    0,
    0,
    0,
    0,
    0,
    0,
    0,
    0,
    0,
    0,
    0,
    0,
    0,
    0,
    0,
    0,
    0,
    0,
    0,
    0,
    0,
    0,
    0,
    0,
    0,
    0,
    0,
    0,
    0,
    0,
    0,
    0,
    0,
    0,
    0,
    0,
    0,
    0,
    0,
    0,
    0,
    0,
    0,
    0,
    0,
    0,
    0,
    0,
    0,
    0,
    0,
    0,
    0,
    0,
    0,
    0,
    0,
    0,
    0,
    0,
    0,
    0,
    0,
    0,
    0,
    0,
    0,
    0,
    0,
    0,
    0,
    0,
    0,
    0,
    0,
    0,
    0,
    0,
    0,
    0,
    0,
    0,
    0,
    0,
    0,
    0,
    0,
    0,
    0,
    0,
    0,
    0,
    0,
    0,
    0,
    0,
    0,
    0,
    0,
    0,
    0,
    0,
    0,
    0,
    0,
    0,
    0,
    0,
    0,
    0,
    0,
    0,
    0,
    0,
    0,
    0,
    0,
    0,
    0,
    0,
    0,
    0,
    0,
    0,
    0,
    0,
    0,
    0,
    0,
    0,
    0,
    0,
    0,
    0,
    0,
    0,
    0,
    0,
    0,
    0,
    0,
    0,
    0,
    0,
    0,
    0,
    0,
    0,
    0,
    0,
    0,
    0,
    0,
    0,
    0,
    0,
    0,
    0,
    0,
    0,
    0,
    0,
    0,
    0,
    0,
    0,
    0,
    0,
    0,
    0,
    0,
    0,
    0,
    0,
    0,
    0,
    0,
    0,
    0,
    0,
    0,
    0,
    0,
    0,
    0,
    0,
    0,
    0,
    0,
    0,
    0,
    0,
    0,
    0,
    0,
    0,
    0,
    0,
    0,
    0,
    0,
    0,
    0,
    0,
    0,
    0,
    0,
    0,
    0,
    0,
    0,
    0,
    0,
    0,
    0,
    0,
    0,
    0,
    0,
    0,
    0,
    0,
    0,
    0,
    0,
    0,
    0,
    0,
    0,
    0,
    0,
    0,
    0,
    0,
    0,
    0,
    0,
    0,
    0,
    0,
    0,
    0,
    0,
    0,
    0,
    0,
    0,
    0,
    0,
    0,
    0,
    0,
    0,
    0,
    0,
    0,
    0,
    0,
    0,
    0,
    0,
    0,
    0,
    0,
    0,
    0,
    0,
    0,
    0,
    0,
    0,
    0,
    0,
    0,
    0,
    0,
    0,
    0,
    0,
    0,
    0,
    0,
    0,
    0,
    0,
    0,
    0,
    0,
    0,
    0,
    0,
    0,
    0,
    0,
    0,
    0,
    0,
    0,
    0,
    0,
    0,
    0,
    0,
    0,
    0,
    0,
    0,
    0,
    0,
    0,
    0,
    0,
    0,
    0,
    0,
    0,
    0,
    0,
    0,
    0,
    0,
    0,
    0,
    0,
    0,
    0,
    0,
    0,
    0,
    0,
    0,
    0,
    0,
    0,
    0,
    0,
    0,
    0,
    0,
    0,
    0,
    0,
    0,
    0,
    0,
    0,
    0,
    0,
    0,
    0,
    0,
    0,
    0,
    0,
    0,
    0,
    0,
    0,
    0,
    0,
    0,
    0,
    0,
    0,
    0,
    0,
    0,
    0,
    0,
    0,
    0,
    0,
    0,
    0,
    0,
    0,
    0,
    0,
    0,
    0,
    0,
    0,
    0,
    0,
    0,
    0,
    0,
    0,
    0,
    0,
    0,
    0,
    0,
    0,
    0,
    0,
    0,
    0,
    0,
    0,
    0,
    0,
    0,
    0,
    0,
    0,
    0,
    0,
    0,
    0,
    0,
    0,
    0,
    0,
    0,
    0,
    0,
    0,
    0,
    0,
    0,
    0,
    0,
    0,
    0,
    0,
    0,
    0,
    0,
    0,
    0,
    0,
    0,
    0,
    0,
    0,
    0,
    0,
    0,
    0,
    0,
    0,
    0,
    0,
    0,
    0,
    0,
    0,
    0,
    0,
    0,
    0,
    0,
    0,
    0,
    0,
    0,
    0,
    0,
    0,
    0,
    0,
    0,
    0,
    0,
    0,
    0,
    0,
    0,
    0,
    0,
    0,
    0,
    0,
    0,
    0,
    0,
    0,
    0,
    0,
    0,
    0,
    0,
    0,
    0,
    0,
    0,
    0,
    0,
    0,
    0,
    0,
    0,
    0,
    0,
    0,
    0,
    0,
    0,
    0,
    0,
    0,
    0,
    0,
    0,
    0,
    0,
    0,
    0,
    0,
    0,
    0,
    0,
    0,
    0,
    0,
    0,
    0,
    0,
    0,
    0,
    0,
    0,
    0,
    0,
    0,
    0,
    0,
    0,
    0,
    0,
    0,
    0,
    0,
    0,
    0,
    0,
    0,
    0,
    0,
    0,
    0,
    0,
    0,
    0,
    0,
    0,
    0,
    0,
    0,
    0,
    0,
    0,
    0,
    0,
    0,
    0,
    0,
    0,
    0,
    0,
    0,
    0,
    0,
    0,
    0,
    0,
    0,
    0,
    0,
    0,
    0,
    0,
    0,
    0,
    0,
    0,
    0,
    0,
    0,
    0,
    0,
    0,
    0,
    0,
    0,
    0,
    0,
    0,
    0,
    0,
    0,
    0,
    0,
    0,
    0,
    0,
    0,
    0,
    0,
    0,
    0,
    0,
    0,
    0,
    0,
    0,
    0,
    0,
    0,
    0,
    0,
    0,
    0,
    0,
    0,
    0,
    0,
    0,
    0,
    0,
    0,
    0,
    0,
    0,
    0,
    0,
    0,
    0,
    0,
    0,
    0,
    0,
    0,
    0,
    0,
    0,
    0,
    0,
    0,
    0,
    0,
    0,
    0,
    0,
    0,
    0,
    0,
    0,
    0,
    0,
    0,
    0,
    0,
    0,
    0,
    0,
    0,
    0,
    0,
    0,
    0,
    0,
    0,
    0,
    0,
    0,
    0,
    0,
    0,
    0,
    0,
    0,
    0,
    0,
    0,
    0,
    0,
    0,
    0,
    0,
    0,
    0,
    0,
    0,
    0,
    0,
    0,
    0,
    0,
    0,
    0,
    0,
    0,
    0,
    0,
    0,
    0,
    0,
    0,
    0,
    0,
    0,
    0,
    0,
    0,
    0,
    0,
    0,
    0,
    0,
    0,
    0,
    0,
    0,
    0,
    0,
    0,
    0,
    0,
    0,
    0,
    0,
    0,
    0,
    0,
    0,
    0,
    0,
    0,
    0,
    0,
    0,
    0,
    0,
    0,
    0,
    0,
    0,
    0,
    0,
    0,
    0,
    0,
    0,
    0,
    0,
    0,
    0,
    0,
    0,
    0,
    0,
    0,
    0,
    0,
    0,
    0,
    0,
    0,
    0,
    0,
    0,
    0,
    0,
    0,
    0,
    0,
    0,
    0,
    0,
    0,
    0,
    0,
    0,
    0,
    0,
    0,
    0,
    0,
    0,
    0,
    0,
    0,
    0,
    0,
    0,
    0,
    0,
    0,
    0,
    0,
    0,
    0,
    0,
    0,
    0,
    0,
    0,
    0,
    0,
    0,
    0,
    0,
    0,
    0,
    0,
    0,
    0,
    0,
    86,
    21,
    21,
    21,
    21,
    21,
    21,
    82,
    0,
    0,
    0,
    86,
    21,
    21,
    21,
    21,
    21,
    21,
    82,
    0,
    0,
    0,
    86,
    21,
    21,
    21,
    21,
    21,
    21,
    82,
    0,
    0,
    0,
    86,
    21,
    21,
    21,
    21,
    21,
    21,
    82,
    0,
    0,
    0,
    86,
    21,
    21,
    21,
    21,
    21,
    21,
    82,
    0,
    0,
    0,
    86,
    21,
    21,
    21,
    21,
    21,
    21,
    82,
    0,
    0,
    0,
    86,
    21,
    21,
    21,
    21,
    21,
    21,
    82,
    0,
    0,
    0,
    86,
    21,
    21,
    21,
    21,
    21,
    21,
    82,
    0,
    0,
    0,
    0,
    0,
    0,
    0,
    0,
    0,
    83,
    0,
    0,
    0,
    0,
    0,
    0,
    83,
    0,
    0,
    0,
    83,
    0,
    0,
    0,
    0,
    0,
    0,
    83,
    0,
    0,
    0,
    83,
    0,
    0,
    0,
    0,
    0,
    0,
    83,
    0,
    0,
    0,
    83,
    0,
    0,
    0,
    0,
    0,
    0,
    83,
    0,
    0,
    0,
    83,
    0,
    0,
    0,
    0,
    0,
    0,
    83,
    0,
    0,
    0,
    83,
    0,
    0,
    0,
    0,
    0,
    0,
    83,
    0,
    0,
    0,
    83,
    0,
    0,
    0,
    0,
    0,
    0,
    83,
    0,
    0,
    0,
    83,
    0,
    0,
    0,
    0,
    0,
    0,
    83,
    0,
    0,
    0,
    0,
    0,
    0,
    0,
    0,
    0,
    83,
    0,
    0,
    0,
    0,
    0,
    0,
    83,
    0,
    0,
    0,
    83,
    0,
    0,
    0,
    0,
    0,
    0,
    83,
    0,
    0,
    0,
    83,
    0,
    0,
    0,
    0,
    0,
    0,
    83,
    0,
    0,
    0,
    83,
    0,
    0,
    0,
    0,
    0,
    0,
    83,
    0,
    0,
    0,
    83,
    0,
    0,
    0,
    0,
    0,
    0,
    83,
    0,
    0,
    0,
    83,
    0,
    0,
    0,
    0,
    0,
    0,
    83,
    0,
    0,
    0,
    83,
    0,
    0,
    0,
    0,
    0,
    0,
    83,
    0,
    0,
    0,
    83,
    0,
    0,
    0,
    0,
    0,
    0,
    83,
    0,
    0,
    0,
    0,
    0,
    0,
    0,
    0,
    0,
    83,
    0,
    0,
    0,
    0,
    0,
    0,
    83,
    0,
    0,
    0,
    83,
    0,
    0,
    0,
    0,
    0,
    0,
    83,
    0,
    0,
    0,
    83,
    0,
    0,
    0,
    0,
    0,
    0,
    83,
    0,
    0,
    0,
    83,
    0,
    0,
    0,
    0,
    0,
    0,
    83,
    0,
    0,
    0,
    83,
    0,
    0,
    0,
    0,
    0,
    0,
    83,
    0,
    0,
    0,
    83,
    0,
    0,
    0,
    0,
    0,
    0,
    83,
    0,
    0,
    0,
    83,
    0,
    0,
    0,
    0,
    0,
    0,
    83,
    0,
    0,
    0,
    83,
    0,
    0,
    0,
    0,
    0,
    0,
    83,
    0,
    0,
    0,
    0,
    0,
    0,
    0,
    0,
    0,
    83,
    0,
    0,
    0,
    0,
    0,
    0,
    0,
    0,
    0,
    0,
    83,
    0,
    0,
    0,
    0,
    0,
    0,
    83,
    0,
    0,
    0,
    83,
    0,
    0,
    0,
    0,
    0,
    0,
    83,
    0,
    0,
    0,
    83,
    0,
    0,
    0,
    0,
    0,
    0,
    83,
    0,
    0,
    0,
    83,
    0,
    0,
    0,
    0,
    0,
    0,
    83,
    0,
    0,
    0,
    83,
    0,
    0,
    0,
    0,
    0,
    0,
    83,
    0,
    0,
    0,
    83,
    0,
    0,
    0,
    0,
    0,
    0,
    83,
    0,
    0,
    0,
    0,
    0,
    0,
    0,
    0,
    0,
    0,
    83,
    0,
    0,
    0,
    0,
    0,
    0,
    0,
    0,
    0,
    83,
    0,
    0,
    0,
    0,
    0,
    0,
    0,
    0,
    0,
    0,
    83,
    0,
    0,
    0,
    0,
    0,
    0,
    83,
    0,
    0,
    0,
    83,
    0,
    0,
    0,
    0,
    0,
    0,
    83,
    0,
    0,
    0,
    83,
    0,
    0,
    0,
    0,
    0,
    0,
    83,
    0,
    0,
    0,
    83,
    0,
    0,
    0,
    0,
    0,
    0,
    83,
    0,
    0,
    0,
    83,
    0,
    0,
    0,
    0,
    0,
    0,
    83,
    0,
    0,
    0,
    83,
    0,
    0,
    0,
    0,
    0,
    0,
    83,
    0,
    0,
    0,
    0,
    0,
    0,
    0,
    0,
    0,
    0,
    83,
    0,
    0,
    0,
    0,
    0,
    0,
    0,
    0,
    0,
    83,
    0,
    0,
    0,
    0,
    0,
    0,
    83,
    0,
    0,
    0,
    83,
    0,
    0,
    0,
    0,
    0,
    0,
    83,
    0,
    0,
    0,
    83,
    0,
    0,
    0,
    0,
    0,
    0,
    83,
    0,
    0,
    0,
    83,
    0,
    0,
    0,
    0,
    0,
    0,
    83,
    0,
    0,
    0,
    83,
    0,
    0,
    0,
    0,
    0,
    0,
    83,
    0,
    0,
    0,
    83,
    0,
    0,
    0,
    0,
    0,
    0,
    83,
    0,
    0,
    0,
    83,
    0,
    0,
    0,
    0,
    0,
    0,
    83,
    0,
    0,
    0,
    83,
    0,
    0,
    0,
    0,
    0,
    0,
    83,
    0,
    0,
    0,
    0,
    0,
    0,
    0,
    0,
    0,
    83,
    0,
    0,
    0,
    0,
    0,
    0,
    83,
    0,
    0,
    0,
    83,
    0,
    0,
    0,
    0,
    0,
    0,
    83,
    0,
    0,
    0,
    83,
    0,
    0,
    0,
    0,
    0,
    0,
    83,
    0,
    0,
    0,
    83,
    0,
    0,
    0,
    0,
    0,
    0,
    83,
    0,
    0,
    0,
    83,
    0,
    0,
    0,
    0,
    0,
    0,
    83,
    0,
    0,
    0,
    83,
    0,
    0,
    0,
    0,
    0,
    0,
    83,
    0,
    0,
    0,
    83,
    0,
    0,
    0,
    0,
    0,
    0,
    83,
    0,
    0,
    0,
    83,
    0,
    0,
    0,
    0,
    0,
    0,
    83,
    0,
    0,
    0,
    0,
    0,
    0,
    0,
    0,
    0,
    83,
    8,
    8,
    8,
    8,
    8,
    8,
    45,
    0,
    0,
    0,
    83,
    8,
    8,
    0,
    0,
    8,
    8,
    45,
    0,
    0,
    0,
    83,
    8,
    8,
    0,
    0,
    8,
    8,
    45,
    0,
    0,
    0,
    83,
    8,
    8,
    0,
    0,
    8,
    8,
    45,
    0,
    0,
    0,
    83,
    8,
    8,
    0,
    0,
    8,
    8,
    45,
    0,
    0,
    0,
    83,
    8,
    8,
    0,
    0,
    8,
    8,
    45,
    0,
    0,
    0,
    83,
    8,
    8,
    0,
    0,
    8,
    8,
    45,
    0,
    0,
    0,
    83,
    8,
    8,
    8,
    8,
    8,
    8,
    45,
    0,
    0,
    0,
    0,
    0,
    0,
    0,
    0,
    0,
    0,
    0,
    0,
    0,
    0,
    0,
    0,
    0,
    0,
    0,
    0,
    0,
    0,
    0,
    0,
    0,
    0,
    0,
    0,
    0,
    0,
    0,
    0,
    0,
    0,
    0,
    0,
    0,
    0,
    0,
    0,
    0,
    0,
    0,
    0,
    0,
    0,
    0,
    0,
    0,
    0,
    0,
    0,
    0,
    0,
    0,
    0,
    0,
    0,
    0,
    0,
    0,
    0,
    0,
    0,
    0,
    0,
    0,
    0,
    0,
    0,
    0,
    0,
    0,
    0,
    0,
    0,
    0,
    0,
    0,
    0,
    0,
    0,
    0,
    0,
    0,
    0,
    0,
    0,
    0,
    0,
    0,
    0,
    0,
    0,
    0,
    0,
    0,
    0,
    0,
    0,
    0,
    0,
    0,
    0,
    0,
    0,
    0,
    0,
    0,
    0,
    0,
    0,
    0,
    0,
    0,
    0,
    0,
    0,
    0,
    0,
    0,
    0,
    0,
    0,
    0,
    0,
    0,
    0,
    0,
    0,
    0,
    0,
    0,
    0,
    0,
    0,
    0,
    0,
    0,
    0,
    0,
    0,
    0,
    0,
    0,
    0,
    0,
    0,
    0,
    0,
    0,
    0,
    0,
    0,
    0,
    0,
    0,
    0,
    0,
    0,
    0,
    0,
    0,
    0,
    0,
    0,
    0,
    0,
    0,
    0,
    0,
    0,
    0,
    0,
    0,
    0,
    0,
    0,
    0,
    0,
    0,
    0,
    0,
    0,
    0,
    0,
    0,
    0,
    0,
    0,
    0,
    0,
    0,
    0,
    0,
    0,
    0,
    0,
    0,
    0,
    0,
    0,
    0,
    0,
    0,
    0,
    0,
    0,
    0,
    0,
    0,
    0,
    0,
    0,
    0,
    0,
    0,
    0,
    0,
    0,
    0,
    0,
    0,
    0,
    0,
    0,
    0,
    0,
    0,
    0,
    0,
    0,
    0,
    0,
    0,
    0,
    0,
    0,
    0,
    0,
    0,
    0,
    0,
    0,
    0,
    0,
    0,
    0,
    0,
    0,
    0,
    0,
    0,
    0,
    0,
    0,
    0,
    0,
    0,
    0,
    0,
    0,
    0,
    0,
    0,
    0,
    0,
    0,
    0,
    0,
    0,
    0,
    0,
    0,
    0,
    0,
    0,
    0,
    0,
    0,
    0,
    0,
    0,
    0,
    0,
    0,
    0,
    0,
    0,
    0,
    0,
    86,
    21,
    21,
    21,
    21,
    21,
    21,
    82,
    0,
    0,
    0,
    0,
    0,
    0,
    0,
    0,
    0,
    0,
    0,
    0,
    0,
    0,
    0,
    0,
    0,
    0,
    0,
    0,
    0,
    0,
    0,
    0,
    0,
    0,
    0,
    0,
    0,
    0,
    0,
    0,
    0,
    0,
    0,
    0,
    0,
    0,
    0,
    0,
    0,
    0,
    0,
    0,
    0,
    0,
    0,
    0,
    0,
    0,
    0,
    0,
    0,
    0,
    0,
    0,
    0,
    0,
    0,
    0,
    0,
    0,
    0,
    0,
    0,
    0,
    0,
    0,
    0,
    86,
    21,
    21,
    21,
    21,
    21,
    21,
    82,
    0,
    0,
    0,
    0,
    0,
    0,
    0,
    0,
    0,
    83,
    0,
    0,
    0,
    0,
    0,
    0,
    83,
    0,
    0,
    0,
    0,
    0,
    0,
    0,
    0,
    0,
    0,
    0,
    0,
    0,
    0,
    0,
    0,
    0,
    0,
    0,
    0,
    0,
    0,
    0,
    0,
    0,
    0,
    0,
    0,
    0,
    0,
    0,
    0,
    0,
    0,
    0,
    0,
    0,
    0,
    0,
    0,
    0,
    0,
    0,
    0,
    0,
    0,
    0,
    0,
    0,
    0,
    0,
    0,
    0,
    0,
    0,
    0,
    0,
    0,
    0,
    0,
    0,
    0,
    0,
    0,
    0,
    0,
    0,
    0,
    0,
    83,
    0,
    0,
    0,
    0,
    0,
    0,
    83,
    0,
    0,
    0,
    0,
    0,
    0,
    0,
    0,
    0,
    83,
    0,
    0,
    0,
    0,
    0,
    0,
    83,
    0,
    0,
    0,
    0,
    0,
    0,
    0,
    0,
    0,
    0,
    0,
    0,
    0,
    0,
    0,
    0,
    0,
    0,
    0,
    0,
    0,
    0,
    0,
    0,
    0,
    0,
    0,
    0,
    0,
    0,
    0,
    0,
    0,
    0,
    0,
    0,
    0,
    0,
    0,
    0,
    0,
    0,
    0,
    0,
    0,
    0,
    0,
    0,
    0,
    0,
    0,
    0,
    0,
    0,
    0,
    0,
    0,
    0,
    0,
    0,
    0,
    0,
    0,
    0,
    0,
    0,
    0,
    0,
    0,
    83,
    0,
    0,
    0,
    0,
    0,
    0,
    83,
    0,
    0,
    0,
    0,
    0,
    0,
    0,
    0,
    0,
    83,
    0,
    0,
    0,
    0,
    0,
    0,
    83,
    0,
    0,
    0,
    0,
    0,
    0,
    0,
    0,
    0,
    0,
    0,
    0,
    0,
    0,
    0,
    0,
    0,
    0,
    0,
    0,
    0,
    0,
    0,
    0,
    0,
    0,
    0,
    0,
    0,
    0,
    0,
    0,
    0,
    0,
    0,
    0,
    0,
    0,
    0,
    0,
    0,
    0,
    0,
    0,
    0,
    0,
    0,
    0,
    0,
    0,
    0,
    0,
    0,
    0,
    0,
    0,
    0,
    0,
    0,
    0,
    0,
    0,
    0,
    0,
    0,
    0,
    0,
    0,
    0,
    83,
    0,
    0,
    0,
    0,
    0,
    0,
    83,
    0,
    0,
    0,
    0,
    0,
    0,
    0,
    0,
    0,
    83,
    0,
    0,
    0,
    0,
    0,
    0,
    0,
    0,
    0,
    0,
    0,
    0,
    0,
    0,
    0,
    0,
    0,
    0,
    0,
    0,
    0,
    0,
    0,
    0,
    0,
    0,
    0,
    0,
    0,
    0,
    0,
    0,
    0,
    0,
    0,
    0,
    0,
    0,
    0,
    0,
    0,
    0,
    0,
    0,
    0,
    0,
    0,
    0,
    0,
    0,
    0,
    0,
    0,
    0,
    0,
    0,
    0,
    0,
    0,
    0,
    0,
    0,
    0,
    0,
    0,
    0,
    0,
    0,
    0,
    0,
    0,
    0,
    0,
    0,
    0,
    0,
    0,
    0,
    0,
    0,
    0,
    0,
    0,
    83,
    0,
    0,
    0,
    0,
    0,
    0,
    0,
    0,
    0,
    83,
    0,
    0,
    0,
    0,
    0,
    0,
    0,
    0,
    0,
    0,
    0,
    0,
    0,
    0,
    0,
    0,
    0,
    0,
    0,
    0,
    0,
    0,
    0,
    0,
    0,
    0,
    0,
    0,
    0,
    0,
    0,
    0,
    0,
    0,
    0,
    0,
    0,
    0,
    0,
    0,
    0,
    0,
    0,
    0,
    0,
    0,
    0,
    0,
    0,
    0,
    0,
    0,
    0,
    0,
    0,
    0,
    0,
    0,
    0,
    0,
    0,
    0,
    0,
    0,
    0,
    0,
    0,
    0,
    0,
    0,
    0,
    0,
    0,
    0,
    0,
    0,
    0,
    0,
    0,
    0,
    0,
    0,
    0,
    83,
    0,
    0,
    0,
    0,
    0,
    0,
    0,
    0,
    0,
    83,
    0,
    0,
    0,
    0,
    0,
    0,
    83,
    0,
    0,
    0,
    0,
    0,
    0,
    0,
    0,
    0,
    0,
    0,
    0,
    0,
    0,
    0,
    0,
    0,
    0,
    0,
    0,
    0,
    0,
    0,
    0,
    0,
    0,
    0,
    0,
    0,
    0,
    0,
    0,
    0,
    0,
    0,
    0,
    0,
    0,
    0,
    0,
    0,
    0,
    0,
    0,
    0,
    0,
    0,
    0,
    0,
    0,
    0,
    0,
    0,
    0,
    0,
    0,
    0,
    0,
    0,
    0,
    0,
    0,
    0,
    0,
    0,
    0,
    0,
    0,
    0,
    83,
    0,
    0,
    0,
    0,
    0,
    0,
    83,
    0,
    0,
    0,
    0,
    0,
    0,
    0,
    0,
    0,
    83,
    0,
    0,
    0,
    0,
    0,
    0,
    83,
    0,
    0,
    0,
    0,
    0,
    0,
    0,
    0,
    0,
    0,
    0,
    0,
    0,
    0,
    0,
    0,
    0,
    0,
    0,
    0,
    0,
    0,
    0,
    0,
    0,
    0,
    0,
    0,
    0,
    0,
    0,
    0,
    0,
    0,
    0,
    0,
    0,
    0,
    0,
    0,
    0,
    0,
    0,
    0,
    0,
    0,
    0,
    0,
    0,
    0,
    0,
    0,
    0,
    0,
    0,
    0,
    0,
    0,
    0,
    0,
    0,
    0,
    0,
    0,
    0,
    0,
    0,
    0,
    0,
    83,
    0,
    0,
    0,
    0,
    0,
    0,
    83,
    0,
    0,
    0,
    0,
    0,
    0,
    0,
    0,
    0,
    83,
    8,
    8,
    8,
    8,
    8,
    8,
    45,
    0,
    0,
    0,
    0,
    0,
    0,
    0,
    0,
    0,
    0,
    0,
    0,
    0,
    0,
    0,
    0,
    0,
    0,
    0,
    0,
    0,
    0,
    0,
    0,
    0,
    0,
    0,
    0,
    0,
    0,
    0,
    0,
    0,
    0,
    0,
    0,
    0,
    0,
    0,
    0,
    0,
    0,
    0,
    0,
    0,
    0,
    0,
    0,
    0,
    0,
    0,
    0,
    0,
    0,
    0,
    0,
    0,
    0,
    0,
    0,
    0,
    0,
    0,
    0,
    0,
    0,
    0,
    0,
    0,
    83,
    8,
    8,
    8,
    8,
    8,
    8,
    45,
    0,
    0,
    0,
    0,
    0,
    0,
    0,
    0,
    0,
    0,
    0,
    0,
    0,
    0,
    0,
    0,
    0,
    0,
    0,
    0,
    0,
    0,
    0,
    0,
    0,
    0,
    0,
    0,
    0,
    0,
    0,
    0,
    0,
    0,
    0,
    0,
    0,
    0,
    0,
    0,
    0,
    0,
    0,
    0,
    0,
    0,
    0,
    0,
    0,
    0,
    0,
    0,
    0,
    0,
    0,
    0,
    0,
    0,
    0,
    0,
    0,
    0,
    0,
    0,
    0,
    0,
    0,
    0,
    0,
    0,
    0,
    0,
    0,
    0,
    0,
    0,
    0,
    0,
    0,
    0,
    0,
    0,
    0,
    0,
    0,
    0,
    0,
    0,
    0,
    0,
    0,
    0,
    0,
    0,
    0,
    0,
    0,
    0,
    0,
    0,
    0,
    0,
    0,
    0,
    0,
    0,
    0,
    0,
    0,
    0,
    0,
    0,
    0,
    0,
    0,
    0,
    0,
    0,
    0,
    0,
    0,
    0,
    0,
    0,
    0,
    0,
    0,
    0,
    0,
    0,
    0,
    0,
    0,
    0,
    0,
    0,
    0,
    0,
    0,
    0,
    0,
    0,
    0,
    0,
    0,
    0,
    0,
    0,
    0,
    0,
    0,
    0,
    0,
    0,
    0,
    0,
    0,
    0,
    0,
    0,
    0,
    0,
    0,
    0,
    0,
    0,
    0,
    0,
    0,
    0,
    0,
    0,
    0,
    0,
    0,
    0,
    0,
    0,
    0,
    0,
    0,
    0,
    0,
    0,
    0,
    0,
    0,
    0,
    0,
    0,
    0,
    0,
    0,
    0,
    0,
    0,
    0,
    0,
    0,
    0,
    0,
    0,
    0,
    0,
    0,
    0,
    0,
    0,
    0,
    0,
    0,
    0,
    0,
    0,
    0,
    0,
    0,
    0,
    0,
    0,
    0,
    0,
    0,
    0,
    0,
    0,
    0,
    0,
    0,
    0,
    0,
    0,
    0,
    0,
    0,
    0,
    0,
    0,
    0,
    0,
    0,
    0,
    0,
    0,
    0,
    0,
    0,
    0,
    0,
    0,
    0,
    0,
    0,
    0,
    0,
    0,
    0,
    0,
    0,
    0,
    0,
    0,
    0,
    0,
    0,
    0,
    0,
    0,
    0,
    0,
    0,
    0,
    0,
    0,
    0,
    0,
    0,
    0,
    0,
    0,
    0,
    0,
    0,
    0,
    0,
    0,
    0,
    0,
    0,
    0,
    0,
    86,
    21,
    21,
    21,
    21,
    21,
    21,
    82,
    0,
    0,
    0,
    0,
    0,
    0,
    0,
    0,
    0,
    0,
    0,
    0,
    0,
    0,
    0,
    0,
    0,
    0,
    0,
    0,
    0,
    0,
    0,
    0,
    0,
    0,
    0,
    0,
    0,
    0,
    0,
    0,
    0,
    0,
    0,
    0,
    0,
    0,
    0,
    0,
    0,
    0,
    0,
    0,
    0,
    0,
    0,
    0,
    0,
    0,
    0,
    0,
    0,
    0,
    0,
    0,
    0,
    0,
    0,
    0,
    0,
    0,
    0,
    0,
    0,
    0,
    0,
    0,
    0,
    86,
    21,
    21,
    21,
    21,
    21,
    21,
    82,
    0,
    0,
    0,
    0,
    0,
    0,
    0,
    0,
    0,
    83,
    0,
    0,
    0,
    0,
    0,
    0,
    83,
    0,
    0,
    0,
    0,
    0,
    0,
    0,
    0,
    0,
    0,
    0,
    0,
    0,
    0,
    0,
    0,
    0,
    0,
    0,
    0,
    0,
    0,
    0,
    0,
    0,
    0,
    0,
    0,
    0,
    0,
    0,
    0,
    0,
    0,
    0,
    0,
    0,
    0,
    0,
    0,
    0,
    0,
    0,
    0,
    0,
    0,
    0,
    0,
    0,
    0,
    0,
    0,
    0,
    0,
    0,
    0,
    0,
    0,
    0,
    0,
    0,
    0,
    0,
    0,
    0,
    0,
    0,
    0,
    0,
    83,
    0,
    0,
    0,
    0,
    0,
    0,
    83,
    0,
    0,
    0,
    0,
    0,
    0,
    0,
    0,
    0,
    83,
    0,
    0,
    0,
    0,
    0,
    0,
    83,
    0,
    0,
    0,
    0,
    0,
    0,
    0,
    0,
    0,
    0,
    0,
    0,
    0,
    0,
    0,
    0,
    0,
    0,
    0,
    0,
    0,
    0,
    0,
    0,
    0,
    0,
    0,
    0,
    0,
    0,
    0,
    0,
    0,
    0,
    0,
    0,
    0,
    0,
    0,
    0,
    0,
    0,
    0,
    0,
    0,
    0,
    0,
    0,
    0,
    0,
    0,
    0,
    0,
    0,
    0,
    0,
    0,
    0,
    0,
    0,
    0,
    0,
    0,
    0,
    0,
    0,
    0,
    0,
    0,
    83,
    0,
    0,
    0,
    0,
    0,
    0,
    83,
    0,
    0,
    0,
    0,
    0,
    0,
    0,
    0,
    0,
    83,
    0,
    0,
    0,
    0,
    0,
    0,
    83,
    0,
    0,
    0,
    0,
    0,
    0,
    0,
    0,
    0,
    0,
    0,
    0,
    0,
    0,
    0,
    0,
    0,
    0,
    0,
    0,
    0,
    0,
    0,
    0,
    0,
    0,
    0,
    0,
    0,
    0,
    0,
    0,
    0,
    0,
    0,
    0,
    0,
    0,
    0,
    0,
    0,
    0,
    0,
    0,
    0,
    0,
    0,
    0,
    0,
    0,
    0,
    0,
    0,
    0,
    0,
    0,
    0,
    0,
    0,
    0,
    0,
    0,
    0,
    0,
    0,
    0,
    0,
    0,
    0,
    83,
    0,
    0,
    0,
    0,
    0,
    0,
    83,
    0,
    0,
    0,
    0,
    0,
    0,
    0,
    0,
    0,
    83,
    0,
    0,
    0,
    0,
    0,
    0,
    0,
    0,
    0,
    0,
    0,
    0,
    0,
    0,
    0,
    0,
    0,
    0,
    0,
    0,
    0,
    0,
    0,
    0,
    0,
    0,
    0,
    0,
    0,
    0,
    0,
    0,
    0,
    0,
    0,
    0,
    0,
    0,
    0,
    0,
    0,
    0,
    0,
    0,
    0,
    0,
    0,
    0,
    0,
    0,
    0,
    0,
    0,
    0,
    0,
    0,
    0,
    0,
    0,
    0,
    0,
    0,
    0,
    0,
    0,
    0,
    0,
    0,
    0,
    0,
    0,
    0,
    0,
    0,
    0,
    0,
    0,
    0,
    0,
    0,
    0,
    0,
    0,
    83,
    0,
    0,
    0,
    0,
    0,
    0,
    0,
    0,
    0,
    83,
    0,
    0,
    0,
    0,
    0,
    0,
    0,
    0,
    0,
    0,
    0,
    0,
    0,
    0,
    0,
    0,
    0,
    0,
    0,
    0,
    0,
    0,
    0,
    0,
    0,
    0,
    0,
    0,
    0,
    0,
    0,
    0,
    0,
    0,
    0,
    0,
    0,
    0,
    0,
    0,
    0,
    0,
    0,
    0,
    0,
    0,
    0,
    0,
    0,
    0,
    0,
    0,
    0,
    0,
    0,
    0,
    0,
    0,
    0,
    0,
    0,
    0,
    0,
    0,
    0,
    0,
    0,
    0,
    0,
    0,
    0,
    0,
    0,
    0,
    0,
    0,
    0,
    0,
    0,
    0,
    0,
    0,
    0,
    83,
    0,
    0,
    0,
    0,
    0,
    0,
    0,
    0,
    0,
    83,
    0,
    0,
    0,
    0,
    0,
    0,
    83,
    0,
    0,
    0,
    0,
    0,
    0,
    0,
    0,
    0,
    0,
    0,
    0,
    0,
    0,
    0,
    0,
    0,
    0,
    0,
    0,
    0,
    0,
    0,
    0,
    0,
    0,
    0,
    0,
    0,
    0,
    0,
    0,
    0,
    0,
    0,
    0,
    0,
    0,
    0,
    0,
    0,
    0,
    0,
    0,
    0,
    0,
    0,
    0,
    0,
    0,
    0,
    0,
    0,
    0,
    0,
    0,
    0,
    0,
    0,
    0,
    0,
    0,
    0,
    0,
    0,
    0,
    0,
    0,
    0,
    83,
    0,
    0,
    0,
    0,
    0,
    0,
    83,
    0,
    0,
    0,
    0,
    0,
    0,
    0,
    0,
    0,
    83,
    0,
    0,
    0,
    0,
    0,
    0,
    83,
    0,
    0,
    0,
    0,
    0,
    0,
    0,
    0,
    0,
    0,
    0,
    0,
    0,
    0,
    0,
    0,
    0,
    0,
    0,
    0,
    0,
    0,
    0,
    0,
    0,
    0,
    0,
    0,
    0,
    0,
    0,
    0,
    0,
    0,
    0,
    0,
    0,
    0,
    0,
    0,
    0,
    0,
    0,
    0,
    0,
    0,
    0,
    0,
    0,
    0,
    0,
    0,
    0,
    0,
    0,
    0,
    0,
    0,
    0,
    0,
    0,
    0,
    0,
    0,
    0,
    0,
    0,
    0,
    0,
    83,
    0,
    0,
    0,
    0,
    0,
    0,
    83,
    0,
    0,
    0,
    0,
    0,
    0,
    0,
    0,
    0,
    83,
    8,
    8,
    8,
    8,
    8,
    8,
    45,
    0,
    0,
    0,
    0,
    0,
    0,
    0,
    0,
    0,
    0,
    0,
    0,
    0,
    0,
    0,
    0,
    0,
    0,
    0,
    0,
    0,
    0,
    0,
    0,
    0,
    0,
    0,
    0,
    0,
    0,
    0,
    0,
    0,
    0,
    0,
    0,
    0,
    0,
    0,
    0,
    0,
    0,
    0,
    0,
    0,
    0,
    0,
    0,
    0,
    0,
    0,
    0,
    0,
    0,
    0,
    0,
    0,
    0,
    0,
    0,
    0,
    0,
    0,
    0,
    0,
    0,
    0,
    0,
    0,
    83,
    8,
    8,
    8,
    8,
    8,
    8,
    45,
    0,
    0,
    0,
    0,
    0,
    0,
    0,
    0,
    0,
    0,
    0,
    0,
    0,
    0,
    0,
    0,
    0,
    0,
    0,
    0,
    0,
    0,
    0,
    0,
    0,
    0,
    0,
    0,
    0,
    0,
    0,
    0,
    0,
    0,
    0,
    0,
    0,
    0,
    0,
    0,
    0,
    0,
    0,
    0,
    0,
    0,
    0,
    0,
    0,
    0,
    0,
    0,
    0,
    0,
    0,
    0,
    0,
    0,
    0,
    0,
    0,
    0,
    0,
    0,
    0,
    0,
    0,
    0,
    0,
    0,
    0,
    0,
    0,
    0,
    0,
    0,
    0,
    0,
    0,
    0,
    0,
    0,
    0,
    0,
    0,
    0,
    0,
    0,
    0,
    0,
    0,
    0,
    0,
    0,
    0,
    0,
    0,
    0,
    0,
    0,
    0,
    0,
    0,
    0,
    0,
    0,
    0,
    0,
    0,
    0,
    0,
    0,
    0,
    0,
    0,
    0,
    0,
    0,
    0,
    0,
    0,
    0,
    0,
    0,
    0,
    0,
    0,
    0,
    0,
    0,
    0,
    0,
    0,
    0,
    0,
    0,
    0,
    0,
    0,
    0,
    0,
    0,
    0,
    0,
    0,
    0,
    0,
    0,
    0,
    0,
    0,
    0,
    0,
    0,
    0,
    0,
    0,
    0,
    0,
    0,
    0,
    0,
    0,
    0,
    0,
    0,
    0,
    0,
    0,
    0,
    0,
    0,
    0,
    0,
    0,
    0,
    0,
    0,
    0,
    0,
    0,
    0,
    0,
    0,
    0,
    0,
    0,
    0,
    0,
    0,
    0,
    0,
    0,
    0,
    0,
    0,
    0,
    0,
    0,
    0,
    0,
    0,
    0,
    0,
    0,
    0,
    0,
    0,
    0,
    0,
    0,
    0,
    0,
    0,
    0,
    0,
    0,
    0,
    0,
    0,
    0,
    0,
    0,
    0,
    0,
    0,
    0,
    0,
    0,
    0,
    0,
    0,
    0,
    0,
    0,
    0,
    0,
    0,
    0,
    0,
    0,
    0,
    0,
    0,
    0,
    0,
    0,
    0,
    0,
    0,
    0,
    0,
    0,
    0,
    0,
    0,
    0,
    0,
    0,
    0,
    0,
    0,
    0,
    0,
    0,
    0,
    0,
    0,
    0,
    0,
    0,
    0,
    0,
    0,
    0,
    0,
    0,
    0,
    0,
    0,
    0,
    0,
    0,
    0,
    0,
    0,
    0,
    0,
    0,
    0,
    0,
    86,
    21,
    21,
    21,
    21,
    21,
    21,
    82,
    0,
    0,
    0,
    0,
    0,
    0,
    0,
    0,
    0,
    0,
    0,
    0,
    0,
    0,
    0,
    0,
    0,
    0,
    0,
    0,
    0,
    0,
    0,
    0,
    0,
    0,
    0,
    0,
    0,
    0,
    0,
    0,
    0,
    0,
    0,
    0,
    0,
    0,
    0,
    0,
    0,
    0,
    0,
    0,
    0,
    0,
    0,
    0,
    0,
    0,
    0,
    0,
    0,
    0,
    0,
    0,
    0,
    0,
    0,
    0,
    0,
    0,
    0,
    0,
    0,
    0,
    0,
    0,
    0,
    86,
    21,
    21,
    21,
    21,
    21,
    21,
    82,
    0,
    0,
    0,
    0,
    0,
    0,
    0,
    0,
    0,
    83,
    0,
    0,
    0,
    0,
    0,
    0,
    83,
    0,
    0,
    0,
    0,
    0,
    0,
    0,
    0,
    0,
    0,
    0,
    0,
    0,
    0,
    0,
    0,
    0,
    0,
    0,
    0,
    0,
    0,
    0,
    0,
    0,
    0,
    0,
    0,
    0,
    0,
    0,
    0,
    0,
    0,
    0,
    0,
    0,
    0,
    0,
    0,
    0,
    0,
    0,
    0,
    0,
    0,
    0,
    0,
    0,
    0,
    0,
    0,
    0,
    0,
    0,
    0,
    0,
    0,
    0,
    0,
    0,
    0,
    0,
    0,
    0,
    0,
    0,
    0,
    0,
    83,
    0,
    0,
    0,
    0,
    0,
    0,
    83,
    0,
    0,
    0,
    0,
    0,
    0,
    0,
    0,
    0,
    83,
    0,
    0,
    0,
    0,
    0,
    0,
    83,
    0,
    0,
    0,
    0,
    0,
    0,
    0,
    0,
    0,
    0,
    0,
    0,
    0,
    0,
    0,
    0,
    0,
    0,
    0,
    0,
    0,
    0,
    0,
    0,
    0,
    0,
    0,
    0,
    0,
    0,
    0,
    0,
    0,
    0,
    0,
    0,
    0,
    0,
    0,
    0,
    0,
    0,
    0,
    0,
    0,
    0,
    0,
    0,
    0,
    0,
    0,
    0,
    0,
    0,
    0,
    0,
    0,
    0,
    0,
    0,
    0,
    0,
    0,
    0,
    0,
    0,
    0,
    0,
    0,
    83,
    0,
    0,
    0,
    0,
    0,
    0,
    83,
    0,
    0,
    0,
    0,
    0,
    0,
    0,
    0,
    0,
    83,
    0,
    0,
    0,
    0,
    0,
    0,
    83,
    0,
    0,
    0,
    0,
    0,
    0,
    0,
    0,
    0,
    0,
    0,
    0,
    0,
    0,
    0,
    0,
    0,
    0,
    0,
    0,
    0,
    0,
    0,
    0,
    0,
    0,
    0,
    0,
    0,
    0,
    0,
    0,
    0,
    0,
    0,
    0,
    0,
    0,
    0,
    0,
    0,
    0,
    0,
    0,
    0,
    0,
    0,
    0,
    0,
    0,
    0,
    0,
    0,
    0,
    0,
    0,
    0,
    0,
    0,
    0,
    0,
    0,
    0,
    0,
    0,
    0,
    0,
    0,
    0,
    83,
    0,
    0,
    0,
    0,
    0,
    0,
    83,
    0,
    0,
    0,
    0,
    0,
    0,
    0,
    0,
    0,
    83,
    0,
    0,
    0,
    0,
    0,
    0,
    0,
    0,
    0,
    0,
    0,
    0,
    0,
    0,
    0,
    0,
    0,
    0,
    0,
    0,
    0,
    0,
    0,
    0,
    0,
    0,
    0,
    0,
    0,
    0,
    0,
    0,
    0,
    0,
    0,
    0,
    0,
    0,
    0,
    0,
    0,
    0,
    0,
    0,
    0,
    0,
    0,
    0,
    0,
    0,
    0,
    0,
    0,
    0,
    0,
    0,
    0,
    0,
    0,
    0,
    0,
    0,
    0,
    0,
    0,
    0,
    0,
    0,
    0,
    0,
    0,
    0,
    0,
    0,
    0,
    0,
    0,
    0,
    0,
    0,
    0,
    0,
    0,
    83,
    0,
    0,
    0,
    0,
    0,
    0,
    0,
    0,
    0,
    83,
    0,
    0,
    0,
    0,
    0,
    0,
    0,
    0,
    0,
    0,
    0,
    0,
    0,
    0,
    0,
    0,
    0,
    0,
    0,
    0,
    0,
    0,
    0,
    0,
    0,
    0,
    0,
    0,
    0,
    0,
    0,
    0,
    0,
    0,
    0,
    0,
    0,
    0,
    0,
    0,
    0,
    0,
    0,
    0,
    0,
    0,
    0,
    0,
    0,
    0,
    0,
    0,
    0,
    0,
    0,
    0,
    0,
    0,
    0,
    0,
    0,
    0,
    0,
    0,
    0,
    0,
    0,
    0,
    0,
    0,
    0,
    0,
    0,
    0,
    0,
    0,
    0,
    0,
    0,
    0,
    0,
    0,
    0,
    83,
    0,
    0,
    0,
    0,
    0,
    0,
    0,
    0,
    0,
    83,
    0,
    0,
    0,
    0,
    0,
    0,
    83,
    0,
    0,
    0,
    0,
    0,
    0,
    0,
    0,
    0,
    0,
    0,
    0,
    0,
    0,
    0,
    0,
    0,
    0,
    0,
    0,
    0,
    0,
    0,
    0,
    0,
    0,
    0,
    0,
    0,
    0,
    0,
    0,
    0,
    0,
    0,
    0,
    0,
    0,
    0,
    0,
    0,
    0,
    0,
    0,
    0,
    0,
    0,
    0,
    0,
    0,
    0,
    0,
    0,
    0,
    0,
    0,
    0,
    0,
    0,
    0,
    0,
    0,
    0,
    0,
    0,
    0,
    0,
    0,
    0,
    83,
    0,
    0,
    0,
    0,
    0,
    0,
    83,
    0,
    0,
    0,
    0,
    0,
    0,
    0,
    0,
    0,
    83,
    0,
    0,
    0,
    0,
    0,
    0,
    83,
    0,
    0,
    0,
    0,
    0,
    0,
    0,
    0,
    0,
    0,
    0,
    0,
    0,
    0,
    0,
    0,
    0,
    0,
    0,
    0,
    0,
    0,
    0,
    0,
    0,
    0,
    0,
    0,
    0,
    0,
    0,
    0,
    0,
    0,
    0,
    0,
    0,
    0,
    0,
    0,
    0,
    0,
    0,
    0,
    0,
    0,
    0,
    0,
    0,
    0,
    0,
    0,
    0,
    0,
    0,
    0,
    0,
    0,
    0,
    0,
    0,
    0,
    0,
    0,
    0,
    0,
    0,
    0,
    0,
    83,
    0,
    0,
    0,
    0,
    0,
    0,
    83,
    0,
    0,
    0,
    0,
    0,
    0,
    0,
    0,
    0,
    83,
    8,
    8,
    8,
    8,
    8,
    8,
    45,
    0,
    0,
    0,
    0,
    0,
    0,
    0,
    0,
    0,
    0,
    0,
    0,
    0,
    0,
    0,
    0,
    0,
    0,
    0,
    0,
    0,
    0,
    0,
    0,
    0,
    0,
    0,
    0,
    0,
    0,
    0,
    0,
    0,
    0,
    0,
    0,
    0,
    0,
    0,
    0,
    0,
    0,
    0,
    0,
    0,
    0,
    0,
    0,
    0,
    0,
    0,
    0,
    0,
    0,
    0,
    0,
    0,
    0,
    0,
    0,
    0,
    0,
    0,
    0,
    0,
    0,
    0,
    0,
    0,
    83,
    8,
    8,
    8,
    8,
    8,
    8,
    45,
    0,
    0,
    0,
    0,
    0,
    0,
    0,
    0,
    0,
    0,
    0,
    0,
    0,
    0,
    0,
    0,
    0,
    0,
    0,
    0,
    0,
    0,
    0,
    0,
    0,
    0,
    0,
    0,
    0,
    0,
    0,
    0,
    0,
    0,
    0,
    0,
    0,
    0,
    0,
    0,
    0,
    0,
    0,
    0,
    0,
    0,
    0,
    0,
    0,
    0,
    0,
    0,
    0,
    0,
    0,
    0,
    0,
    0,
    0,
    0,
    0,
    0,
    0,
    0,
    0,
    0,
    0,
    0,
    0,
    0,
    0,
    0,
    0,
    0,
    0,
    0,
    0,
    0,
    0,
    0,
    0,
    0,
    0,
    0,
    0,
    0,
    0,
    0,
    0,
    0,
    0,
    0,
    0,
    0,
    0,
    0,
    0,
    0,
    0,
    0,
    0,
    0,
    0,
    0,
    0,
    0,
    0,
    0,
    0,
    0,
    0,
    0,
    0,
    0,
    0,
    0,
    0,
    0,
    0,
    0,
    0,
    0,
    0,
    0,
    0,
    0,
    0,
    0,
    0,
    0,
    0,
    0,
    0,
    0,
    0,
    0,
    0,
    0,
    0,
    0,
    0,
    0,
    0,
    0,
    0,
    0,
    0,
    0,
    0,
    0,
    0,
    0,
    0,
    0,
    0,
    0,
    0,
    0,
    0,
    0,
    0,
    0,
    0,
    0,
    0,
    0,
    0,
    0,
    0,
    0,
    0,
    0,
    0,
    0,
    0,
    0,
    0,
    0,
    0,
    0,
    0,
    0,
    0,
    0,
    0,
    0,
    0,
    0,
    0,
    0,
    0,
    0,
    0,
    0,
    0,
    0,
    0,
    0,
    0,
    0,
    0,
    0,
    0,
    0,
    0,
    0,
    0,
    0,
    0,
    0,
    0,
    0,
    0,
    0,
    0,
    0,
    0,
    0,
    0,
    0,
    0,
    0,
    0,
    0,
    0,
    0,
    0,
    0,
    0,
    0,
    0,
    0,
    0,
    0,
    0,
    0,
    0,
    0,
    0,
    0,
    0,
    0,
    0,
    0,
    0,
    0,
    0,
    0,
    0,
    0,
    0,
    0,
    0,
    0,
    0,
    0,
    0,
    0,
    0,
    0,
    0,
    0,
    0,
    0,
    0,
    0,
    0,
    0,
    0,
    0,
    0,
    0,
    0,
    0,
    0,
    0,
    0,
    0,
    0,
    0,
    0,
    0,
    0,
    0,
    0,
    0,
    0,
    0,
    0,
    0,
    0,
    86,
    21,
    21,
    21,
    21,
    21,
    21,
    82,
    0,
    0,
    0,
    0,
    0,
    0,
    0,
    0,
    0,
    0,
    0,
    0,
    0,
    0,
    0,
    0,
    0,
    0,
    0,
    0,
    0,
    0,
    0,
    0,
    0,
    0,
    0,
    0,
    0,
    0,
    0,
    0,
    0,
    0,
    0,
    0,
    0,
    0,
    0,
    0,
    0,
    0,
    0,
    0,
    0,
    0,
    0,
    0,
    0,
    0,
    0,
    0,
    0,
    0,
    0,
    0,
    0,
    0,
    0,
    0,
    0,
    0,
    0,
    0,
    0,
    0,
    0,
    0,
    0,
    86,
    21,
    21,
    21,
    21,
    21,
    21,
    82,
    0,
    0,
    0,
    0,
    0,
    0,
    0,
    0,
    0,
    83,
    0,
    0,
    0,
    0,
    0,
    0,
    83,
    0,
    0,
    0,
    0,
    0,
    0,
    0,
    0,
    0,
    0,
    0,
    0,
    0,
    0,
    0,
    0,
    0,
    0,
    0,
    0,
    0,
    0,
    0,
    0,
    0,
    0,
    0,
    0,
    0,
    0,
    0,
    0,
    0,
    0,
    0,
    0,
    0,
    0,
    0,
    0,
    0,
    0,
    0,
    0,
    0,
    0,
    0,
    0,
    0,
    0,
    0,
    0,
    0,
    0,
    0,
    0,
    0,
    0,
    0,
    0,
    0,
    0,
    0,
    0,
    0,
    0,
    0,
    0,
    0,
    83,
    0,
    0,
    0,
    0,
    0,
    0,
    83,
    0,
    0,
    0,
    0,
    0,
    0,
    0,
    0,
    0,
    83,
    0,
    0,
    0,
    0,
    0,
    0,
    83,
    0,
    0,
    0,
    0,
    0,
    0,
    0,
    0,
    0,
    0,
    0,
    0,
    0,
    0,
    0,
    0,
    0,
    0,
    0,
    0,
    0,
    0,
    0,
    0,
    0,
    0,
    0,
    0,
    0,
    0,
    0,
    0,
    0,
    0,
    0,
    0,
    0,
    0,
    0,
    0,
    0,
    0,
    0,
    0,
    0,
    0,
    0,
    0,
    0,
    0,
    0,
    0,
    0,
    0,
    0,
    0,
    0,
    0,
    0,
    0,
    0,
    0,
    0,
    0,
    0,
    0,
    0,
    0,
    0,
    83,
    0,
    0,
    0,
    0,
    0,
    0,
    83,
    0,
    0,
    0,
    0,
    0,
    0,
    0,
    0,
    0,
    83,
    0,
    0,
    0,
    0,
    0,
    0,
    83,
    0,
    0,
    0,
    0,
    0,
    0,
    0,
    0,
    0,
    0,
    0,
    0,
    0,
    0,
    0,
    0,
    0,
    0,
    0,
    0,
    0,
    0,
    0,
    0,
    0,
    0,
    0,
    0,
    0,
    0,
    0,
    0,
    0,
    0,
    0,
    0,
    0,
    0,
    0,
    0,
    0,
    0,
    0,
    0,
    0,
    0,
    0,
    0,
    0,
    0,
    0,
    0,
    0,
    0,
    0,
    0,
    0,
    0,
    0,
    0,
    0,
    0,
    0,
    0,
    0,
    0,
    0,
    0,
    0,
    83,
    0,
    0,
    0,
    0,
    0,
    0,
    83,
    0,
    0,
    0,
    0,
    0,
    0,
    0,
    0,
    0,
    83,
    0,
    0,
    0,
    0,
    0,
    0,
    0,
    0,
    0,
    0,
    0,
    0,
    0,
    0,
    0,
    0,
    0,
    0,
    0,
    0,
    0,
    0,
    0,
    0,
    0,
    0,
    0,
    0,
    0,
    0,
    0,
    0,
    0,
    0,
    0,
    0,
    0,
    0,
    0,
    0,
    0,
    0,
    0,
    0,
    0,
    0,
    0,
    0,
    0,
    0,
    0,
    0,
    0,
    0,
    0,
    0,
    0,
    0,
    0,
    0,
    0,
    0,
    0,
    0,
    0,
    0,
    0,
    0,
    0,
    0,
    0,
    0,
    0,
    0,
    0,
    0,
    0,
    0,
    0,
    0,
    0,
    0,
    0,
    83,
    0,
    0,
    0,
    0,
    0,
    0,
    0,
    0,
    0,
    83,
    0,
    0,
    0,
    0,
    0,
    0,
    0,
    0,
    0,
    0,
    0,
    0,
    0,
    0,
    0,
    0,
    0,
    0,
    0,
    0,
    0,
    0,
    0,
    0,
    0,
    0,
    0,
    0,
    0,
    0,
    0,
    0,
    0,
    0,
    0,
    0,
    0,
    0,
    0,
    0,
    0,
    0,
    0,
    0,
    0,
    0,
    0,
    0,
    0,
    0,
    0,
    0,
    0,
    0,
    0,
    0,
    0,
    0,
    0,
    0,
    0,
    0,
    0,
    0,
    0,
    0,
    0,
    0,
    0,
    0,
    0,
    0,
    0,
    0,
    0,
    0,
    0,
    0,
    0,
    0,
    0,
    0,
    0,
    83,
    0,
    0,
    0,
    0,
    0,
    0,
    0,
    0,
    0,
    83,
    0,
    0,
    0,
    0,
    0,
    0,
    83,
    0,
    0,
    0,
    0,
    0,
    0,
    0,
    0,
    0,
    0,
    0,
    0,
    0,
    0,
    0,
    0,
    0,
    0,
    0,
    0,
    0,
    0,
    0,
    0,
    0,
    0,
    0,
    0,
    0,
    0,
    0,
    0,
    0,
    0,
    0,
    0,
    0,
    0,
    0,
    0,
    0,
    0,
    0,
    0,
    0,
    0,
    0,
    0,
    0,
    0,
    0,
    0,
    0,
    0,
    0,
    0,
    0,
    0,
    0,
    0,
    0,
    0,
    0,
    0,
    0,
    0,
    0,
    0,
    0,
    83,
    0,
    0,
    0,
    0,
    0,
    0,
    83,
    0,
    0,
    0,
    0,
    0,
    0,
    0,
    0,
    0,
    83,
    0,
    0,
    0,
    0,
    0,
    0,
    83,
    0,
    0,
    0,
    0,
    0,
    0,
    0,
    0,
    0,
    0,
    0,
    0,
    0,
    0,
    0,
    0,
    0,
    0,
    0,
    0,
    0,
    0,
    0,
    0,
    0,
    0,
    0,
    0,
    0,
    0,
    0,
    0,
    0,
    0,
    0,
    0,
    0,
    0,
    0,
    0,
    0,
    0,
    0,
    0,
    0,
    0,
    0,
    0,
    0,
    0,
    0,
    0,
    0,
    0,
    0,
    0,
    0,
    0,
    0,
    0,
    0,
    0,
    0,
    0,
    0,
    0,
    0,
    0,
    0,
    83,
    0,
    0,
    0,
    0,
    0,
    0,
    83,
    0,
    0,
    0,
    0,
    0,
    0,
    0,
    0,
    0,
    83,
    8,
    8,
    8,
    8,
    8,
    8,
    45,
    0,
    0,
    0,
    0,
    0,
    0,
    0,
    0,
    0,
    0,
    0,
    0,
    0,
    0,
    0,
    0,
    0,
    0,
    0,
    0,
    0,
    0,
    0,
    0,
    0,
    0,
    0,
    0,
    0,
    0,
    0,
    0,
    0,
    0,
    0,
    0,
    0,
    0,
    0,
    0,
    0,
    0,
    0,
    0,
    0,
    0,
    0,
    0,
    0,
    0,
    0,
    0,
    0,
    0,
    0,
    0,
    0,
    0,
    0,
    0,
    0,
    0,
    0,
    0,
    0,
    0,
    0,
    0,
    0,
    83,
    8,
    8,
    8,
    8,
    8,
    8,
    45,
    0,
    0,
    0,
    0,
    0,
    0,
    0,
    0,
    0,
    0,
    0,
    0,
    0,
    0,
    0,
    0,
    0,
    0,
    0,
    0,
    0,
    0,
    0,
    0,
    0,
    0,
    0,
    0,
    0,
    0,
    0,
    0,
    0,
    0,
    0,
    0,
    0,
    0,
    0,
    0,
    0,
    0,
    0,
    0,
    0,
    0,
    0,
    0,
    0,
    0,
    0,
    0,
    0,
    0,
    0,
    0,
    0,
    0,
    0,
    0,
    0,
    0,
    0,
    0,
    0,
    0,
    0,
    0,
    0,
    0,
    0,
    0,
    0,
    0,
    0,
    0,
    0,
    0,
    0,
    0,
    0,
    0,
    0,
    0,
    0,
    0,
    0,
    0,
    0,
    0,
    0,
    0,
    0,
    0,
    0,
    0,
    0,
    0,
    0,
    0,
    0,
    0,
    0,
    0,
    0,
    0,
    0,
    0,
    0,
    0,
    0,
    0,
    0,
    0,
    0,
    0,
    0,
    0,
    0,
    0,
    0,
    0,
    0,
    0,
    0,
    0,
    0,
    0,
    0,
    0,
    0,
    0,
    0,
    0,
    0,
    0,
    0,
    0,
    0,
    0,
    0,
    0,
    0,
    0,
    0,
    0,
    0,
    0,
    0,
    0,
    0,
    0,
    0,
    0,
    0,
    0,
    0,
    0,
    0,
    0,
    0,
    0,
    0,
    0,
    0,
    0,
    0,
    0,
    0,
    0,
    0,
    0,
    0,
    0,
    0,
    0,
    0,
    0,
    0,
    0,
    0,
    0,
    0,
    0,
    0,
    0,
    0,
    0,
    0,
    0,
    0,
    0,
    0,
    0,
    0,
    0,
    0,
    0,
    0,
    0,
    0,
    0,
    0,
    0,
    0,
    0,
    0,
    0,
    0,
    0,
    0,
    0,
    0,
    0,
    0,
    0,
    0,
    0,
    0,
    0,
    0,
    0,
    0,
    0,
    0,
    0,
    0,
    0,
    0,
    0,
    0,
    0,
    0,
    0,
    0,
    0,
    0,
    0,
    0,
    0,
    0,
    0,
    0,
    0,
    0,
    0,
    0,
    0,
    0,
    0,
    0,
    0,
    0,
    0,
    0,
    0,
    0,
    0,
    0,
    0,
    0,
    0,
    0,
    0,
    0,
    0,
    0,
    0,
    0,
    0,
    0,
    0,
    0,
    0,
    0,
    0,
    0,
    0,
    0,
    0,
    0,
    0,
    0,
    0,
    0,
    0,
    0,
    0,
    0,
    0,
    0,
    86,
    21,
    21,
    21,
    21,
    21,
    21,
    82,
    0,
    0,
    0,
    0,
    0,
    0,
    0,
    0,
    0,
    0,
    0,
    0,
    0,
    0,
    0,
    0,
    0,
    0,
    0,
    0,
    0,
    0,
    0,
    0,
    0,
    0,
    0,
    0,
    0,
    0,
    0,
    0,
    0,
    0,
    0,
    0,
    0,
    0,
    0,
    0,
    0,
    0,
    0,
    0,
    0,
    0,
    0,
    0,
    0,
    0,
    0,
    0,
    0,
    0,
    0,
    0,
    0,
    0,
    0,
    0,
    0,
    0,
    0,
    0,
    0,
    0,
    0,
    0,
    0,
    86,
    21,
    21,
    21,
    21,
    21,
    21,
    82,
    0,
    0,
    0,
    0,
    0,
    0,
    0,
    0,
    0,
    83,
    0,
    0,
    0,
    0,
    0,
    0,
    83,
    0,
    0,
    0,
    0,
    0,
    0,
    0,
    0,
    0,
    0,
    0,
    0,
    0,
    0,
    0,
    0,
    0,
    0,
    0,
    0,
    0,
    0,
    0,
    0,
    0,
    0,
    0,
    0,
    0,
    0,
    0,
    0,
    0,
    0,
    0,
    0,
    0,
    0,
    0,
    0,
    0,
    0,
    0,
    0,
    0,
    0,
    0,
    0,
    0,
    0,
    0,
    0,
    0,
    0,
    0,
    0,
    0,
    0,
    0,
    0,
    0,
    0,
    0,
    0,
    0,
    0,
    0,
    0,
    0,
    83,
    0,
    0,
    0,
    0,
    0,
    0,
    83,
    0,
    0,
    0,
    0,
    0,
    0,
    0,
    0,
    0,
    83,
    0,
    0,
    0,
    0,
    0,
    0,
    83,
    0,
    0,
    0,
    0,
    0,
    0,
    0,
    0,
    0,
    0,
    0,
    0,
    0,
    0,
    0,
    0,
    0,
    0,
    0,
    0,
    0,
    0,
    0,
    0,
    0,
    0,
    0,
    0,
    0,
    0,
    0,
    0,
    0,
    0,
    0,
    0,
    0,
    0,
    0,
    0,
    0,
    0,
    0,
    0,
    0,
    0,
    0,
    0,
    0,
    0,
    0,
    0,
    0,
    0,
    0,
    0,
    0,
    0,
    0,
    0,
    0,
    0,
    0,
    0,
    0,
    0,
    0,
    0,
    0,
    83,
    0,
    0,
    0,
    0,
    0,
    0,
    83,
    0,
    0,
    0,
    0,
    0,
    0,
    0,
    0,
    0,
    83,
    0,
    0,
    0,
    0,
    0,
    0,
    83,
    0,
    0,
    0,
    0,
    0,
    0,
    0,
    0,
    0,
    0,
    0,
    0,
    0,
    0,
    0,
    0,
    0,
    0,
    0,
    0,
    0,
    0,
    0,
    0,
    0,
    0,
    0,
    0,
    0,
    0,
    0,
    0,
    0,
    0,
    0,
    0,
    0,
    0,
    0,
    0,
    0,
    0,
    0,
    0,
    0,
    0,
    0,
    0,
    0,
    0,
    0,
    0,
    0,
    0,
    0,
    0,
    0,
    0,
    0,
    0,
    0,
    0,
    0,
    0,
    0,
    0,
    0,
    0,
    0,
    83,
    0,
    0,
    0,
    0,
    0,
    0,
    83,
    0,
    0,
    0,
    0,
    0,
    0,
    0,
    0,
    0,
    83,
    0,
    0,
    0,
    0,
    0,
    0,
    0,
    0,
    0,
    0,
    0,
    0,
    0,
    0,
    0,
    0,
    0,
    0,
    0,
    0,
    0,
    0,
    0,
    0,
    0,
    0,
    0,
    0,
    0,
    0,
    0,
    0,
    0,
    0,
    0,
    0,
    0,
    0,
    0,
    0,
    0,
    0,
    0,
    0,
    0,
    0,
    0,
    0,
    0,
    0,
    0,
    0,
    0,
    0,
    0,
    0,
    0,
    0,
    0,
    0,
    0,
    0,
    0,
    0,
    0,
    0,
    0,
    0,
    0,
    0,
    0,
    0,
    0,
    0,
    0,
    0,
    0,
    0,
    0,
    0,
    0,
    0,
    0,
    83,
    0,
    0,
    0,
    0,
    0,
    0,
    0,
    0,
    0,
    83,
    0,
    0,
    0,
    0,
    0,
    0,
    0,
    0,
    0,
    0,
    0,
    0,
    0,
    0,
    0,
    0,
    0,
    0,
    0,
    0,
    0,
    0,
    0,
    0,
    0,
    0,
    0,
    0,
    0,
    0,
    0,
    0,
    0,
    0,
    0,
    0,
    0,
    0,
    0,
    0,
    0,
    0,
    0,
    0,
    0,
    0,
    0,
    0,
    0,
    0,
    0,
    0,
    0,
    0,
    0,
    0,
    0,
    0,
    0,
    0,
    0,
    0,
    0,
    0,
    0,
    0,
    0,
    0,
    0,
    0,
    0,
    0,
    0,
    0,
    0,
    0,
    0,
    0,
    0,
    0,
    0,
    0,
    0,
    83,
    0,
    0,
    0,
    0,
    0,
    0,
    0,
    0,
    0,
    83,
    0,
    0,
    0,
    0,
    0,
    0,
    83,
    0,
    0,
    0,
    0,
    0,
    0,
    0,
    0,
    0,
    0,
    0,
    0,
    0,
    0,
    0,
    0,
    0,
    0,
    0,
    0,
    0,
    0,
    0,
    0,
    0,
    0,
    0,
    0,
    0,
    0,
    0,
    0,
    0,
    0,
    0,
    0,
    0,
    0,
    0,
    0,
    0,
    0,
    0,
    0,
    0,
    0,
    0,
    0,
    0,
    0,
    0,
    0,
    0,
    0,
    0,
    0,
    0,
    0,
    0,
    0,
    0,
    0,
    0,
    0,
    0,
    0,
    0,
    0,
    0,
    83,
    0,
    0,
    0,
    0,
    0,
    0,
    83,
    0,
    0,
    0,
    0,
    0,
    0,
    0,
    0,
    0,
    83,
    0,
    0,
    0,
    0,
    0,
    0,
    83,
    0,
    0,
    0,
    0,
    0,
    0,
    0,
    0,
    0,
    0,
    0,
    0,
    0,
    0,
    0,
    0,
    0,
    0,
    0,
    0,
    0,
    0,
    0,
    0,
    0,
    0,
    0,
    0,
    0,
    0,
    0,
    0,
    0,
    0,
    0,
    0,
    0,
    0,
    0,
    0,
    0,
    0,
    0,
    0,
    0,
    0,
    0,
    0,
    0,
    0,
    0,
    0,
    0,
    0,
    0,
    0,
    0,
    0,
    0,
    0,
    0,
    0,
    0,
    0,
    0,
    0,
    0,
    0,
    0,
    83,
    0,
    0,
    0,
    0,
    0,
    0,
    83,
    0,
    0,
    0,
    0,
    0,
    0,
    0,
    0,
    0,
    83,
    8,
    8,
    8,
    8,
    8,
    8,
    45,
    0,
    0,
    0,
    0,
    0,
    0,
    0,
    0,
    0,
    0,
    0,
    0,
    0,
    0,
    0,
    0,
    0,
    0,
    0,
    0,
    0,
    0,
    0,
    0,
    0,
    0,
    0,
    0,
    0,
    0,
    0,
    0,
    0,
    0,
    0,
    0,
    0,
    0,
    0,
    0,
    0,
    0,
    0,
    0,
    0,
    0,
    0,
    0,
    0,
    0,
    0,
    0,
    0,
    0,
    0,
    0,
    0,
    0,
    0,
    0,
    0,
    0,
    0,
    0,
    0,
    0,
    0,
    0,
    0,
    83,
    8,
    8,
    8,
    8,
    8,
    8,
    45,
    0,
    0,
    0,
    0,
    0,
    0,
    0,
    0,
    0,
    0,
    0,
    0,
    0,
    0,
    0,
    0,
    0,
    0,
    0,
    0,
    0,
    0,
    0,
    0,
    0,
    0,
    0,
    0,
    0,
    0,
    0,
    0,
    0,
    0,
    0,
    0,
    0,
    0,
    0,
    0,
    0,
    0,
    0,
    0,
    0,
    0,
    0,
    0,
    0,
    0,
    0,
    0,
    0,
    0,
    0,
    0,
    0,
    0,
    0,
    0,
    0,
    0,
    0,
    0,
    0,
    0,
    0,
    0,
    0,
    0,
    0,
    0,
    0,
    0,
    0,
    0,
    0,
    0,
    0,
    0,
    0,
    0,
    0,
    0,
    0,
    0,
    0,
    0,
    0,
    0,
    0,
    0,
    0,
    0,
    0,
    0,
    0,
    0,
    0,
    0,
    0,
    0,
    0,
    0,
    0,
    0,
    0,
    0,
    0,
    0,
    0,
    0,
    0,
    0,
    0,
    0,
    0,
    0,
    0,
    0,
    0,
    0,
    0,
    0,
    0,
    0,
    0,
    0,
    0,
    0,
    0,
    0,
    0,
    0,
    0,
    0,
    0,
    0,
    0,
    0,
    0,
    0,
    0,
    0,
    0,
    0,
    0,
    0,
    0,
    0,
    0,
    0,
    0,
    0,
    0,
    0,
    0,
    0,
    0,
    0,
    0,
    0,
    0,
    0,
    0,
    0,
    0,
    0,
    0,
    0,
    0,
    0,
    0,
    0,
    0,
    0,
    0,
    0,
    0,
    0,
    0,
    0,
    0,
    0,
    0,
    0,
    0,
    0,
    0,
    0,
    0,
    0,
    0,
    0,
    0,
    0,
    0,
    0,
    0,
    0,
    0,
    0,
    0,
    0,
    0,
    0,
    0,
    0,
    0,
    0,
    0,
    0,
    0,
    0,
    0,
    0,
    0,
    0,
    0,
    0,
    0,
    0,
    0,
    0,
    0,
    0,
    0,
    0,
    0,
    0,
    0,
    0,
    0,
    0,
    0,
    0,
    0,
    0,
    0,
    0,
    0,
    0,
    0,
    0,
    0,
    0,
    0,
    0,
    0,
    0,
    0,
    0,
    0,
    0,
    0,
    0,
    0,
    0,
    0,
    0,
    0,
    0,
    0,
    0,
    0,
    0,
    0,
    0,
    0,
    0,
    0,
    0,
    0,
    0,
    0,
    0,
    0,
    0,
    0,
    0,
    0,
    0,
    0,
    0,
    0,
    0,
    0,
    0,
    0,
    0,
    0,
    86,
    21,
    21,
    21,
    21,
    21,
    21,
    82,
    0,
    0,
    0,
    0,
    0,
    0,
    0,
    0,
    0,
    0,
    0,
    0,
    0,
    0,
    0,
    0,
    0,
    0,
    0,
    0,
    0,
    0,
    0,
    0,
    0,
    0,
    0,
    0,
    0,
    0,
    0,
    0,
    0,
    0,
    0,
    0,
    0,
    0,
    0,
    0,
    0,
    0,
    0,
    0,
    0,
    0,
    0,
    0,
    0,
    0,
    0,
    0,
    0,
    0,
    0,
    0,
    0,
    0,
    0,
    0,
    0,
    0,
    0,
    0,
    0,
    0,
    0,
    0,
    0,
    86,
    21,
    21,
    21,
    21,
    21,
    21,
    82,
    0,
    0,
    0,
    0,
    0,
    0,
    0,
    0,
    0,
    83,
    0,
    0,
    0,
    0,
    0,
    0,
    83,
    0,
    0,
    0,
    0,
    0,
    0,
    0,
    0,
    0,
    0,
    0,
    0,
    0,
    0,
    0,
    0,
    0,
    0,
    0,
    0,
    0,
    0,
    0,
    0,
    0,
    0,
    0,
    0,
    0,
    0,
    0,
    0,
    0,
    0,
    0,
    0,
    0,
    0,
    0,
    0,
    0,
    0,
    0,
    0,
    0,
    0,
    0,
    0,
    0,
    0,
    0,
    0,
    0,
    0,
    0,
    0,
    0,
    0,
    0,
    0,
    0,
    0,
    0,
    0,
    0,
    0,
    0,
    0,
    0,
    83,
    0,
    0,
    0,
    0,
    0,
    0,
    83,
    0,
    0,
    0,
    0,
    0,
    0,
    0,
    0,
    0,
    83,
    0,
    0,
    0,
    0,
    0,
    0,
    83,
    0,
    0,
    0,
    0,
    0,
    0,
    0,
    0,
    0,
    0,
    0,
    0,
    0,
    0,
    0,
    0,
    0,
    0,
    0,
    0,
    0,
    0,
    0,
    0,
    0,
    0,
    0,
    0,
    0,
    0,
    0,
    0,
    0,
    0,
    0,
    0,
    0,
    0,
    0,
    0,
    0,
    0,
    0,
    0,
    0,
    0,
    0,
    0,
    0,
    0,
    0,
    0,
    0,
    0,
    0,
    0,
    0,
    0,
    0,
    0,
    0,
    0,
    0,
    0,
    0,
    0,
    0,
    0,
    0,
    83,
    0,
    0,
    0,
    0,
    0,
    0,
    83,
    0,
    0,
    0,
    0,
    0,
    0,
    0,
    0,
    0,
    83,
    0,
    0,
    0,
    0,
    0,
    0,
    83,
    0,
    0,
    0,
    0,
    0,
    0,
    0,
    0,
    0,
    0,
    0,
    0,
    0,
    0,
    0,
    0,
    0,
    0,
    0,
    0,
    0,
    0,
    0,
    0,
    0,
    0,
    0,
    0,
    0,
    0,
    0,
    0,
    0,
    0,
    0,
    0,
    0,
    0,
    0,
    0,
    0,
    0,
    0,
    0,
    0,
    0,
    0,
    0,
    0,
    0,
    0,
    0,
    0,
    0,
    0,
    0,
    0,
    0,
    0,
    0,
    0,
    0,
    0,
    0,
    0,
    0,
    0,
    0,
    0,
    83,
    0,
    0,
    0,
    0,
    0,
    0,
    83,
    0,
    0,
    0,
    0,
    0,
    0,
    0,
    0,
    0,
    83,
    0,
    0,
    0,
    0,
    0,
    0,
    0,
    0,
    0,
    0,
    0,
    0,
    0,
    0,
    0,
    0,
    0,
    0,
    0,
    0,
    0,
    0,
    0,
    0,
    0,
    0,
    0,
    0,
    0,
    0,
    0,
    0,
    0,
    0,
    0,
    0,
    0,
    0,
    0,
    0,
    0,
    0,
    0,
    0,
    0,
    0,
    0,
    0,
    0,
    0,
    0,
    0,
    0,
    0,
    0,
    0,
    0,
    0,
    0,
    0,
    0,
    0,
    0,
    0,
    0,
    0,
    0,
    0,
    0,
    0,
    0,
    0,
    0,
    0,
    0,
    0,
    0,
    0,
    0,
    0,
    0,
    0,
    0,
    83,
    0,
    0,
    0,
    0,
    0,
    0,
    0,
    0,
    0,
    83,
    0,
    0,
    0,
    0,
    0,
    0,
    0,
    0,
    0,
    0,
    0,
    0,
    0,
    0,
    0,
    0,
    0,
    0,
    0,
    0,
    0,
    0,
    0,
    0,
    0,
    0,
    0,
    0,
    0,
    0,
    0,
    0,
    0,
    0,
    0,
    0,
    0,
    0,
    0,
    0,
    0,
    0,
    0,
    0,
    0,
    0,
    0,
    0,
    0,
    0,
    0,
    0,
    0,
    0,
    0,
    0,
    0,
    0,
    0,
    0,
    0,
    0,
    0,
    0,
    0,
    0,
    0,
    0,
    0,
    0,
    0,
    0,
    0,
    0,
    0,
    0,
    0,
    0,
    0,
    0,
    0,
    0,
    0,
    83,
    0,
    0,
    0,
    0,
    0,
    0,
    0,
    0,
    0,
    83,
    0,
    0,
    0,
    0,
    0,
    0,
    83,
    0,
    0,
    0,
    0,
    0,
    0,
    0,
    0,
    0,
    0,
    0,
    0,
    0,
    0,
    0,
    0,
    0,
    0,
    0,
    0,
    0,
    0,
    0,
    0,
    0,
    0,
    0,
    0,
    0,
    0,
    0,
    0,
    0,
    0,
    0,
    0,
    0,
    0,
    0,
    0,
    0,
    0,
    0,
    0,
    0,
    0,
    0,
    0,
    0,
    0,
    0,
    0,
    0,
    0,
    0,
    0,
    0,
    0,
    0,
    0,
    0,
    0,
    0,
    0,
    0,
    0,
    0,
    0,
    0,
    83,
    0,
    0,
    0,
    0,
    0,
    0,
    83,
    0,
    0,
    0,
    0,
    0,
    0,
    0,
    0,
    0,
    83,
    0,
    0,
    0,
    0,
    0,
    0,
    83,
    0,
    0,
    0,
    0,
    0,
    0,
    0,
    0,
    0,
    0,
    0,
    0,
    0,
    0,
    0,
    0,
    0,
    0,
    0,
    0,
    0,
    0,
    0,
    0,
    0,
    0,
    0,
    0,
    0,
    0,
    0,
    0,
    0,
    0,
    0,
    0,
    0,
    0,
    0,
    0,
    0,
    0,
    0,
    0,
    0,
    0,
    0,
    0,
    0,
    0,
    0,
    0,
    0,
    0,
    0,
    0,
    0,
    0,
    0,
    0,
    0,
    0,
    0,
    0,
    0,
    0,
    0,
    0,
    0,
    83,
    0,
    0,
    0,
    0,
    0,
    0,
    83,
    0,
    0,
    0,
    0,
    0,
    0,
    0,
    0,
    0,
    83,
    8,
    8,
    8,
    8,
    8,
    8,
    45,
    0,
    0,
    0,
    0,
    0,
    0,
    0,
    0,
    0,
    0,
    0,
    0,
    0,
    0,
    0,
    0,
    0,
    0,
    0,
    0,
    0,
    0,
    0,
    0,
    0,
    0,
    0,
    0,
    0,
    0,
    0,
    0,
    0,
    0,
    0,
    0,
    0,
    0,
    0,
    0,
    0,
    0,
    0,
    0,
    0,
    0,
    0,
    0,
    0,
    0,
    0,
    0,
    0,
    0,
    0,
    0,
    0,
    0,
    0,
    0,
    0,
    0,
    0,
    0,
    0,
    0,
    0,
    0,
    0,
    83,
    8,
    8,
    8,
    8,
    8,
    8,
    45,
    0,
    0,
    0,
    0,
    0,
    0,
    0,
    0,
    0,
    0,
    0,
    0,
    0,
    0,
    0,
    0,
    0,
    0,
    0,
    0,
    0,
    0,
    0,
    0,
    0,
    0,
    0,
    0,
    0,
    0,
    0,
    0,
    0,
    0,
    0,
    0,
    0,
    0,
    0,
    0,
    0,
    0,
    0,
    0,
    0,
    0,
    0,
    0,
    0,
    0,
    0,
    0,
    0,
    0,
    0,
    0,
    0,
    0,
    0,
    0,
    0,
    0,
    0,
    0,
    0,
    0,
    0,
    0,
    0,
    0,
    0,
    0,
    0,
    0,
    0,
    0,
    0,
    0,
    0,
    0,
    0,
    0,
    0,
    0,
    0,
    0,
    0,
    0,
    0,
    0,
    0,
    0,
    0,
    0,
    0,
    0,
    0,
    0,
    0,
    0,
    0,
    0,
    0,
    0,
    0,
    0,
    0,
    0,
    0,
    0,
    0,
    0,
    0,
    0,
    0,
    0,
    0,
    0,
    0,
    0,
    0,
    0,
    0,
    0,
    0,
    0,
    0,
    0,
    0,
    0,
    0,
    0,
    0,
    0,
    0,
    0,
    0,
    0,
    0,
    0,
    0,
    0,
    0,
    0,
    0,
    0,
    0,
    0,
    0,
    0,
    0,
    0,
    0,
    0,
    0,
    0,
    0,
    0,
    0,
    0,
    0,
    0,
    0,
    0,
    0,
    0,
    0,
    0,
    0,
    0,
    0,
    0,
    0,
    0,
    0,
    0,
    0,
    0,
    0,
    0,
    0,
    0,
    0,
    0,
    0,
    0,
    0,
    0,
    0,
    0,
    0,
    0,
    0,
    0,
    0,
    0,
    0,
    0,
    0,
    0,
    0,
    0,
    0,
    0,
    0,
    0,
    0,
    0,
    0,
    0,
    0,
    0,
    0,
    0,
    0,
    0,
    0,
    0,
    0,
    0,
    0,
    0,
    0,
    0,
    0,
    0,
    0,
    0,
    0,
    0,
    0,
    0,
    0,
    0,
    0,
    0,
    0,
    0,
    0,
    0,
    0,
    0,
    0,
    0,
    0,
    0,
    0,
    0,
    0,
    0,
    0,
    0,
    0,
    0,
    0,
    0,
    0,
    0,
    0,
    0,
    0,
    0,
    0,
    0,
    0,
    0,
    0,
    0,
    0,
    0,
    0,
    0,
    0,
    0,
    0,
    0,
    0,
    0,
    0,
    0,
    0,
    0,
    0,
    0,
    0,
    0,
    0,
    0,
    0,
    0,
    0,
    0,
    0,
    0,
    0,
    0,
    0,
    0,
    0,
    0,
    0,
    0,
    0,
    0,
    0,
    0,
    0,
    0,
    0,
    0,
    0,
    0,
    0,
    0,
    0,
    0,
    0,
    0,
    0,
    0,
    0,
    0,
    0,
    0,
    0,
    0,
    0,
    0,
    0,
    0,
    0,
    0,
    0,
    0,
    0,
    0,
    0,
    0,
    0,
    0,
    0,
    0,
    0,
    0,
    0,
    0,
    0,
    0,
    0,
    0,
    0,
    0,
    0,
    0,
    0,
    0,
    0,
    0,
    0,
    0,
    0,
    0,
    0,
    0,
    0,
    0,
    0,
    0,
    0,
    0,
    0,
    0,
    0,
    0,
    0,
    0,
    0,
    0,
    0,
    0,
    0,
    0,
    0,
    0,
    0,
    0,
    0,
    0,
    0,
    0,
    0,
    0,
    0,
    0,
    0,
    0,
    0,
    0,
    0,
    0,
    0,
    0,
    0,
    0,
    0,
    0,
    0,
    0,
    0,
    0,
    0,
    0,
    0,
    0,
    0,
    0,
    0,
    0,
    0,
    0,
    0,
    0,
    0,
    0,
    0,
    0,
    0,
    0,
    0,
    0,
    0,
    0,
    0,
    0,
    0,
    0,
    0,
    0,
    0,
    0,
    0,
    0,
    0,
    0,
    0,
    0,
    0,
    0,
    0,
    0,
    0,
    0,
    0,
    0,
    0,
    0,
    0,
    0,
    0,
    0,
    0,
    0,
    0,
    0,
    0,
    0,
    0,
    0,
    0,
    0,
    0,
    0,
    0,
    0,
    0,
    0,
    0,
    0,
    0,
    0,
    0,
    0,
    0,
    0,
    0,
    0,
    0,
    0,
    0,
    0,
    0,
    0,
    0,
    0,
    0,
    0,
    0,
    0,
    0,
    0,
    0,
    0,
    0,
    0,
    0,
    0,
    0,
    0,
    0,
    0,
    0,
    0,
    0,
    0,
    0,
    0,
    0,
    0,
    0,
    0,
    0,
    0,
    0,
    0,
    0,
    0,
    0,
    0,
    0,
    0,
    0,
    0,
    0,
    0,
    0,
    0,
    0,
    0,
    0,
    0,
    0,
    0,
    0,
    0,
    0,
    0,
    0,
    0,
    0,
    0,
    0,
    0,
    0,
    0,
    0,
    0,
    0,
    0,
    0,
    0,
    0,
    0,
    0,
    0,
    0,
    0,
    0,
    0,
    0,
    0,
    0,
    0,
    0,
    0,
    0,
    0,
    0,
    0,
    0,
    0,
    0,
    0,
    0,
    0,
    0,
    0,
    0,
    0,
    0,
    0,
    0,
    0,
    0,
    0,
    0,
    0,
    0,
    0,
    0,
    0,
    0,
    0,
    0,
    0,
    0,
    0,
    0,
    0,
    0,
    0,
    0,
    0,
    0,
    0,
    0,
    0,
    0,
    0,
    0,
    0,
    0,
    0,
    0,
    0,
    0,
    0,
    0,
    0,
    0,
    0,
    0,
    0,
    0,
    0,
    0,
    0,
    0,
    0,
    0,
    0,
    0,
    0,
    0,
    0,
    0,
    0,
    0,
    0,
    0,
    0,
    0,
    0,
    0,
    0,
    0,
    0,
    0,
    0,
    0,
    0,
    0,
    0,
    0,
    0,
    0,
    0,
    0,
    0,
    0,
    0,
    0,
    0,
    0,
    0,
    0,
    0,
    0,
    0,
    0,
    0,
    0,
    0,
    0,
    0,
    0,
    0,
    0,
    0,
    0,
    0,
    0,
    0,
    0,
    0,
    0,
    0,
    0,
    0,
    0,
    0,
    0,
    0,
    0,
    0,
    0,
    0,
    0,
    0,
    0,
    0,
    0,
    0,
    0,
    0,
    0,
    0,
    0,
    0,
    0,
    0,
    0,
    0,
    0,
    0,
    0,
    0,
    0,
    0,
    0,
    0,
    0,
    0,
    0,
    0,
    0,
    0,
    0,
    0,
    0,
    0,
    0,
    0,
    0,
    0,
    0,
    0,
    0,
    0,
    0,
    0,
    0,
    0,
    0,
    0,
    0,
    0,
    0,
    0,
    0,
    0,
    0,
    0,
    0,
    0,
    0,
    0,
    0,
    0,
    0,
    0,
    0,
    0,
    0,
    0,
    0,
    0,
    0,
    0,
    0,
    0,
    0,
    0,
    0,
    0,
    0,
    0,
    0,
    0,
    0,
    0,
    0,
    0,
    0,
    0,
    0,
    0,
    0,
    0,
    0,
    0,
    0,
    0,
    0,
    0,
    0,
    0,
    0,
    0,
    0,
    0,
    0,
    0,
    0,
    0,
    0,
    0,
    0,
    0,
    0,
    0,
    0,
    0,
    0,
    0,
    0,
    0,
    0,
    0,
    0,
    0,
    0,
    0,
    0,
    0,
    0,
    0,
    0,
    0,
    0,
    0,
    0,
    0,
    0,
    0,
    0,
    0,
    0,
    0,
    0,
    0,
    0,
    0,
    0,
    0,
    0,
    0,
    0,
    0,
    0,
    0,
    0,
    0,
    0,
    0,
    0,
    0,
    0,
    0,
    0,
    0,
    0,
    0,
    0,
    0,
    0,
    0,
    0,
    0,
    0,
    0,
    0,
    0,
    0,
    0,
    0,
    0,
    0,
    0,
    0,
    0,
    0,
    0,
    0,
    0,
    0,
    0,
    0,
    0,
    0,
    0,
    0,
    0,
    0,
    0,
    0,
    0,
    0,
    0,
    0,
    0,
    0,
    0,
    0,
    0,
    0,
    0,
    0,
    0,
    0,
    0,
    0,
    0,
    0,
    0,
    0,
    0,
    0,
    0,
    0,
    0,
    0,
    0,
    0,
    0,
    0,
    0,
    0,
    0,
    0,
    0,
    0,
    0,
    0,
    0,
    0,
    0,
    0,
    0,
    0,
    0,
    0,
    0,
    0,
    0,
    0,
    0,
    0,
    0,
    0,
    0,
    0,
    0,
    0,
    0,
    0,
    0,
    0,
    0,
    0,
    0,
    0,
    0,
    0,
    0,
    0,
    0,
    0,
    0,
    0,
    0,
    0,
    0,
    0,
    0,
    0,
    0,
    0,
    0,
    0,
    0,
    0,
    0,
    0,
    0,
    0,
    0,
    0,
    0,
    0,
    0,
    0,
    0,
    0,
    0,
    0,
    0,
    0,
    0,
    0,
    0,
    0,
    0,
    0,
    0,
    0,
    0,
    0,
    0,
    0,
    0,
    0,
    0,
    0,
    0,
    0,
    0,
    0,
    0,
    0,
    0,
    0,
    0,
    0,
    0,
    0,
    0,
    0,
    0,
    0,
    0,
    0,
    0,
    0,
    0,
    0,
    0,
    0,
    0,
    0,
    0,
    0,
    0,
    0,
    0,
    0,
    0,
    0,
    0,
    0,
    0,
    0,
    0,
    0,
    0,
    0,
    0,
    0,
    0,
    0,
    0,
    0,
    0,
    0,
    0,
    0,
    0,
    0,
    0,
    0,
    0,
    0,
    0,
    0,
    0,
    0,
    0,
    0,
    0,
    0,
    0,
    0,
    0,
    0,
    0,
    0,
    0,
    0,
    0,
    0,
    0,
    0,
    0,
    0,
    0,
    0,
    0,
    0,
    0,
    0,
    0,
    0,
    0,
    0,
    0,
    0,
    0,
    0,
    0,
    0,
    0,
    0,
    0,
    0,
    0,
    0,
    0,
    0,
    0,
    0,
    0,
    0,
    0,
    0,
    0,
    0,
    0,
    0,
    0,
    0,
    0,
    0,
    0,
    0,
    0,
    0,
    0,
    0,
    0,
    0,
    0,
    0,
    0,
    0,
    0,
    0,
    0,
    0,
    0,
    0,
    0,
    0,
    0,
    0,
    0,
    0,
    0,
    0,
    0,
    0,
    0,
    0,
    0,
    0,
    0,
    0,
    0,
    0,
    0,
    0,
    0,
    0,
    0,
    0,
    0,
    0,
    0,
    0,
    0,
    0,
    0,
    0,
    0,
    0,
    0,
    0,
    0,
    0,
    0,
    0,
    0,
    0,
    0,
    0,
    0,
    0,
    0,
    0,
    0,
    0,
    0,
    0,
    0,
    0,
    0,
    0,
    0,
    0,
    0,
    0,
    0,
    0,
    0,
    0,
    0,
    0,
    0,
    0,
    0,
    0,
    0,
    0,
    0,
    0,
    0,
    0,
    0,
    0,
    0,
    0,
    0,
    0,
    0,
    0,
    0,
    0,
    0,
    0,
    0,
    0,
    0,
    0,
    0,
    0,
    0,
    0,
    0,
    0,
    0,
    0,
    0,
    0,
    0,
    0,
    0,
    0,
    0,
    0,
    0,
    0,
    0,
    0,
    0,
    0,
    0,
    0,
    0,
    0,
    0,
    0,
    0,
    0,
    0,
    0,
    0,
    0,
    0,
    0,
    0,
    0,
    0,
    0,
    0,
    0,
    0,
    0,
    0,
    0,
    0,
    0,
    0,
    0,
    0,
    0,
    0,
    0,
    0,
    0,
    0,
    0,
    0,
    0,
    0,
    0,
    0,
    0,
    0,
    0,
    0,
    0,
    0,
    0,
    0,
    0,
    0,
    0,
    0,
    0,
    0,
    0,
    0,
    0,
    0,
    0,
    0,
    0,
    0,
    0,
    0,
    0,
    0,
    0,
    0,
    0,
    0,
    0,
    0,
    0,
    0,
    0,
    0,
    0,
    0,
    0,
    0,
    0,
    0,
    0,
    0,
    0,
    0,
    0,
    0,
    0,
    0,
    0,
    0,
    0,
    0,
    0,
    0,
    0,
    0,
    0,
    0,
    0,
    0,
    0,
    0,
    0,
    0,
    0,
    0,
    0,
    0,
    0,
    0,
    0,
    0,
    0,
    0,
    0,
    0,
    0,
    0,
    0,
    0,
    0,
    0,
    0,
    0,
    0,
    0,
    0,
    0,
    0,
    0,
    0,
    0,
    0,
    0,
    0,
    0,
    0,
    0,
    0,
    0,
    0,
    0,
    0,
    0,
    0,
    0,
    0,
    0,
    0,
    0,
    0,
    0,
    0,
    0,
    0,
    0,
    0,
    0,
    0,
    0,
    0,
    0,
    0,
    0,
    0,
    0,
    0,
    0,
    0,
    0,
    0,
    0,
    0,
    0,
    0,
    0,
    0,
    0,
    0,
    0,
    0,
    0,
    0,
    0,
    0,
    0,
    0,
    0,
    0,
    0,
    0,
    0,
    0,
    0,
    0,
    0,
    0,
    0,
    0,
    0,
    0,
    0,
    0,
    0,
    0,
    0,
    0,
    0,
    0,
    0,
    0,
    0,
    0,
    0,
    0,
    0,
    0,
    0,
    0,
    0,
    0,
    0,
    0,
    0,
    0,
    0,
    0,
    0,
    0,
    0,
    0,
    0,
    0,
    0,
    0,
    0,
    0,
    0,
    0,
    0,
    0,
    0,
    0,
    0,
    0,
    0,
    0,
    0,
    0,
    0,
    0,
    0,
    0,
    0,
    0,
    0,
    0,
    0,
    0,
    0,
    0,
    0,
    0,
    0,
    0,
    0,
    0,
    0,
    0,
    0,
    0,
    0,
    0,
    0,
    0,
    0,
    0,
    0,
    0,
    0,
    0,
    0,
    0,
    0,
    0,
    0,
    0,
    0,
    0,
    0,
    0,
    0,
    0,
    0,
    0,
    0,
    0,
    0,
    0,
    0,
    0,
    0,
    0,
    0,
    0,
    0,
    0,
    0,
    0,
    0,
    0,
    0,
    0,
    0,
    0,
    0,
    0,
    0,
    0,
    0,
    0,
    0,
    0,
    0,
    0,
    0,
    0,
    0,
    0,
    0,
    0,
    0,
    0,
    0,
    0,
    0,
    0,
    0,
    0,
    0,
    0,
    0,
    0,
    0,
    0,
    0,
    0,
    0,
    0,
    0,
    0,
    0,
    0,
    0,
    0,
    0,
    0,
    0,
    0,
    0,
    0,
    0,
    0,
    0,
    0,
    0,
    0,
    0,
    0,
    0,
    0,
    0,
    0,
    0,
    0,
    0,
    0,
    0,
    0,
    0,
    0,
    0,
    0,
    0,
    0,
    0,
    0,
    0,
    0,
    0,
    0,
    0,
    0,
    0,
    0,
    0,
    0,
    0,
    0,
    0,
    0,
    0,
    0,
    0,
    0,
    0,
    0,
    0,
    0,
    0,
    0,
    0,
    0,
    0,
    0,
    0,
    0,
    0,
    0,
    0,
    0,
    0,
    0,
    0,
    0,
    0,
    0,
    0,
    0,
    0,
    0,
    0,
    0,
    0,
    0,
    0,
    0,
    0,
    0,
    0,
    0,
    0,
    0,
    0,
    0,
    0,
    0,
    0,
    0,
    0,
    0,
    0,
    0,
    0,
    0,
    0,
    0,
    0,
    0,
    0,
    0,
    0,
    0,
    0,
    0,
    0,
    0,
    0,
    0,
    0,
    0,
    0,
    0,
    0,
    0,
    0,
    0,
    0,
    0,
    0,
    0,
    0,
    0,
    0,
    0,
    0,
    0,
    0,
    0,
    0,
    0,
    0,
    0,
    0,
    0,
    0,
    0,
    0,
    0,
    0,
    0,
    0,
    0,
    0,
    0,
    0,
    0,
    0,
    0,
    0,
    0,
    0,
    0,
    0,
    0,
    0,
    0,
    0,
    0,
    0,
    0,
    0,
    0,
    0,
    0,
    0,
    0,
    0,
    0,
    0,
    0,
    0,
    0,
    0,
    0,
    0,
    0,
    0,
    0,
    0,
    0,
    0,
    0,
    0,
    0,
    0,
    0,
    0,
    0,
    0,
    0,
    0,
    0,
    0,
    0,
    0,
    0,
    0,
    0,
    0,
    0,
    0,
    0,
    0,
    0,
    0,
    0,
    0,
    0,
    0,
    0,
    0,
    0,
    0,
    0,
    0,
    0,
    0,
    0,
    0,
    0,
    0,
    0,
    0,
    0,
    0,
    0,
    0,
    0,
    0,
    0,
    0,
    0,
    0,
    0,
    0,
    0,
    0,
    0,
    0,
    0,
    0,
    0,
    0,
    0,
    0,
    0,
    0,
    0,
    0,
    0,
    0,
    0,
    0,
    0,
    0,
    0,
    0,
    0,
    0,
    0,
    0,
    0,
    0,
    0,
    0,
    0,
    0,
    0,
    0,
    0,
    0,
    0,
    0,
    0,
    0,
    0,
    0,
    0,
    0,
    0,
    0,
    0,
    0,
    0,
    0,
    0,
    0,
    0,
    0,
    0,
    0,
    0,
    0,
    0,
    0,
    0,
    0,
    0,
    0,
    0,
    0,
    0,
    0,
    0,
    0,
    0,
    0,
    0,
    0,
    0,
    0,
    0,
    0,
    0,
    0,
    0,
    0,
    0,
    0,
    0,
    0,
    0,
    0,
    0,
    0,
    0,
    0,
    0,
    0,
    0,
    0,
    0,
    0,
    0,
    0,
    0,
    0,
    0,
    0,
    0,
    0,
    0,
    0,
    0,
    0,
    0,
    0,
    0,
    0,
    0,
    0,
    0,
    0,
    0,
    0,
    0,
    0,
    0,
    0,
    0,
    0,
    0,
    0,
    0,
    0,
    0,
    0,
    0,
    0,
    0,
    0,
    0,
    0,
    0,
    0,
    0,
    0,
    0,
    0,
    0,
    0,
    0,
    0,
    0,
    0,
    0,
    0,
    0,
    0,
    0,
    0,
    0,
    0,
    0,
    0,
    0,
    0,
    0,
    0,
    0,
    0,
    0,
    0,
    0,
    0,
    0,
    0,
    0,
    0,
    0,
    0,
    0,
    0,
    0,
    0,
    0,
    0,
    0,
    0,
    0,
    0,
    0,
    0,
    0,
    0,
    0,
    0,
    0,
    0,
    0,
    0,
    0,
    0,
    0,
    0,
    0,
    0,
    0,
    0,
    0,
    0,
    0,
    0,
    0,
    0,
    0,
    0,
    0,
    0,
    0,
    0,
    0,
    0,
    0,
    0,
    0,
    0,
    0,
    0,
    0,
    0,
    0,
    0,
    0,
    0,
    0,
    0,
    0,
    0,
    0,
    0,
    0,
    0,
    0,
    0,
    0,
    0,
    0,
    0,
    0,
    0,
    0,
    0,
    0,
    0,
    0,
    0,
    0,
    0,
    0,
    0,
    0,
    0,
    0,
    0,
    0,
    0,
    0,
    0,
    0,
    0,
    0,
    0,
    0,
    0,
    0,
    0,
    0,
    0,
    0,
    0,
    0,
    0,
    0,
    0,
    0,
    0,
    0,
    0,
    0,
    0,
    0,
    0,
    0,
    0,
    0,
    0,
    0,
    0,
    0,
    0,
    0,
    0,
    0,
    0,
    0,
    0,
    0,
    0,
    0,
    0,
    0,
    0,
    0,
    0,
    0,
    0,
    0,
    0,
    0,
    0,
    0,
    0,
    0,
    0,
    0,
    0,
    0,
    0,
    0,
    0,
    0,
    0,
    0,
    0,
    0,
    0,
    0,
    0,
    0,
    0,
    0,
    0,
    0,
    0,
    0,
    0,
    0,
    0,
    0,
    0,
    0,
    0,
    0,
    0,
    0,
    0,
    0,
    0,
    0,
    0,
    0,
    0,
    0,
    0,
    0,
    0,
    0,
    0,
    0,
    0,
    0,
    0,
    0,
    0,
    0,
    0,
    0,
    0,
    0,
    0,
    0,
    0,
    0,
    0,
    0,
    0,
    0,
    0,
    0,
    0,
    0,
    0,
    0,
    0,
    0,
    0,
    0,
    0,
    0,
    0,
    0,
    0,
    0,
    0,
    0,
    0,
    0,
    0,
    0,
    0,
    0,
    0,
    0,
    0,
    0,
    0,
    0,
    0,
    0,
    0,
    0,
    0,
    0,
    0,
    0,
    0,
    0,
    0,
    0,
    0,
    0,
    0,
    0,
    0,
    0,
    0,
    0,
    0,
    0,
    0,
    0,
    0,
    0,
    0,
    0,
    0,
    0,
    0,
    0,
    0,
    0,
    0,
    0,
    0,
    0,
    0,
    0,
    0,
    0,
    0,
    0,
    0,
    0,
    0,
    0,
    0,
    0,
    0,
    0,
    0,
    0,
    0,
    0,
    0,
    0,
    0,
    0,
    0,
    0,
    0,
    0,
    0,
    0,
    0,
    0,
    0,
    0,
    0,
    0,
    0,
    0,
    0,
    0,
    0,
    0,
    0,
    0,
    0,
    0,
    0,
    0,
    0,
    0,
    0,
    0,
    0,
    0,
    0,
    0,
    0,
    0,
    0,
    0,
    0,
    0,
    0,
    0,
    0,
    0,
    0,
    0,
    0,
    0,
    0,
    0,
    0,
    0,
    0,
    0,
    0,
    0,
    0,
    0,
    0,
    0,
    0,
    0,
    0,
    0,
    0,
    0,
    0,
    0,
    0,
    0,
    0,
    0,
    0,
    0,
    0,
    0,
    0,
    0,
    0,
    0,
    0,
    0,
    0,
    0,
    0,
    0,
    0,
    0,
    0,
    0,
    0,
    0,
    0,
    0,
    0,
    0,
    0,
    0,
    0,
    0,
    0,
    0,
    0,
    0,
    0,
    0,
    0,
    0,
    0,
    0,
    0,
    0,
    0,
    0,
    0,
    0,
    0,
    0,
    0,
    0,
    0,
    0,
    0,
    0,
    0,
    0,
    0,
    0,
    0,
    0,
    0,
    0,
    0,
    0,
    0,
    0,
    0,
    0,
    0,
    0,
    0,
    0,
    0,
    0,
    0,
    0,
    0,
    0,
    0,
    0,
    0,
    0,
    0,
    0,
    0,
    0,
    0,
    0,
    0,
    0,
    0,
    0,
    0,
    0,
    0,
    0,
    0,
    0,
    0,
    0,
    0,
    0,
    0,
    0,
    0,
    0,
    0,
    0,
    0,
    0,
    0,
    0,
    0,
    0,
    0,
    0,
    0,
    0,
    0,
    0,
    0,
    0,
    0,
    0,
    0,
    0,
    0,
    0,
    0,
    0,
    0,
    0,
    0,
    0,
    0,
    0,
    0,
    0,
    0,
    0,
    0,
    0,
    0,
    0,
    0,
    0,
    0,
    0,
    0,
    0,
    0,
    0,
    0,
    0,
    0,
    0,
    0,
    0,
    0,
    0,
    0,
    0,
    0,
    0,
    0,
    0,
    0,
    0,
    0,
    0,
    0,
    0,
    0,
    0,
    0,
    0,
    0,
    0,
    0,
    0,
    0,
    0,
    0,
    0,
    0,
    0,
    0,
    0,
    0,
    0,
    0,
    0,
    0,
    0,
    0,
    0,
    0,
    0,
    0,
    0,
    0,
    0,
    0,
    0,
    0,
    0,
    0,
    0,
    0,
    0,
    0,
    0,
    0,
    0,
    0,
    0,
    0,
    0,
    0,
    0,
    0,
    0,
    0,
    0
   ]
  },
  {
   "name": "start",
   "type": "tilelayer",
   "visible": false,
   "opacity": 1,
   "x": 0,
   "y": 0,
   "width": 94,
   "height": 123,
   "data": [
    0,
    0,
    0,
    0,
    0,
    0,
    0,
    0,
    0,
    0,
    0,
    0,
    0,
    0,
    0,
    0,
    0,
    0,
    0,
    0,
    0,
    0,
    0,
    0,
    0,
    0,
    0,
    0,
    0,
    0,
    0,
    0,
    0,
    0,
    0,
    0,
    0,
    0,
    0,
    0,
    0,
    0,
    0,
    0,
    0,
    0,
    0,
    0,
    0,
    0,
    0,
    0,
    0,
    0,
    0,
    0,
    0,
    0,
    0,
    0,
    0,
    0,
    0,
    0,
    0,
    0,
    0,
    0,
    0,
    0,
    0,
    0,
    0,
    0,
    0,
    0,
    0,
    0,
    0,
    0,
    0,
    0,
    0,
    0,
    0,
    0,
    0,
    0,
    0,
    0,
    0,
    0,
    0,
    0,
    0,
    0,
    0,
    0,
    0,
    0,
    0,
    0,
    0,
    0,
    0,
    0,
    0,
    0,
    0,
    0,
    0,
    0,
    0,
    0,
    0,
    0,
    0,
    0,
    0,
    0,
    0,
    0,
    0,
    0,
    0,
    0,
    0,
    0,
    0,
    0,
    0,
    0,
    0,
    0,
    0,
    0,
    0,
    0,
    0,
    0,
    0,
    0,
    0,
    0,
    0,
    0,
    0,
    0,
    0,
    0,
    0,
    0,
    0,
    0,
    0,
    0,
    0,
    0,
    0,
    0,
    0,
    0,
    0,
    0,
    0,
    0,
    0,
    0,
    0,
    0,
    0,
    0,
    0,
    0,
    0,
    0,
    0,
    0,
    0,
    0,
    0,
    0,
    0,
    0,
    0,
    0,
    0,
    0,
    0,
    0,
    0,
    0,
    0,
    0,
    0,
    0,
    0,
    0,
    0,
    0,
    0,
    0,
    0,
    0,
    0,
    0,
    0,
    0,
    0,
    0,
    0,
    0,
    0,
    0,
    0,
    0,
    0,
    0,
    0,
    0,
    0,
    0,
    0,
    0,
    0,
    0,
    0,
    0,
    0,
    0,
    0,
    0,
    0,
    0,
    0,
    0,
    0,
    0,
    0,
    0,
    0,
    0,
    0,
    0,
    0,
    0,
    0,
    0,
    0,
    0,
    0,
    0,
    0,
    0,
    0,
    0,
    0,
    0,
    0,
    0,
    0,
    0,
    0,
    0,
    0,
    0,
    0,
    0,
    0,
    0,
    0,
    0,
    0,
    0,
    0,
    0,
    0,
    0,
    0,
    0,
    0,
    0,
    0,
    0,
    0,
    0,
    0,
    0,
    0,
    0,
    0,
    0,
    0,
    0,
    0,
    0,
    0,
    0,
    0,
    0,
    0,
    0,
    0,
    0,
    0,
    0,
    0,
    0,
    0,
    0,
    0,
    0,
    0,
    0,
    0,
    0,
    0,
    0,
    0,
    0,
    0,
    0,
    0,
    0,
    0,
    0,
    0,
    0,
    0,
    0,
    0,
    0,
    0,
    0,
    0,
    0,
    0,
    0,
    0,
    0,
    0,
    0,
    0,
    0,
    0,
    0,
    0,
    0,
    0,
    0,
    0,
    0,
    0,
    0,
    0,
    0,
    0,
    0,
    0,
    0,
    0,
    0,
    0,
    0,
    0,
    0,
    0,
    0,
    0,
    0,
    0,
    0,
    0,
    0,
    0,
    0,
    0,
    0,
    0,
    0,
    0,
    0,
    0,
    0,
    0,
    0,
    0,
    0,
    0,
    0,
    0,
    0,
    0,
    0,
    0,
    0,
    0,
    0,
    0,
    0,
    0,
    0,
    0,
    0,
    0,
    0,
    0,
    0,
    0,
    0,
    0,
    0,
    0,
    0,
    0,
    0,
    0,
    0,
    0,
    0,
    0,
    0,
    0,
    0,
    0,
    0,
    0,
    0,
    0,
    0,
    0,
    0,
    0,
    0,
    0,
    0,
    0,
    0,
    0,
    0,
    0,
    0,
    0,
    0,
    0,
    0,
    0,
    0,
    0,
    0,
    0,
    0,
    0,
    0,
    0,
    0,
    0,
    0,
    0,
    0,
    0,
    0,
    0,
    0,
    0,
    0,
    0,
    0,
    0,
    0,
    0,
    0,
    0,
    0,
    0,
    0,
    0,
    0,
    0,
    0,
    0,
    0,
    0,
    0,
    0,
    0,
    0,
    0,
    0,
    0,
    0,
    0,
    0,
    0,
    0,
    0,
    0,
    0,
    0,
    0,
    0,
    0,
    0,
    0,
    0,
    0,
    0,
    0,
    0,
    0,
    0,
    0,
    0,
    0,
    0,
    0,
    0,
    0,
    0,
    0,
    0,
    0,
    0,
    0,
    0,
    0,
    0,
    0,
    0,
    0,
    0,
    0,
    0,
    0,
    0,
    0,
    0,
    0,
    0,
    0,
    0,
    0,
    0,
    0,
    0,
    0,
    0,
    0,
    0,
    0,
    0,
    0,
    0,
    0,
    0,
    0,
    0,
    0,
    0,
    0,
    0,
    0,
    0,
    0,
    0,
    0,
    0,
    0,
    0,
    0,
    0,
    0,
    0,
    0,
    0,
    0,
    0,
    0,
    0,
    0,
    0,
    0,
    0,
    0,
    0,
    0,
    0,
    0,
    0,
    0,
    0,
    0,
    0,
    0,
    0,
    0,
    0,
    0,
    0,
    0,
    0,
    0,
    0,
    0,
    0,
    0,
    0,
    0,
    0,
    0,
    0,
    0,
    0,
    0,
    0,
    0,
    0,
    0,
    0,
    0,
    0,
    0,
    0,
    0,
    0,
    0,
    0,
    0,
    0,
    0,
    0,
    0,
    0,
    0,
    0,
    0,
    0,
    0,
    0,
    0,
    0,
    0,
    0,
    0,
    0,
    0,
    0,
    0,
    0,
    0,
    0,
    0,
    0,
    0,
    0,
    0,
    0,
    0,
    0,
    0,
    0,
    0,
    0,
    0,
    0,
    0,
    0,
    0,
    0,
    0,
    0,
    0,
    0,
    0,
    0,
    0,
    0,
    0,
    0,
    0,
    0,
    0,
    0,
    0,
    0,
    0,
    0,
    0,
    0,
    0,
    0,
    0,
    0,
    0,
    0,
    0,
    0,
    0,
    0,
    0,
    0,
    0,
    0,
    0,
    0,
    0,
    0,
    0,
    0,
    0,
    0,
    0,
    0,
    0,
    0,
    0,
    0,
    0,
    0,
    0,
    0,
    0,
    0,
    0,
    0,
    0,
    0,
    0,
    0,
    0,
    0,
    0,
    0,
    0,
    0,
    0,
    0,
    0,
    0,
    0,
    0,
    0,
    0,
    0,
    0,
    0,
    0,
    0,
    0,
    0,
    0,
    0,
    0,
    0,
    0,
    0,
    0,
    0,
    0,
    0,
    0,
    0,
    0,
    0,
    0,
    0,
    0,
    0,
    0,
    0,
    0,
    0,
    0,
    0,
    0,
    0,
    0,
    0,
    0,
    0,
    0,
    0,
    0,
    0,
    0,
    0,
    0,
    0,
    0,
    0,
    0,
    0,
    0,
    0,
    0,
    0,
    0,
    0,
    0,
    0,
    0,
    0,
    0,
    0,
    0,
    0,
    0,
    0,
    0,
    0,
    0,
    0,
    0,
    0,
    0,
    0,
    0,
    0,
    0,
    0,
    0,
    0,
    0,
    0,
    0,
    0,
    0,
    0,
    0,
    0,
    0,
    0,
    0,
    0,
    0,
    0,
    0,
    0,
    0,
    0,
    0,
    0,
    0,
    0,
    0,
    0,
    0,
    0,
    0,
    0,
    0,
    0,
    0,
    0,
    0,
    0,
    0,
    0,
    0,
    0,
    0,
    0,
    0,
    0,
    0,
    0,
    0,
    0,
    0,
    0,
    0,
    0,
    0,
    0,
    0,
    0,
    0,
    0,
    0,
    0,
    0,
    0,
    0,
    0,
    0,
    0,
    0,
    0,
    0,
    0,
    0,
    0,
    0,
    0,
    0,
    0,
    0,
    0,
    0,
    0,
    0,
    0,
    0,
    0,
    0,
    0,
    0,
    0,
    0,
    0,
    0,
    0,
    0,
    0,
    0,
    0,
    0,
    0,
    0,
    0,
    0,
    0,
    0,
    0,
    0,
    0,
    0,
    0,
    0,
    0,
    0,
    0,
    0,
    0,
    0,
    0,
    0,
    0,
    0,
    0,
    0,
    0,
    0,
    0,
    0,
    0,
    0,
    0,
    0,
    0,
    0,
    0,
    0,
    0,
    0,
    0,
    0,
    0,
    0,
    0,
    0,
    0,
    0,
    0,
    0,
    0,
    0,
    0,
    0,
    0,
    0,
    0,
    0,
    0,
    0,
    0,
    0,
    0,
    0,
    0,
    0,
    0,
    0,
    0,
    0,
    0,
    0,
    0,
    0,
    0,
    0,
    0,
    0,
    0,
    0,
    0,
    0,
    0,
    0,
    0,
    0,
    0,
    0,
    0,
    0,
    0,
    0,
    0,
    0,
    0,
    0,
    0,
    0,
    0,
    0,
    0,
    0,
    0,
    0,
    0,
    0,
    0,
    0,
    0,
    0,
    0,
    0,
    0,
    0,
    0,
    0,
    0,
    0,
    0,
    0,
    0,
    0,
    0,
    0,
    0,
    0,
    0,
    0,
    0,
    0,
    0,
    0,
    0,
    0,
    0,
    0,
    0,
    0,
    0,
    0,
    0,
    0,
    0,
    0,
    0,
    0,
    0,
    0,
    0,
    0,
    0,
    0,
    0,
    0,
    0,
    0,
    0,
    0,
    0,
    0,
    0,
    0,
    0,
    0,
    0,
    0,
    0,
    0,
    0,
    0,
    0,
    0,
    0,
    0,
    0,
    0,
    0,
    0,
    0,
    0,
    0,
    0,
    0,
    0,
    0,
    0,
    0,
    0,
    0,
    0,
    0,
    0,
    0,
    0,
    0,
    0,
    0,
    0,
    0,
    0,
    0,
    0,
    0,
    0,
    0,
    0,
    0,
    0,
    0,
    0,
    0,
    0,
    0,
    0,
    0,
    0,
    0,
    0,
    0,
    0,
    0,
    0,
    0,
    0,
    0,
    0,
    0,
    0,
    0,
    0,
    0,
    0,
    0,
    0,
    0,
    0,
    0,
    0,
    0,
    0,
    0,
    0,
    0,
    0,
    0,
    0,
    0,
    0,
    0,
    0,
    0,
    0,
    0,
    0,
    0,
    0,
    0,
    0,
    0,
    0,
    0,
    0,
    0,
    0,
    0,
    0,
    0,
    0,
    0,
    0,
    0,
    0,
    0,
    0,
    0,
    0,
    0,
    0,
    0,
    0,
    0,
    0,
    0,
    0,
    0,
    0,
    0,
    0,
    0,
    0,
    0,
    0,
    0,
    0,
    0,
    0,
    0,
    0,
    0,
    0,
    0,
    0,
    0,
    0,
    0,
    0,
    0,
    0,
    0,
    0,
    0,
    0,
    0,
    0,
    0,
    0,
    0,
    0,
    0,
    0,
    0,
    0,
    0,
    0,
    0,
    0,
    0,
    0,
    0,
    0,
    0,
    0,
    0,
    0,
    0,
    0,
    0,
    0,
    0,
    0,
    0,
    0,
    0,
    0,
    0,
    0,
    0,
    0,
    0,
    0,
    0,
    0,
    0,
    0,
    0,
    0,
    0,
    0,
    0,
    0,
    0,
    0,
    0,
    0,
    0,
    0,
    0,
    0,
    0,
    0,
    0,
    0,
    0,
    0,
    0,
    0,
    0,
    0,
    0,
    0,
    0,
    0,
    0,
    0,
    0,
    0,
    0,
    0,
    0,
    0,
    0,
    0,
    0,
    0,
    0,
    0,
    0,
    0,
    0,
    0,
    0,
    0,
    0,
    0,
    0,
    0,
    0,
    0,
    0,
    0,
    0,
    0,
    0,
    0,
    0,
    0,
    0,
    0,
    0,
    0,
    0,
    0,
    0,
    0,
    0,
    0,
    0,
    0,
    0,
    0,
    0,
    0,
    0,
    0,
    0,
    0,
    0,
    0,
    0,
    0,
    0,
    0,
    0,
    0,
    0,
    0,
    0,
    0,
    0,
    0,
    0,
    0,
    0,
    0,
    0,
    0,
    0,
    0,
    0,
    0,
    0,
    0,
    0,
    0,
    0,
    0,
    0,
    0,
    0,
    0,
    0,
    0,
    0,
    0,
    0,
    0,
    0,
    0,
    0,
    0,
    0,
    0,
    0,
    0,
    0,
    0,
    0,
    0,
    0,
    0,
    0,
    0,
    0,
    0,
    0,
    0,
    0,
    0,
    0,
    0,
    0,
    0,
    0,
    0,
    0,
    0,
    0,
    0,
    0,
    0,
    0,
    0,
    0,
    0,
    0,
    0,
    0,
    0,
    0,
    0,
    0,
    0,
    0,
    0,
    0,
    0,
    0,
    0,
    0,
    0,
    0,
    0,
    0,
    0,
    0,
    0,
    0,
    0,
    0,
    0,
    0,
    0,
    0,
    0,
    0,
    0,
    0,
    0,
    0,
    0,
    0,
    0,
    0,
    0,
    0,
    0,
    0,
    0,
    0,
    0,
    0,
    0,
    0,
    0,
    0,
    0,
    0,
    0,
    0,
    0,
    0,
    0,
    0,
    0,
    0,
    0,
    0,
    0,
    0,
    0,
    0,
    0,
    0,
    0,
    0,
    0,
    0,
    0,
    0,
    0,
    0,
    0,
    0,
    0,
    0,
    0,
    0,
    0,
    0,
    0,
    0,
    0,
    0,
    0,
    0,
    0,
    0,
    0,
    0,
    0,
    0,
    0,
    0,
    0,
    0,
    0,
    0,
    0,
    0,
    0,
    0,
    0,
    0,
    0,
    0,
    0,
    0,
    0,
    0,
    0,
    0,
    0,
    0,
    0,
    0,
    0,
    0,
    0,
    0,
    0,
    0,
    0,
    0,
    0,
    0,
    0,
    0,
    0,
    0,
    0,
    0,
    0,
    0,
    0,
    0,
    0,
    0,
    0,
    0,
    0,
    0,
    0,
    0,
    0,
    0,
    0,
    0,
    0,
    0,
    0,
    0,
    0,
    0,
    0,
    0,
    0,
    0,
    0,
    0,
    0,
    0,
    0,
    0,
    0,
    0,
    0,
    0,
    0,
    0,
    0,
    0,
    0,
    0,
    0,
    0,
    0,
    0,
    0,
    0,
    0,
    0,
    0,
    0,
    0,
    0,
    0,
    0,
    0,
    0,
    0,
    0,
    0,
    0,
    0,
    0,
    0,
    0,
    0,
    0,
    0,
    0,
    0,
    0,
    0,
    0,
    0,
    0,
    0,
    0,
    0,
    0,
    0,
    0,
    0,
    0,
    0,
    0,
    0,
    0,
    0,
    0,
    0,
    0,
    0,
    0,
    0,
    0,
    0,
    0,
    0,
    0,
    0,
    0,
    0,
    0,
    0,
    0,
    0,
    0,
    0,
    0,
    0,
    0,
    0,
    0,
    0,
    0,
    0,
    0,
    0,
    0,
    0,
    0,
    0,
    0,
    0,
    0,
    0,
    0,
    0,
    0,
    0,
    0,
    0,
    0,
    0,
    0,
    0,
    0,
    0,
    0,
    0,
    0,
    0,
    0,
    0,
    0,
    0,
    0,
    0,
    0,
    0,
    0,
    0,
    0,
    0,
    0,
    0,
    0,
    0,
    0,
    0,
    0,
    0,
    0,
    0,
    0,
    0,
    0,
    0,
    0,
    0,
    0,
    0,
    0,
    0,
    0,
    0,
    0,
    0,
    0,
    0,
    0,
    0,
    0,
    0,
    0,
    0,
    0,
    0,
    0,
    0,
    0,
    0,
    0,
    0,
    0,
    0,
    0,
    0,
    0,
    0,
    0,
    0,
    0,
    0,
    0,
    0,
    0,
    0,
    0,
    0,
    0,
    0,
    0,
    0,
    0,
    0,
    0,
    0,
    0,
    0,
    0,
    0,
    0,
    0,
    0,
    0,
    0,
    0,
    0,
    0,
    0,
    0,
    0,
    0,
    0,
    0,
    0,
    0,
    0,
    0,
    0,
    0,
    0,
    0,
    0,
    0,
    0,
    0,
    0,
    0,
    0,
    0,
    0,
    0,
    0,
    0,
    0,
    0,
    0,
    0,
    0,
    0,
    0,
    0,
    0,
    0,
    0,
    0,
    0,
    0,
    0,
    0,
    0,
    0,
    0,
    0,
    0,
    0,
    0,
    0,
    0,
    0,
    0,
    0,
    0,
    0,
    0,
    0,
    0,
    0,
    0,
    0,
    0,
    0,
    0,
    0,
    0,
    0,
    0,
    0,
    0,
    0,
    0,
    0,
    0,
    0,
    0,
    0,
    0,
    0,
    0,
    0,
    0,
    0,
    0,
    0,
    0,
    0,
    0,
    0,
    0,
    0,
    0,
    0,
    0,
    0,
    0,
    0,
    0,
    0,
    0,
    0,
    0,
    0,
    0,
    0,
    0,
    0,
    0,
    0,
    0,
    0,
    0,
    0,
    0,
    0,
    0,
    0,
    0,
    0,
    0,
    0,
    0,
    0,
    0,
    0,
    0,
    0,
    0,
    0,
    0,
    0,
    0,
    0,
    0,
    0,
    0,
    0,
    0,
    0,
    0,
    0,
    0,
    0,
    0,
    0,
    0,
    0,
    0,
    0,
    0,
    0,
    0,
    0,
    0,
    0,
    0,
    0,
    0,
    0,
    0,
    0,
    0,
    0,
    0,
    0,
    0,
    0,
    0,
    0,
    0,
    0,
    0,
    0,
    0,
    0,
    0,
    0,
    0,
    0,
    0,
    0,
    0,
    0,
    0,
    0,
    0,
    0,
    0,
    0,
    0,
    0,
    0,
    0,
    0,
    0,
    0,
    0,
    0,
    0,
    0,
    0,
    0,
    0,
    0,
    0,
    0,
    0,
    0,
    0,
    0,
    0,
    0,
    0,
    0,
    0,
    0,
    0,
    0,
    0,
    0,
    0,
    0,
    0,
    0,
    0,
    0,
    0,
    0,
    0,
    0,
    0,
    0,
    0,
    0,
    0,
    0,
    0,
    0,
    0,
    0,
    0,
    0,
    0,
    0,
    0,
    0,
    0,
    0,
    0,
    0,
    0,
    0,
    0,
    0,
    0,
    0,
    0,
    0,
    0,
    0,
    0,
    0,
    0,
    0,
    0,
    0,
    0,
    0,
    0,
    0,
    0,
    0,
    0,
    0,
    0,
    0,
    0,
    0,
    0,
    0,
    0,
    0,
    0,
    0,
    0,
    0,
    0,
    0,
    0,
    0,
    0,
    0,
    0,
    0,
    0,
    0,
    0,
    0,
    0,
    0,
    0,
    0,
    0,
    0,
    0,
    0,
    0,
    0,
    0,
    0,
    0,
    0,
    0,
    0,
    0,
    0,
    0,
    0,
    0,
    0,
    0,
    0,
    0,
    0,
    0,
    0,
    0,
    0,
    0,
    0,
    0,
    0,
    0,
    0,
    0,
    0,
    0,
    0,
    0,
    0,
    0,
    0,
    0,
    0,
    0,
    0,
    0,
    0,
    0,
    0,
    0,
    0,
    0,
    0,
    0,
    0,
    0,
    0,
    0,
    0,
    0,
    0,
    0,
    0,
    0,
    0,
    0,
    0,
    0,
    0,
    0,
    0,
    0,
    0,
    0,
    0,
    0,
    0,
    0,
    0,
    0,
    0,
    0,
    0,
    0,
    0,
    0,
    0,
    0,
    0,
    0,
    0,
    0,
    0,
    0,
    0,
    0,
    0,
    0,
    0,
    0,
    0,
    0,
    0,
    0,
    0,
    0,
    0,
    0,
    0,
    0,
    0,
    0,
    0,
    0,
    0,
    0,
    0,
    0,
    0,
    0,
    0,
    0,
    0,
    0,
    0,
    0,
    0,
    0,
    0,
    0,
    0,
    0,
    0,
    0,
    0,
    0,
    0,
    0,
    0,
    0,
    0,
    0,
    0,
    0,
    0,
    0,
    0,
    0,
    0,
    0,
    0,
    0,
    0,
    0,
    0,
    0,
    0,
    0,
    0,
    0,
    0,
    0,
    0,
    0,
    0,
    0,
    0,
    0,
    0,
    0,
    0,
    0,
    0,
    0,
    0,
    0,
    0,
    0,
    0,
    0,
    0,
    0,
    0,
    0,
    0,
    0,
    0,
    0,
    0,
    0,
    0,
    0,
    0,
    0,
    0,
    0,
    0,
    0,
    0,
    0,
    0,
    0,
    0,
    0,
    0,
    0,
    0,
    0,
    0,
    0,
    0,
    0,
    0,
    0,
    0,
    0,
    0,
    0,
    0,
    0,
    0,
    0,
    0,
    0,
    0,
    0,
    0,
    0,
    0,
    0,
    0,
    0,
    0,
    0,
    0,
    0,
    0,
    0,
    0,
    0,
    0,
    0,
    0,
    0,
    0,
    0,
    0,
    0,
    0,
    0,
    0,
    0,
    0,
    0,
    0,
    0,
    0,
    0,
    0,
    0,
    0,
    0,
    0,
    0,
    0,
    0,
    0,
    0,
    0,
    0,
    0,
    0,
    0,
    0,
    0,
    0,
    0,
    0,
    0,
    0,
    0,
    0,
    0,
    0,
    0,
    0,
    0,
    0,
    0,
    0,
    0,
    0,
    0,
    0,
    0,
    0,
    0,
    0,
    0,
    0,
    0,
    0,
    0,
    0,
    0,
    0,
    0,
    0,
    0,
    0,
    0,
    0,
    0,
    0,
    0,
    0,
    0,
    0,
    0,
    0,
    0,
    0,
    0,
    0,
    0,
    0,
    0,
    0,
    0,
    0,
    0,
    0,
    0,
    0,
    0,
    0,
    0,
    0,
    0,
    0,
    0,
    0,
    0,
    0,
    0,
    0,
    0,
    0,
    0,
    0,
    0,
    0,
    0,
    0,
    0,
    0,
    0,
    0,
    0,
    0,
    0,
    0,
    0,
    0,
    0,
    0,
    0,
    0,
    0,
    0,
    0,
    0,
    0,
    0,
    0,
    0,
    0,
    0,
    0,
    0,
    0,
    0,
    0,
    0,
    0,
    0,
    0,
    0,
    0,
    0,
    0,
    0,
    0,
    0,
    0,
    0,
    0,
    0,
    0,
    0,
    0,
    0,
    0,
    0,
    0,
    0,
    0,
    0,
    0,
    0,
    0,
    0,
    0,
    0,
    0,
    0,
    0,
    0,
    0,
    0,
    0,
    0,
    0,
    0,
    0,
    0,
    0,
    0,
    0,
    0,
    0,
    0,
    0,
    0,
    0,
    0,
    0,
    0,
    0,
    0,
    0,
    0,
    0,
    0,
    0,
    0,
    0,
    0,
    0,
    0,
    0,
    0,
    0,
    0,
    0,
    0,
    0,
    0,
    0,
    0,
    0,
    0,
    0,
    0,
    0,
    0,
    0,
    0,
    0,
    0,
    0,
    0,
    0,
    0,
    0,
    0,
    0,
    0,
    0,
    0,
    0,
    0,
    0,
    0,
    0,
    0,
    0,
    0,
    0,
    0,
    0,
    0,
    0,
    0,
    0,
    0,
    0,
    0,
    0,
    0,
    0,
    0,
    0,
    0,
    0,
    0,
    0,
    0,
    0,
    0,
    0,
    0,
    0,
    0,
    0,
    0,
    0,
    0,
    0,
    0,
    0,
    0,
    0,
    0,
    0,
    0,
    0,
    0,
    0,
    0,
    0,
    0,
    0,
    0,
    0,
    0,
    0,
    0,
    0,
    0,
    0,
    0,
    0,
    0,
    0,
    0,
    0,
    0,
    0,
    0,
    0,
    0,
    0,
    0,
    0,
    0,
    0,
    0,
    0,
    0,
    0,
    0,
    0,
    0,
    0,
    0,
    0,
    0,
    0,
    0,
    0,
    0,
    0,
    0,
    0,
    0,
    0,
    0,
    0,
    0,
    0,
    0,
    0,
    0,
    0,
    0,
    0,
    0,
    0,
    0,
    0,
    0,
    0,
    0,
    0,
    0,
    0,
    0,
    0,
    0,
    0,
    0,
    0,
    0,
    0,
    0,
    0,
    0,
    0,
    0,
    0,
    0,
    0,
    0,
    0,
    0,
    0,
    0,
    0,
    0,
    0,
    0,
    0,
    0,
    0,
    0,
    0,
    0,
    0,
    0,
    0,
    0,
    0,
    0,
    0,
    0,
    0,
    0,
    0,
    0,
    0,
    0,
    0,
    0,
    0,
    0,
    0,
    0,
    0,
    0,
    0,
    0,
    0,
    0,
    0,
    0,
    0,
    0,
    0,
    0,
    0,
    0,
    0,
    0,
    0,
    0,
    0,
    0,
    0,
    0,
    0,
    0,
    0,
    0,
    0,
    0,
    0,
    0,
    0,
    0,
    0,
    0,
    0,
    0,
    0,
    0,
    0,
    0,
    0,
    0,
    0,
    0,
    0,
    0,
    0,
    0,
    0,
    0,
    0,
    0,
    0,
    0,
    0,
    0,
    0,
    0,
    0,
    0,
    0,
    0,
    0,
    0,
    0,
    0,
    0,
    0,
    0,
    0,
    0,
    0,
    0,
    0,
    0,
    0,
    0,
    0,
    0,
    0,
    0,
    0,
    0,
    0,
    0,
    0,
    0,
    0,
    0,
    0,
    0,
    0,
    0,
    0,
    0,
    0,
    0,
    0,
    0,
    0,
    0,
    0,
    0,
    0,
    0,
    0,
    0,
    0,
    0,
    0,
    0,
    0,
    0,
    0,
    0,
    0,
    0,
    0,
    0,
    0,
    0,
    0,
    0,
    0,
    0,
    0,
    0,
    0,
    0,
    0,
    0,
    0,
    0,
    0,
    0,
    0,
    0,
    0,
    0,
    0,
    0,
    0,
    0,
    0,
    0,
    0,
    0,
    0,
    0,
    0,
    0,
    0,
    0,
    0,
    0,
    0,
    0,
    0,
    0,
    0,
    0,
    0,
    0,
    0,
    0,
    0,
    0,
    0,
    0,
    0,
    0,
    0,
    0,
    0,
    0,
    0,
    0,
    0,
    0,
    0,
    0,
    0,
    0,
    0,
    0,
    0,
    0,
    0,
    0,
    0,
    0,
    0,
    0,
    0,
    0,
    0,
    0,
    0,
    0,
    0,
    0,
    0,
    0,
    0,
    0,
    0,
    0,
    0,
    0,
    0,
    0,
    0,
    0,
    0,
    0,
    0,
    0,
    0,
    0,
    0,
    0,
    0,
    0,
    0,
    0,
    0,
    0,
    0,
    0,
    0,
    0,
    0,
    0,
    0,
    0,
    0,
    0,
    0,
    0,
    0,
    0,
    0,
    0,
    0,
    0,
    0,
    0,
    0,
    0,
    0,
    0,
    0,
    0,
    0,
    0,
    0,
    0,
    0,
    0,
    0,
    0,
    0,
    0,
    0,
    0,
    0,
    0,
    0,
    0,
    0,
    0,
    0,
    0,
    0,
    0,
    0,
    0,
    0,
    0,
    0,
    0,
    0,
    0,
    0,
    0,
    0,
    0,
    0,
    0,
    0,
    0,
    0,
    0,
    0,
    0,
    0,
    0,
    0,
    0,
    0,
    0,
    0,
    0,
    0,
    0,
    0,
    0,
    0,
    0,
    0,
    0,
    0,
    0,
    0,
    0,
    0,
    0,
    0,
    0,
    0,
    0,
    0,
    0,
    0,
    0,
    0,
    0,
    0,
    0,
    0,
    0,
    0,
    0,
    0,
    0,
    0,
    0,
    0,
    0,
    0,
    0,
    0,
    0,
    0,
    0,
    0,
    0,
    0,
    0,
    0,
    0,
    0,
    0,
    0,
    0,
    0,
    0,
    0,
    0,
    0,
    0,
    0,
    0,
    0,
    0,
    0,
    0,
    0,
    0,
    0,
    0,
    0,
    0,
    0,
    0,
    0,
    0,
    0,
    0,
    0,
    0,
    0,
    0,
    0,
    0,
    0,
    0,
    0,
    0,
    0,
    0,
    0,
    0,
    0,
    0,
    0,
    0,
    0,
    0,
    0,
    0,
    0,
    0,
    0,
    0,
    0,
    0,
    0,
    0,
    0,
    0,
    0,
    0,
    0,
    0,
    0,
    0,
    0,
    0,
    0,
    0,
    0,
    0,
    0,
    0,
    0,
    0,
    0,
    0,
    0,
    0,
    0,
    0,
    0,
    0,
    0,
    0,
    0,
    0,
    0,
    0,
    0,
    0,
    0,
    0,
    0,
    0,
    0,
    0,
    0,
    0,
    0,
    0,
    0,
    0,
    0,
    0,
    0,
    0,
    0,
    0,
    0,
    0,
    0,
    0,
    0,
    0,
    0,
    0,
    0,
    0,
    0,
    0,
    0,
    0,
    0,
    0,
    0,
    0,
    0,
    0,
    0,
    0,
    0,
    0,
    0,
    0,
    0,
    0,
    0,
    0,
    0,
    0,
    0,
    0,
    0,
    0,
    0,
    0,
    0,
    0,
    0,
    0,
    0,
    0,
    0,
    0,
    0,
    0,
    0,
    0,
    0,
    0,
    0,
    0,
    0,
    0,
    0,
    0,
    0,
    0,
    0,
    0,
    0,
    0,
    0,
    0,
    0,
    0,
    0,
    0,
    0,
    0,
    0,
    0,
    0,
    0,
    0,
    0,
    0,
    0,
    0,
    0,
    0,
    0,
    0,
    0,
    0,
    0,
    0,
    0,
    0,
    0,
    0,
    0,
    0,
    0,
    0,
    0,
    0,
    0,
    0,
    0,
    0,
    0,
    0,
    0,
    0,
    0,
    0,
    0,
    0,
    0,
    0,
    0,
    0,
    0,
    0,
    0,
    0,
    0,
    0,
    0,
    0,
    0,
    0,
    0,
    0,
    0,
    0,
    0,
    0,
    0,
    0,
    0,
    0,
    0,
    0,
    0,
    0,
    0,
    0,
    0,
    0,
    0,
    0,
    0,
    0,
    0,
    0,
    0,
    0,
    0,
    0,
    0,
    0,
    0,
    0,
    0,
    0,
    0,
    0,
    0,
    0,
    0,
    0,
    0,
    0,
    0,
    0,
    0,
    0,
    0,
    0,
    0,
    0,
    0,
    0,
    0,
    0,
    0,
    0,
    0,
    0,
    0,
    0,
    0,
    0,
    0,
    0,
    0,
    0,
    0,
    0,
    0,
    0,
    0,
    0,
    0,
    0,
    0,
    0,
    0,
    0,
    0,
    0,
    0,
    0,
    0,
    0,
    0,
    0,
    0,
    0,
    0,
    0,
    0,
    0,
    0,
    0,
    0,
    0,
    0,
    0,
    0,
    0,
    0,
    0,
    0,
    0,
    0,
    0,
    0,
    0,
    0,
    0,
    0,
    0,
    0,
    0,
    0,
    0,
    0,
    0,
    0,
    0,
    0,
    0,
    0,
    0,
    0,
    0,
    0,
    0,
    0,
    0,
    0,
    0,
    0,
    0,
    0,
    0,
    0,
    0,
    0,
    0,
    0,
    0,
    0,
    0,
    0,
    0,
    0,
    0,
    0,
    0,
    0,
    0,
    0,
    0,
    0,
    0,
    0,
    0,
    0,
    0,
    0,
    0,
    0,
    0,
    0,
    0,
    0,
    0,
    0,
    0,
    0,
    0,
    0,
    0,
    0,
    0,
    0,
    0,
    0,
    0,
    0,
    0,
    0,
    0,
    0,
    0,
    0,
    0,
    0,
    0,
    0,
    0,
    0,
    0,
    0,
    0,
    0,
    0,
    0,
    0,
    0,
    0,
    0,
    0,
    0,
    0,
    0,
    0,
    0,
    0,
    0,
    0,
    0,
    0,
    0,
    0,
    0,
    0,
    0,
    0,
    0,
    0,
    0,
    0,
    0,
    0,
    0,
    0,
    0,
    0,
    0,
    0,
    0,
    0,
    0,
    0,
    0,
    0,
    0,
    0,
    0,
    0,
    0,
    0,
    0,
    0,
    0,
    0,
    0,
    0,
    0,
    0,
    0,
    0,
    0,
    0,
    0,
    0,
    0,
    0,
    0,
    0,
    0,
    0,
    0,
    0,
    0,
    0,
    0,
    0,
    0,
    0,
    0,
    0,
    0,
    0,
    0,
    0,
    0,
    0,
    0,
    0,
    0,
    0,
    0,
    0,
    0,
    0,
    0,
    0,
    0,
    0,
    0,
    0,
    0,
    0,
    0,
    0,
    0,
    0,
    0,
    0,
    0,
    0,
    0,
    0,
    0,
    0,
    0,
    0,
    0,
    0,
    0,
    0,
    0,
    0,
    0,
    0,
    0,
    0,
    0,
    0,
    0,
    0,
    0,
    0,
    0,
    0,
    0,
    0,
    0,
    0,
    0,
    0,
    0,
    0,
    0,
    0,
    0,
    0,
    0,
    0,
    0,
    0,
    0,
    0,
    0,
    0,
    0,
    0,
    0,
    0,
    0,
    0,
    0,
    0,
    0,
    0,
    0,
    0,
    0,
    0,
    0,
    0,
    0,
    0,
    0,
    0,
    0,
    0,
    0,
    0,
    0,
    0,
    0,
    0,
    0,
    0,
    0,
    0,
    0,
    0,
    0,
    0,
    0,
    0,
    0,
    0,
    0,
    0,
    0,
    0,
    0,
    0,
    0,
    0,
    0,
    0,
    0,
    0,
    0,
    0,
    0,
    0,
    0,
    0,
    0,
    0,
    0,
    0,
    0,
    0,
    0,
    0,
    0,
    0,
    0,
    0,
    0,
    0,
    0,
    0,
    0,
    0,
    0,
    0,
    0,
    0,
    0,
    0,
    0,
    0,
    0,
    0,
    0,
    0,
    0,
    0,
    0,
    0,
    0,
    0,
    0,
    0,
    0,
    0,
    0,
    0,
    0,
    0,
    0,
    0,
    0,
    0,
    0,
    0,
    0,
    0,
    0,
    0,
    0,
    0,
    0,
    0,
    0,
    0,
    0,
    0,
    0,
    0,
    0,
    0,
    0,
    0,
    0,
    0,
    0,
    0,
    0,
    0,
    0,
    0,
    0,
    0,
    0,
    0,
    0,
    0,
    0,
    0,
    0,
    0,
    0,
    0,
    0,
    0,
    0,
    0,
    0,
    0,
    0,
    0,
    0,
    0,
    0,
    0,
    0,
    0,
    0,
    0,
    0,
    0,
    0,
    0,
    0,
    0,
    0,
    0,
    0,
    0,
    0,
    0,
    0,
    0,
    0,
    0,
    0,
    0,
    0,
    0,
    0,
    0,
    0,
    0,
    0,
    0,
    0,
    0,
    0,
    0,
    0,
    0,
    0,
    0,
    0,
    0,
    0,
    0,
    0,
    0,
    0,
    0,
    0,
    0,
    0,
    0,
    0,
    0,
    0,
    0,
    0,
    0,
    0,
    0,
    0,
    0,
    0,
    0,
    0,
    0,
    0,
    0,
    0,
    0,
    0,
    0,
    0,
    0,
    0,
    0,
    0,
    0,
    0,
    0,
    0,
    0,
    0,
    0,
    0,
    0,
    0,
    0,
    0,
    0,
    0,
    0,
    0,
    0,
    0,
    0,
    0,
    0,
    0,
    0,
    0,
    0,
    0,
    0,
    0,
    0,
    0,
    0,
    0,
    0,
    0,
    0,
    0,
    0,
    0,
    0,
    0,
    0,
    0,
    0,
    0,
    0,
    0,
    0,
    0,
    0,
    0,
    0,
    0,
    0,
    0,
    0,
    0,
    0,
    0,
    0,
    0,
    0,
    0,
    0,
    0,
    0,
    0,
    0,
    0,
    0,
    0,
    0,
    0,
    0,
    0,
    0,
    0,
    0,
    0,
    0,
    0,
    0,
    0,
    0,
    0,
    0,
    0,
    0,
    0,
    0,
    0,
    0,
    0,
    0,
    0,
    0,
    0,
    0,
    0,
    0,
    0,
    0,
    0,
    0,
    0,
    0,
    0,
    0,
    0,
    0,
    0,
    0,
    0,
    0,
    0,
    0,
    0,
    0,
    0,
    0,
    0,
    0,
    0,
    0,
    0,
    0,
    0,
    0,
    0,
    0,
    0,
    0,
    0,
    0,
    0,
    0,
    0,
    0,
    0,
    0,
    0,
    0,
    0,
    0,
    0,
    0,
    0,
    0,
    0,
    0,
    0,
    0,
    0,
    0,
    0,
    0,
    0,
    0,
    0,
    0,
    0,
    0,
    0,
    0,
    0,
    0,
    0,
    0,
    0,
    0,
    0,
    0,
    0,
    0,
    0,
    0,
    0,
    0,
    0,
    0,
    0,
    0,
    0,
    0,
    0,
    0,
    0,
    0,
    0,
    0,
    0,
    0,
    0,
    0,
    0,
    0,
    0,
    0,
    0,
    0,
    0,
    0,
    0,
    0,
    0,
    0,
    0,
    0,
    0,
    0,
    0,
    0,
    0,
    0,
    0,
    0,
    0,
    0,
    0,
    0,
    0,
    0,
    0,
    0,
    0,
    0,
    0,
    0,
    0,
    0,
    0,
    0,
    0,
    0,
    0,
    0,
    0,
    0,
    0,
    0,
    0,
    0,
    0,
    0,
    0,
    0,
    0,
    0,
    0,
    0,
    0,
    0,
    0,
    0,
    0,
    0,
    0,
    0,
    0,
    0,
    0,
    0,
    0,
    0,
    0,
    0,
    0,
    0,
    0,
    0,
    0,
    0,
    0,
    0,
    0,
    0,
    0,
    0,
    0,
    0,
    0,
    0,
    0,
    0,
    0,
    0,
    0,
    0,
    0,
    0,
    0,
    0,
    0,
    0,
    0,
    0,
    0,
    0,
    0,
    0,
    0,
    0,
    0,
    0,
    0,
    0,
    0,
    0,
    0,
    0,
    0,
    0,
    0,
    0,
    0,
    0,
    0,
    0,
    0,
    0,
    0,
    0,
    0,
    0,
    0,
    0,
    0,
    0,
    0,
    0,
    0,
    0,
    0,
    0,
    0,
    0,
    0,
    0,
    0,
    0,
    0,
    0,
    0,
    0,
    0,
    0,
    0,
    0,
    0,
    0,
    0,
    0,
    0,
    0,
    0,
    0,
    0,
    0,
    0,
    0,
    0,
    0,
    0,
    0,
    0,
    0,
    0,
    0,
    0,
    0,
    0,
    0,
    0,
    0,
    0,
    0,
    0,
    0,
    0,
    0,
    0,
    0,
    0,
    0,
    0,
    0,
    0,
    0,
    0,
    0,
    0,
    0,
    0,
    0,
    0,
    0,
    0,
    0,
    0,
    0,
    0,
    0,
    0,
    0,
    0,
    0,
    0,
    0,
    0,
    0,
    0,
    0,
    0,
    0,
    0,
    0,
    0,
    0,
    0,
    0,
    0,
    0,
    0,
    0,
    0,
    0,
    0,
    0,
    0,
    0,
    0,
    0,
    0,
    0,
    0,
    0,
    0,
    0,
    0,
    0,
    0,
    0,
    0,
    0,
    0,
    0,
    0,
    0,
    0,
    0,
    0,
    0,
    0,
    0,
    0,
    0,
    0,
    0,
    0,
    0,
    0,
    0,
    0,
    0,
    0,
    0,
    0,
    0,
    0,
    0,
    0,
    0,
    0,
    0,
    0,
    0,
    0,
    0,
    0,
    0,
    0,
    0,
    0,
    0,
    0,
    0,
    0,
    0,
    0,
    0,
    0,
    0,
    0,
    0,
    0,
    0,
    0,
    0,
    0,
    0,
    0,
    0,
    0,
    0,
    0,
    0,
    0,
    0,
    0,
    0,
    0,
    0,
    0,
    0,
    0,
    0,
    0,
    0,
    0,
    0,
    0,
    0,
    0,
    0,
    0,
    0,
    0,
    0,
    0,
    0,
    0,
    0,
    0,
    0,
    0,
    0,
    0,
    0,
    0,
    0,
    0,
    0,
    0,
    0,
    0,
    0,
    0,
    0,
    0,
    0,
    0,
    0,
    0,
    0,
    0,
    0,
    0,
    0,
    0,
    0,
    0,
    0,
    0,
    0,
    0,
    0,
    0,
    0,
    0,
    0,
    0,
    0,
    0,
    0,
    0,
    0,
    0,
    0,
    0,
    0,
    0,
    0,
    0,
    0,
    0,
    0,
    0,
    0,
    0,
    0,
    0,
    0,
    0,
    0,
    0,
    0,
    0,
    0,
    0,
    0,
    0,
    0,
    0,
    0,
    0,
    0,
    0,
    0,
    0,
    0,
    0,
    0,
    0,
    0,
    0,
    0,
    0,
    0,
    0,
    0,
    0,
    0,
    0,
    0,
    0,
    0,
    0,
    0,
    0,
    0,
    0,
    0,
    0,
    0,
    0,
    0,
    0,
    0,
    0,
    0,
    0,
    0,
    0,
    0,
    0,
    0,
    0,
    0,
    0,
    0,
    0,
    0,
    0,
    0,
    0,
    0,
    0,
    0,
    0,
    0,
    0,
    0,
    0,
    0,
    0,
    0,
    0,
    0,
    0,
    0,
    0,
    0,
    0,
    0,
    0,
    0,
    0,
    0,
    0,
    0,
    0,
    0,
    0,
    0,
    0,
    0,
    0,
    0,
    0,
    0,
    0,
    0,
    0,
    0,
    0,
    0,
    0,
    0,
    0,
    0,
    0,
    0,
    0,
    0,
    0,
    0,
    0,
    0,
    0,
    0,
    0,
    0,
    0,
    0,
    0,
    0,
    0,
    0,
    0,
    0,
    0,
    0,
    0,
    0,
    0,
    0,
    0,
    0,
    0,
    0,
    0,
    0,
    0,
    0,
    0,
    0,
    0,
    0,
    0,
    0,
    0,
    0,
    0,
    0,
    0,
    0,
    0,
    0,
    0,
    0,
    0,
    0,
    0,
    0,
    0,
    0,
    0,
    0,
    0,
    0,
    0,
    0,
    0,
    0,
    0,
    0,
    0,
    0,
    0,
    0,
    0,
    0,
    0,
    0,
    0,
    0,
    0,
    0,
    0,
    0,
    0,
    0,
    0,
    0,
    0,
    0,
    0,
    0,
    0,
    0,
    0,
    0,
    0,
    0,
    0,
    0,
    0,
    0,
    0,
    0,
    0,
    0,
    0,
    0,
    0,
    0,
    0,
    0,
    0,
    0,
    0,
    0,
    0,
    0,
    0,
    0,
    0,
    0,
    0,
    0,
    0,
    0,
    0,
    0,
    0,
    0,
    0,
    0,
    0,
    0,
    0,
    0,
    0,
    0,
    0,
    0,
    0,
    0,
    0,
    0,
    0,
    0,
    0,
    0,
    0,
    0,
    0,
    0,
    0,
    0,
    0,
    0,
    0,
    0,
    0,
    0,
    0,
    0,
    0,
    0,
    0,
    0,
    0,
    0,
    0,
    0,
    0,
    0,
    0,
    0,
    0,
    0,
    0,
    0,
    0,
    0,
    0,
    0,
    0,
    0,
    0,
    0,
    0,
    0,
    0,
    0,
    0,
    0,
    0,
    0,
    0,
    0,
    0,
    0,
    0,
    0,
    0,
    0,
    0,
    0,
    0,
    0,
    0,
    0,
    0,
    0,
    0,
    0,
    0,
    0,
    0,
    0,
    0,
    0,
    0,
    0,
    0,
    0,
    0,
    0,
    0,
    0,
    0,
    0,
    0,
    0,
    0,
    0,
    0,
    0,
    0,
    0,
    0,
    0,
    0,
    0,
    0,
    0,
    0,
    0,
    0,
    0,
    0,
    0,
    0,
    0,
    0,
    0,
    0,
    0,
    0,
    0,
    0,
    0,
    0,
    0,
    0,
    0,
    0,
    0,
    0,
    0,
    0,
    0,
    0,
    0,
    0,
    0,
    0,
    0,
    0,
    0,
    0,
    0,
    0,
    0,
    0,
    0,
    0,
    0,
    0,
    0,
    0,
    0,
    0,
    0,
    0,
    0,
    0,
    0,
    0,
    0,
    0,
    0,
    0,
    0,
    0,
    0,
    0,
    0,
    0,
    0,
    0,
    0,
    0,
    0,
    0,
    0,
    0,
    0,
    0,
    0,
    0,
    0,
    0,
    0,
    0,
    0,
    0,
    0,
    0,
    0,
    0,
    0,
    0,
    0,
    0,
    0,
    0,
    0,
    0,
    0,
    0,
    0,
    0,
    0,
    0,
    0,
    0,
    0,
    0,
    0,
    0,
    0,
    0,
    0,
    0,
    0,
    0,
    0,
    0,
    0,
    0,
    0,
    0,
    0,
    0,
    0,
    0,
    0,
    0,
    0,
    0,
    0,
    0,
    0,
    0,
    0,
    0,
    0,
    0,
    0,
    0,
    0,
    0,
    0,
    0,
    0,
    0,
    0,
    0,
    0,
    0,
    0,
    0,
    0,
    0,
    0,
    0,
    0,
    0,
    0,
    0,
    0,
    0,
    0,
    0,
    0,
    0,
    0,
    0,
    0,
    0,
    0,
    0,
    0,
    0,
    0,
    0,
    0,
    0,
    0,
    0,
    0,
    0,
    0,
    0,
    0,
    0,
    0,
    0,
    0,
    0,
    0,
    0,
    0,
    0,
    0,
    0,
    0,
    0,
    0,
    0,
    0,
    0,
    0,
    0,
    0,
    0,
    0,
    0,
    0,
    0,
    0,
    0,
    0,
    0,
    0,
    0,
    0,
    0,
    0,
    0,
    0,
    0,
    0,
    0,
    0,
    0,
    0,
    0,
    0,
    0,
    0,
    0,
    0,
    0,
    0,
    0,
    0,
    0,
    0,
    0,
    0,
    0,
    0,
    0,
    0,
    0,
    0,
    0,
    0,
    0,
    0,
    0,
    0,
    0,
    0,
    0,
    0,
    0,
    0,
    0,
    0,
    0,
    0,
    0,
    0,
    0,
    0,
    0,
    0,
    0,
    0,
    0,
    0,
    0,
    0,
    0,
    0,
    0,
    0,
    0,
    0,
    0,
    0,
    0,
    0,
    0,
    0,
    0,
    0,
    0,
    0,
    0,
    0,
    0,
    0,
    0,
    0,
    0,
    0,
    0,
    0,
    0,
    0,
    0,
    0,
    0,
    0,
    0,
    0,
    0,
    0,
    0,
    0,
    0,
    0,
    0,
    0,
    0,
    0,
    0,
    0,
    0,
    0,
    0,
    0,
    0,
    0,
    0,
    0,
    0,
    0,
    0,
    0,
    0,
    0,
    0,
    0,
    0,
    0,
    0,
    0,
    0,
    0,
    0,
    0,
    0,
    0,
    0,
    0,
    0,
    0,
    0,
    0,
    0,
    0,
    0,
    0,
    0,
    0,
    0,
    0,
    0,
    0,
    0,
    0,
    0,
    0,
    0,
    0,
    0,
    0,
    0,
    0,
    0,
    0,
    0,
    0,
    0,
    0,
    0,
    0,
    0,
    0,
    0,
    0,
    0,
    0,
    0,
    0,
    0,
    0,
    0,
    0,
    0,
    0,
    0,
    0,
    0,
    0,
    0,
    0,
    0,
    0,
    0,
    0,
    0,
    0,
    0,
    0,
    0,
    0,
    0,
    0,
    0,
    0,
    0,
    0,
    0,
    0,
    0,
    0,
    0,
    0,
    0,
    0,
    0,
    0,
    0,
    0,
    0,
    0,
    0,
    0,
    0,
    0,
    0,
    0,
    0,
    0,
    0,
    0,
    0,
    0,
    0,
    0,
    0,
    0,
    0,
    0,
    0,
    0,
    0,
    0,
    0,
    0,
    0,
    0,
    0,
    0,
    0,
    0,
    0,
    0,
    0,
    0,
    0,
    0,
    0,
    0,
    0,
    0,
    0,
    0,
    0,
    0,
    0,
    0,
    0,
    0,
    0,
    0,
    0,
    0,
    0,
    0,
    0,
    0,
    0,
    0,
    0,
    0,
    0,
    0,
    0,
    0,
    0,
    0,
    0,
    0,
    0,
    0,
    0,
    0,
    0,
    0,
    0,
    0,
    0,
    0,
    0,
    0,
    0,
    0,
    0,
    0,
    0,
    0,
    0,
    0,
    0,
    0,
    0,
    0,
    0,
    0,
    0,
    0,
    0,
    0,
    0,
    0,
    0,
    0,
    0,
    0,
    0,
    0,
    0,
    0,
    0,
    0,
    0,
    0,
    0,
    0,
    0,
    0,
    0,
    0,
    0,
    0,
    0,
    0,
    0,
    0,
    0,
    0,
    0,
    0,
    0,
    0,
    0,
    0,
    0,
    0,
    0,
    0,
    0,
    0,
    0,
    0,
    0,
    0,
    0,
    0,
    0,
    0,
    0,
    0,
    0,
    0,
    0,
    0,
    0,
    0,
    0,
    0,
    0,
    0,
    0,
    0,
    0,
    0,
    0,
    0,
    0,
    0,
    0,
    0,
    0,
    0,
    0,
    0,
    0,
    0,
    0,
    0,
    0,
    0,
    0,
    0,
    0,
    0,
    0,
    0,
    0,
    0,
    0,
    0,
    0,
    0,
    0,
    0,
    0,
    0,
    0,
    0,
    0,
    0,
    0,
    0,
    0,
    0,
    0,
    0,
    0,
    0,
    0,
    0,
    0,
    0,
    0,
    0,
    0,
    0,
    0,
    0,
    0,
    0,
    0,
    0,
    0,
    0,
    0,
    0,
    0,
    0,
    0,
    0,
    0,
    0,
    0,
    0,
    0,
    0,
    0,
    0,
    0,
    0,
    0,
    0,
    0,
    0,
    0,
    0,
    0,
    0,
    0,
    0,
    0,
    0,
    0,
    0,
    0,
    0,
    0,
    0,
    0,
    0,
    0,
    0,
    0,
    0,
    0,
    0,
    0,
    0,
    0,
    0,
    0,
    0,
    0,
    0,
    0,
    0,
    0,
    0,
    0,
    0,
    0,
    0,
    0,
    0,
    0,
    0,
    0,
    0,
    0,
    0,
    0,
    0,
    0,
    0,
    0,
    0,
    0,
    0,
    0,
    0,
    0,
    0,
    0,
    0,
    0,
    0,
    0,
    0,
    0,
    0,
    0,
    0,
    0,
    0,
    0,
    0,
    0,
    0,
    0,
    0,
    0,
    0,
    0,
    0,
    0,
    0,
    0,
    0,
    0,
    0,
    0,
    0,
    0,
    0,
    0,
    0,
    0,
    0,
    0,
    0,
    0,
    0,
    0,
    0,
    0,
    0,
    0,
    0,
    0,
    0,
    0,
    0,
    0,
    0,
    0,
    0,
    0,
    0,
    0,
    0,
    0,
    0,
    0,
    0,
    0,
    0,
    0,
    0,
    0,
    0,
    0,
    0,
    0,
    0,
    0,
    0,
    0,
    0,
    0,
    0,
    0,
    0,
    0,
    0,
    0,
    0,
    0,
    0,
    0,
    0,
    0,
    0,
    0,
    0,
    0,
    0,
    0,
    0,
    0,
    0,
    0,
    0,
    0,
    0,
    0,
    0,
    0,
    0,
    0,
    0,
    0,
    0,
    0,
    0,
    0,
    0,
    0,
    0,
    0,
    0,
    0,
    0,
    0,
    0,
    0,
    0,
    0,
    0,
    0,
    0,
    0,
    0,
    0,
    0,
    0,
    0,
    0,
    0,
    0,
    0,
    0,
    0,
    0,
    0,
    0,
    0,
    0,
    0,
    0,
    0,
    0,
    0,
    0,
    0,
    0,
    0,
    0,
    0,
    0,
    0,
    0,
    0,
    0,
    0,
    0,
    0,
    0,
    0,
    0,
    0,
    0,
    0,
    0,
    0,
    0,
    0,
    0,
    0,
    0,
    0,
    0,
    0,
    0,
    0,
    0,
    0,
    0,
    0,
    0,
    0,
    0,
    0,
    0,
    0,
    0,
    0,
    0,
    0,
    0,
    0,
    0,
    0,
    0,
    0,
    0,
    0,
    0,
    0,
    0,
    0,
    0,
    0,
    0,
    0,
    0,
    0,
    0,
    0,
    0,
    0,
    0,
    0,
    0,
    0,
    0,
    0,
    0,
    0,
    0,
    0,
    0,
    0,
    0,
    0,
    0,
    0,
    0,
    0,
    0,
    0,
    0,
    0,
    0,
    0,
    0,
    0,
    0,
    0,
    0,
    0,
    0,
    0,
    0,
    0,
    0,
    0,
    0,
    0,
    0,
    0,
    0,
    0,
    0,
    0,
    0,
    0,
    0,
    0,
    0,
    0,
    0,
    0,
    0,
    0,
    0,
    0,
    0,
    0,
    0,
    0,
    0,
    0,
    0,
    0,
    0,
    0,
    0,
    0,
    0,
    0,
    0,
    0,
    0,
    0,
    0,
    0,
    0,
    0,
    0,
    0,
    0,
    0,
    0,
    0,
    0,
    0,
    0,
    0,
    0,
    0,
    0,
    0,
    0,
    0,
    0,
    0,
    0,
    0,
    0,
    0,
    0,
    0,
    0,
    0,
    0,
    0,
    0,
    0,
    0,
    0,
    0,
    0,
    0,
    0,
    0,
    0,
    0,
    0,
    0,
    0,
    0,
    0,
    0,
    0,
    0,
    0,
    0,
    0,
    0,
    0,
    0,
    0,
    0,
    0,
    0,
    0,
    0,
    0,
    0,
    0,
    0,
    0,
    0,
    0,
    0,
    0,
    0,
    0,
    0,
    0,
    0,
    0,
    0,
    0,
    0,
    0,
    0,
    0,
    0,
    0,
    0,
    0,
    0,
    0,
    0,
    0,
    0,
    0,
    0,
    0,
    0,
    0,
    0,
    0,
    0,
    0,
    0,
    0,
    0,
    0,
    0,
    0,
    0,
    0,
    0,
    0,
    0,
    0,
    0,
    0,
    0,
    0,
    0,
    0,
    0,
    0,
    0,
    0,
    0,
    0,
    0,
    0,
    0,
    0,
    0,
    0,
    0,
    0,
    0,
    0,
    0,
    0,
    0,
    0,
    0,
    0,
    0,
    0,
    0,
    0,
    0,
    0,
    0,
    0,
    0,
    0,
    0,
    0,
    0,
    0,
    0,
    0,
    0,
    0,
    0,
    0,
    0,
    0,
    0,
    0,
    0,
    0,
    0,
    0,
    0,
    0,
    0,
    0,
    0,
    0,
    0,
    0,
    0,
    0,
    0,
    0,
    0,
    0,
    0,
    0,
    0,
    0,
    0,
    0,
    0,
    0,
    0,
    0,
    0,
    0,
    0,
    0,
    0,
    0,
    0,
    0,
    0,
    0,
    0,
    0,
    0,
    0,
    0,
    0,
    0,
    0,
    0,
    0,
    0,
    0,
    0,
    0,
    0,
    0,
    0,
    0,
    0,
    0,
    0,
    0,
    0,
    0,
    0,
    0,
    0,
    0,
    0,
    0,
    0,
    0,
    0,
    0,
    0,
    0,
    0,
    0,
    0,
    0,
    0,
    0,
    0,
    0,
    0,
    0,
    0,
    0,
    0,
    0,
    0,
    0,
    0,
    0,
    0,
    0,
    0,
    0,
    0,
    0,
    0,
    0,
    0,
    0,
    0,
    0,
    0,
    0,
    0,
    0,
    0,
    0,
    0,
    0,
    0,
    0,
    0,
    0,
    0,
    0,
    0,
    0,
    0,
    0,
    0,
    0,
    0,
    0,
    0,
    0,
    0,
    0,
    0,
    0,
    0,
    0,
    0,
    0,
    0,
    0,
    0,
    0,
    0,
    0,
    0,
    0,
    0,
    0,
    0,
    0,
    0,
    0,
    0,
    0,
    0,
    0,
    0,
    0,
    0,
    0,
    0,
    0,
    0,
    0,
    0,
    0,
    0,
    0,
    0,
    0,
    0,
    0,
    0,
    0,
    0,
    0,
    0,
    0,
    0,
    0,
    0,
    0,
    0,
    0,
    0,
    0,
    0,
    0,
    0,
    0,
    0,
    0,
    0,
    0,
    0,
    0,
    0,
    0,
    0,
    0,
    0,
    0,
    0,
    0,
    0,
    0,
    0,
    0,
    0,
    0,
    0,
    0,
    0,
    0,
    0,
    0,
    0,
    0,
    0,
    0,
    0,
    0,
    0,
    0,
    0,
    0,
    0,
    0,
    0,
    0,
    0,
    0,
    0,
    0,
    0,
    0,
    0,
    0,
    0,
    0,
    0,
    0,
    0,
    0,
    0,
    0,
    0,
    0,
    0,
    0,
    0,
    0,
    0,
    0,
    0,
    0,
    0,
    0,
    0,
    0,
    0,
    0,
    0,
    0,
    0,
    0,
    0,
    0,
    0,
    0,
    0,
    0,
    0,
    0,
    0,
    0,
    0,
    0,
    0,
    0,
    0,
    0,
    0,
    0,
    0,
    0,
    0,
    0,
    0,
    0,
    0,
    0,
    0,
    0,
    0,
    0,
    0,
    0,
    0,
    0,
    0,
    0,
    0,
    0,
    0,
    0,
    0,
    0,
    0,
    0,
    0,
    0,
    0,
    0,
    0,
    0,
    0,
    0,
    0,
    0,
    0,
    0,
    0,
    0,
    0,
    0,
    0,
    0,
    0,
    0,
    0,
    0,
    0,
    0,
    0,
    0,
    0,
    0,
    0,
    0,
    0,
    0,
    0,
    0,
    0,
    0,
    0,
    0,
    0,
    0,
    0,
    0,
    0,
    0,
    0,
    0,
    0,
    0,
    0,
    0,
    0,
    0,
    0,
    0,
    0,
    0,
    0,
    0,
    0,
    0,
    0,
    0,
    0,
    0,
    0,
    0,
    0,
    0,
    0,
    0,
    0,
    0,
    0,
    0,
    0,
    0,
    0,
    0,
    0,
    0,
    0,
    0,
    0,
    0,
    0,
    0,
    0,
    0,
    0,
    0,
    0,
    0,
    0,
    0,
    0,
    0,
    0,
    0,
    0,
    0,
    0,
    0,
    0,
    0,
    0,
    0,
    0,
    0,
    0,
    0,
    0,
    0,
    0,
    0,
    0,
    0,
    0,
    0,
    0,
    0,
    0,
    0,
    0,
    0,
    0,
    0,
    0,
    0,
    0,
    0,
    0,
    0,
    0,
    0,
    0,
    0,
    0,
    0,
    0,
    0,
    0,
    0,
    0,
    0,
    0,
    0,
    0,
    0,
    0,
    0,
    0,
    0,
    0,
    0,
    0,
    0,
    0,
    0,
    0,
    0,
    0,
    0,
    0,
    0,
    0,
    0,
    0,
    0,
    0,
    0,
    0,
    0,
    0,
    0,
    0,
    0,
    0,
    0,
    0,
    0,
    0,
    0,
    0,
    0,
    0,
    0,
    0,
    0,
    0,
    0,
    0,
    0,
    0,
    0,
    0,
    0,
    0,
    0,
    0,
    0,
    0,
    0,
    0,
    0,
    0,
    0,
    0,
    0,
    0,
    0,
    0,
    0,
    0,
    0,
    0,
    0,
    0,
    0,
    0,
    0,
    0,
    0,
    0,
    0,
    0,
    0,
    0,
    0,
    0,
    0,
    0,
    0,
    0,
    0,
    0,
    0,
    0,
    0,
    0,
    0,
    0,
    0,
    0,
    0,
    0,
    0,
    0,
    0,
    0,
    0,
    0,
    0,
    0,
    0,
    0,
    0,
    0,
    0,
    0,
    0,
    0,
    0,
    0,
    0,
    0,
    0,
    0,
    0,
    0,
    0,
    0,
    0,
    0,
    0,
    0,
    0,
    0,
    0,
    0,
    0,
    0,
    0,
    0,
    0,
    0,
    0,
    0,
    0,
    0,
    0,
    0,
    0,
    0,
    0,
    0,
    0,
    0,
    0,
    0,
    0,
    0,
    0,
    0,
    0,
    0,
    0,
    0,
    0,
    0,
    0,
    0,
    0,
    0,
    0,
    0,
    0,
    0,
    0,
    0,
    0,
    0,
    0,
    0,
    0,
    0,
    0,
    0,
    0,
    0,
    0,
    0,
    0,
    0,
    0,
    0,
    0,
    0,
    0,
    0,
    0,
    0,
    0,
    0,
    0,
    0,
    0,
    0,
    0,
    0,
    0,
    0,
    0,
    0,
    0,
    0,
    0,
    0,
    0,
    0,
    0,
    0,
    0,
    0,
    0,
    0,
    0,
    0,
    0,
    0,
    0,
    0,
    0,
    0,
    0,
    0,
    0,
    0,
    0,
    0,
    0,
    0,
    0,
    0,
    0,
    0,
    0,
    0,
    0,
    0,
    0,
    0,
    0,
    0,
    0,
    0,
    0,
    0,
    0,
    0,
    0,
    0,
    0,
    0,
    0,
    0,
    0,
    0,
    0,
    0,
    0,
    0,
    0,
    0,
    0,
    0,
    0,
    0,
    0,
    0,
    0,
    0,
    0,
    0,
    0,
    0,
    0,
    0,
    0,
    0,
    0,
    0,
    0,
    0,
    0,
    0,
    0,
    0,
    0,
    0,
    0,
    0,
    0,
    0,
    0,
    0,
    0,
    0,
    0,
    0,
    0,
    0,
    0,
    0,
    0,
    0,
    0,
    0,
    0,
    0,
    0,
    0,
    0,
    0,
    0,
    0,
    0,
    0,
    0,
    0,
    0,
    0,
    0,
    0,
    0,
    0,
    0,
    0,
    0,
    0,
    0,
    0,
    0,
    0,
    0,
    0,
    0,
    0,
    0,
    0,
    0,
    0,
    0,
    0,
    0,
    0,
    0,
    0,
    0,
    0,
    0,
    0,
    0,
    0,
    0,
    0,
    0,
    0,
    0,
    0,
    0,
    0,
    0,
    0,
    0,
    0,
    0,
    0,
    0,
    0,
    0,
    0,
    0,
    0,
    0,
    0,
    0,
    0,
    0,
    0,
    0,
    0,
    0,
    0,
    0,
    0,
    0,
    0,
    0,
    0,
    0,
    0,
    0,
    0,
    0,
    0,
    0,
    0,
    0,
    0,
    0,
    0,
    0,
    0,
    0,
    0,
    0,
    0,
    0,
    0,
    0,
    0,
    0,
    0,
    0,
    0,
    0,
    0,
    0,
    0,
    0,
    0,
    0,
    0,
    0,
    0,
    0,
    0,
    0,
    0,
    0,
    0,
    0,
    0,
    0,
    0,
    0,
    0,
    0,
    0,
    0,
    0,
    0,
    0,
    0,
    0,
    0,
    0,
    0,
    0,
    0,
    0,
    0,
    0,
    0,
    0,
    0,
    0,
    0,
    0,
    0,
    0,
    0,
    0,
    0,
    0,
    0,
    0,
    0,
    0,
    0,
    0,
    0,
    0,
    0,
    0,
    0,
    0,
    0,
    0,
    0,
    0,
    0,
    0,
    0,
    0,
    0,
    0,
    0,
    0,
    0,
    0,
    0,
    0,
    0,
    0,
    0,
    0,
    0,
    0,
    0,
    0,
    0,
    0,
    0,
    0,
    0,
    0,
    0,
    0,
    0,
    0,
    0,
    0,
    0,
    0,
    0,
    0,
    0,
    0,
    0,
    0,
    0,
    0,
    0,
    0,
    0,
    0,
    0,
    0,
    0,
    0,
    0,
    0,
    0,
    0,
    0,
    0,
    0,
    0,
    0,
    0,
    0,
    0,
    0,
    0,
    0,
    0,
    0,
    0,
    0,
    0,
    0,
    0,
    0,
    0,
    0,
    0,
    0,
    0,
    0,
    0,
    0,
    0,
    0,
    0,
    0,
    0,
    0,
    0,
    0,
    0,
    0,
    0,
    0,
    0,
    0,
    0,
    0,
    0,
    0,
    0,
    0,
    0,
    0,
    0,
    0,
    0,
    0,
    0,
    0,
    0,
    0,
    0,
    0,
    0,
    0,
    0,
    0,
    0,
    0,
    0,
    0,
    0,
    0,
    0,
    0,
    0,
    0,
    0,
    0,
    0,
    0,
    0,
    0,
    0,
    0,
    0,
    0,
    0,
    0,
    0,
    0,
    0,
    0,
    0,
    0,
    0,
    0,
    0,
    0,
    0,
    0,
    0,
    0,
    0,
    0,
    0,
    0,
    0,
    0,
    0,
    0,
    0,
    0,
    0,
    0,
    0,
    0,
    0,
    0,
    0,
    0,
    0,
    0,
    0,
    0,
    0,
    0,
    0,
    0,
    0,
    0,
    0,
    0,
    0,
    0,
    0,
    0,
    0,
    0,
    0,
    0,
    0,
    0,
    0,
    0,
    0,
    0,
    0,
    0,
    0,
    0,
    0,
    0,
    0,
    0,
    0,
    0,
    0,
    0,
    0,
    0,
    0,
    0,
    0,
    0,
    0,
    0,
    0,
    0,
    0,
    0,
    0,
    0,
    0,
    0,
    0,
    0,
    0,
    0,
    0,
    0,
    0,
    0,
    0,
    0,
    0,
    0,
    0,
    0,
    0,
    0,
    0,
    0,
    0,
    0,
    0,
    0,
    0,
    0,
    0,
    0,
    0,
    0,
    0,
    0,
    0,
    0,
    0,
    0,
    0,
    0,
    0,
    0,
    0,
    0,
    0,
    0,
    0,
    0,
    0,
    0,
    0,
    0,
    0,
    0,
    0,
    0,
    0,
    0,
    0,
    0,
    0,
    0,
    0,
    0,
    0,
    0,
    0,
    0,
    0,
    0,
    0,
    0,
    0,
    0,
    0,
    0,
    0,
    0,
    0,
    0,
    0,
    0,
    0,
    0,
    0,
    0,
    0,
    0,
    0,
    0,
    0,
    0,
    0,
    0,
    0,
    0,
    0,
    0,
    0,
    0,
    0,
    0,
    0,
    0,
    0,
    0,
    0,
    0,
    0,
    0,
    0,
    0,
    0,
    0,
    0,
    0,
    0,
    0,
    0,
    0,
    0,
    0,
    0,
    0,
    0,
    0,
    0,
    0,
    0,
    0,
    0,
    0,
    0,
    0,
    0,
    0,
    0,
    0,
    0,
    0,
    0,
    0,
    0,
    0,
    0,
    0,
    0,
    0,
    0,
    0,
    0,
    0,
    0,
    0,
    0,
    0,
    0,
    0,
    0,
    0,
    0,
    0,
    0,
    0,
    0,
    0,
    0,
    0,
    0,
    0,
    0,
    0,
    0,
    0,
    0,
    0,
    0,
    0,
    0,
    0,
    0,
    0,
    0,
    0,
    0,
    0,
    0,
    0,
    0,
    0,
    0,
    0,
    0,
    0,
    0,
    0,
    0,
    0,
    0,
    0,
    0,
    0,
    0,
    0,
    0,
    0,
    0,
    0,
    0,
    0,
    0,
    0,
    0,
    0,
    0,
    0,
    0,
    0,
    0,
    0,
    0,
    0,
    0,
    0,
    0,
    0,
    0,
    0,
    0,
    0,
    0,
    0,
    0,
    0,
    0,
    0,
    0,
    0,
    0,
    0,
    0,
    0,
    0,
    0,
    0,
    0,
    0,
    0,
    0,
    0,
    0,
    0,
    0,
    0,
    0,
    0,
    0,
    0,
    0,
    0,
    0,
    0,
    0,
    0,
    0,
    0,
    0,
    0,
    0,
    0,
    0,
    0,
    0,
    0,
    0,
    0,
    0,
    0,
    0,
    0,
    0,
    0,
    0,
    0,
    0,
    0,
    0,
    0,
    0,
    0,
    0,
    0,
    0,
    0,
    0,
    0,
    0,
    0,
    0,
    0,
    0,
    0,
    0,
    0,
    0,
    0,
    0,
    0,
    0,
    0,
    0,
    0,
    0,
    0,
    0,
    0,
    0,
    0,
    0,
    0,
    0,
    0,
    0,
    0,
    0,
    0,
    0,
    0,
    0,
    0,
    0,
    0,
    0,
    0,
    0,
    0,
    0,
    0,
    0,
    0,
    0,
    0,
    0,
    0,
    0,
    0,
    0,
    0,
    0,
    0,
    0,
    0,
    0,
    0,
    0,
    0,
    0,
    0,
    0,
    0,
    0,
    0,
    0,
    0,
    0,
    0,
    0,
    0,
    0,
    0,
    0,
    0,
    0,
    0,
    0,
    0,
    0,
    0,
    0,
    0,
    0,
    0,
    0,
    0,
    0,
    0,
    0,
    0,
    0,
    0,
    0,
    0,
    0,
    0,
    0,
    0,
    0,
    0,
    0,
    0,
    0,
    0,
    0,
    0,
    0,
    0,
    0,
    0,
    0,
    0,
    0,
    0,
    0,
    0,
    0,
    0,
    0,
    0,
    0,
    0,
    0,
    0,
    0,
    0,
    0,
    0,
    0,
    0,
    0,
    0,
    0,
    0,
    0,
    0,
    0,
    0,
    0,
    0,
    0,
    0,
    0,
    0,
    0,
    0,
    0,
    0,
    0,
    0,
    0,
    0,
    0,
    0,
    0,
    0,
    0,
    0,
    0,
    0,
    0,
    0,
    0,
    0,
    0,
    0,
    0,
    0,
    0,
    0,
    0,
    0,
    0,
    0,
    0,
    0,
    0,
    0,
    0,
    0,
    0,
    0,
    0,
    0,
    0,
    0,
    0,
    0,
    0,
    0,
    0,
    0,
    0,
    0,
    0,
    0,
    0,
    0,
    0,
    0,
    0,
    0,
    0,
    0,
    0,
    0,
    0,
    0,
    0,
    0,
    0,
    0,
    0,
    0,
    0,
    0,
    0,
    0,
    0,
    0,
    0,
    0,
    0,
    0,
    0,
    0,
    0,
    0,
    0,
    0,
    0,
    0,
    0,
    0,
    0,
    0,
    0,
    0,
    0,
    0,
    0,
    0,
    0,
    0,
    0,
    0,
    0,
    0,
    0,
    0,
    0,
    0,
    0,
    0,
    0,
    0,
    0,
    0,
    0,
    0,
    0,
    0,
    0,
    0,
    0,
    0,
    0,
    0,
    0,
    0,
    0,
    0,
    0,
    0,
    0,
    0,
    0,
    0,
    0,
    0,
    0,
    0,
    0,
    0,
    0,
    0,
    0,
    0,
    0,
    0,
    0,
    0,
    0,
    0,
    0,
    0,
    0,
    0,
    0,
    0,
    0,
    0,
    0,
    0,
    0,
    0,
    0,
    0,
    0,
    0,
    0,
    0,
    0,
    0,
    0,
    0,
    0,
    0,
    0,
    0,
    0,
    0,
    0,
    0,
    0,
    0,
    0,
    0,
    0,
    0,
    0,
    0,
    0,
    0,
    0,
    0,
    0,
    0,
    0,
    0,
    0,
    0,
    0,
    0,
    0,
    0,
    0,
    0,
    0,
    0,
    0,
    0,
    0,
    0,
    0,
    0,
    0,
    0,
    0,
    0,
    0,
    0,
    0,
    0,
    0,
    0,
    0,
    0,
    0,
    0,
    0,
    0,
    0,
    0,
    0,
    0,
    0,
    0,
    0,
    0,
    0,
    0,
    0,
    0,
    0,
    0,
    0,
    0,
    0,
    0,
    0,
    0,
    0,
    0,
    0,
    0,
    0,
    0,
    0,
    0,
    0,
    0,
    0,
    0,
    0,
    0,
    0,
    0,
    0,
    0,
    0,
    0,
    0,
    0,
    0,
    0,
    0,
    0,
    0,
    0,
    0,
    0,
    0,
    0,
    0,
    0,
    0,
    0,
    0,
    0,
    0,
    0,
    0,
    0,
    0,
    0,
    0,
    0,
    0,
    0,
    0,
    0,
    0,
    0,
    0,
    0,
    0,
    0,
    0,
    0,
    0,
    0,
    0,
    0,
    0,
    0,
    0,
    0,
    0,
    0,
    0,
    0,
    0,
    0,
    0,
    0,
    0,
    0,
    0,
    0,
    0,
    0,
    0,
    0,
    0,
    0,
    0,
    0,
    0,
    0,
    0,
    0,
    0,
    0,
    0,
    0,
    0,
    0,
    0,
    0,
    0,
    0,
    0,
    0,
    0,
    0,
    0,
    0,
    0,
    0,
    0,
    0,
    0,
    0,
    0,
    0,
    0,
    0,
    0,
    0,
    0,
    0,
    0,
    0,
    0,
    0,
    0,
    0,
    0,
    0,
    0,
    0,
    0,
    0,
    0,
    0,
    0,
    0,
    0,
    0,
    0,
    0,
    0,
    0,
    0,
    0,
    0,
    0,
    0,
    0,
    0,
    0,
    0,
    0,
    0,
    0,
    0,
    0,
    0,
    0,
    0,
    0,
    0,
    0,
    0,
    0,
    0,
    0,
    0,
    0,
    0,
    0,
    0,
    0,
    0,
    0,
    0,
    0,
    0,
    0,
    0,
    0,
    0,
    0,
    0,
    0,
    0,
    0,
    0,
    0,
    0,
    0,
    0,
    0,
    0,
    0,
    0,
    0,
    0,
    0,
    0,
    0,
    0,
    0,
    0,
    0,
    0,
    0,
    0,
    0,
    0,
    0,
    0,
    0,
    0,
    0,
    0,
    0,
    0,
    0,
    0,
    0,
    0,
    0,
    0,
    0,
    0,
    0,
    0,
    0,
    0,
    0,
    0,
    0,
    0,
    0,
    0,
    0,
    0,
    0,
    0,
    0,
    0,
    0,
    0,
    0,
    0,
    0,
    0,
    0,
    0,
    0,
    0,
    0,
    0,
    0,
    0,
    0,
    0,
    0,
    0,
    0,
    0,
    0,
    0,
    0,
    0,
    0,
    0,
    0,
    0,
    0,
    0,
    0,
    0,
    0,
    0,
    0,
    0,
    0,
    0,
    0,
    0,
    0,
    0,
    0,
    0,
    0,
    0,
    0,
    0,
    0,
    0,
    0,
    0,
    0,
    0,
    0,
    0,
    0,
    0,
    0,
    0,
    0,
    0,
    0,
    0,
    0,
    0,
    0,
    0,
    0,
    0,
    0,
    0,
    0,
    0,
    0,
    0,
    0,
    0,
    0,
    0,
    0,
    0,
    0,
    0,
    0,
    0,
    0,
    0,
    0,
    0,
    0,
    0,
    0,
    0,
    0,
    0,
    0,
    0,
    0,
    0,
    0,
    0,
    0,
    0,
    0,
    0,
    0,
    0,
    0,
    0,
    0,
    0,
    0,
    0,
    0,
    0,
    0,
    0,
    0,
    0,
    0,
    0,
    0,
    0,
    0,
    0,
    0,
    0,
    0,
    0,
    0,
    0,
    0,
    0,
    0,
    0,
    0,
    0,
    0,
    0,
    0,
    0,
    0,
    0,
    0,
    0,
    0,
    0,
    0,
    0,
    0,
    0,
    0,
    0,
    0,
    0,
    0,
    0,
    0,
    0,
    0,
    0,
    0,
    0,
    0,
    0,
    0,
    0,
    0,
    0,
    0,
    0,
    0,
    0,
    0,
    0,
    0,
    0,
    0,
    0,
    0,
    0,
    0,
    0,
    0,
    0,
    0,
    0,
    0,
    0,
    0,
    0,
    0,
    0,
    0,
    0,
    0,
    0,
    0,
    0,
    0,
    0,
    0,
    0,
    0,
    0,
    0,
    0,
    0,
    0,
    0,
    0,
    0,
    0,
    0,
    0,
    0,
    0,
    0,
    0,
    0,
    0,
    0,
    0,
    0,
    0,
    0,
    0,
    0,
    0,
    0,
    0,
    0,
    0,
    0,
    0,
    0,
    0,
    0,
    0,
    0,
    0,
    0,
    0,
    0,
    0,
    0,
    0,
    0,
    0,
    0,
    0,
    0,
    0,
    0,
    0,
    0,
    0,
    0,
    0,
    0,
    0,
    0,
    0,
    0,
    0,
    0,
    0,
    0,
    0,
    0,
    0,
    0,
    0,
    0,
    0,
    0,
    0,
    0,
    0,
    0,
    0,
    0,
    0,
    0,
    0,
    0,
    0,
    0,
    0,
    0,
    0,
    0,
    0,
    0,
    0,
    0,
    0,
    0,
    0,
    0,
    0,
    0,
    0,
    0,
    0,
    0,
    0,
    0,
    0,
    0,
    0,
    0,
    0,
    0,
    0,
    0,
    0,
    0,
    0,
    0,
    0,
    0,
    0,
    0,
    0,
    0,
    0,
    0,
    0,
    0,
    0,
    0,
    0,
    0,
    0,
    0,
    0,
    0,
    0,
    0,
    0,
    0,
    0,
    0,
    0,
    0,
    0,
    0,
    0,
    0,
    0,
    0,
    0,
    0,
    0,
    0,
    0,
    0,
    0,
    0,
    0,
    0,
    0,
    0,
    0,
    0,
    0,
    0,
    0,
    0,
    0,
    0,
    0,
    0,
    0,
    0,
    0,
    0,
    0,
    0,
    0,
    0,
    0,
    0,
    0,
    0,
    0,
    0,
    0,
    0,
    0,
    0,
    0,
    0,
    0,
    0,
    0,
    0,
    0,
    0,
    0,
    0,
    0,
    0,
    0,
    0,
    0,
    0,
    0,
    0,
    0,
    0,
    0,
    0,
    0,
    0,
    0,
    0,
    0,
    0,
    0,
    0,
    0,
    0,
    0,
    0,
    0,
    0,
    0,
    0,
    0,
    0,
    0,
    0,
    0,
    0,
    0,
    0,
    0,
    0,
    0,
    0,
    0,
    0,
    0,
    0,
    0,
    0,
    0,
    0,
    0,
    0,
    0,
    0,
    0,
    0,
    0,
    0,
    0,
    0,
    0,
    0,
    0,
    0,
    0,
    0,
    0,
    0,
    0,
    0,
    0,
    0,
    0,
    0,
    0,
    0,
    0,
    0,
    0,
    0,
    0,
    0,
    0,
    0,
    0,
    0,
    0,
    0,
    0,
    0,
    0,
    0,
    0,
    0,
    0,
    0,
    0,
    0,
    0,
    0,
    0,
    0,
    0,
    0,
    0,
    0,
    0,
    0,
    0,
    0,
    0,
    0,
    0,
    0,
    0,
    0,
    0,
    0,
    0,
    0,
    0,
    0,
    0,
    0,
    0,
    0,
    0,
    0,
    0,
    0,
    0,
    0,
    0,
    0,
    0,
    0,
    0,
    0,
    0,
    0,
    0,
    0,
    0,
    0,
    0,
    0,
    0,
    0,
    0,
    0,
    0,
    0,
    0,
    0,
    0,
    0,
    0,
    0,
    0,
    0,
    0,
    0,
    0,
    0,
    0,
    0,
    0,
    0,
    0,
    0,
    0,
    0,
    0,
    0,
    0,
    0,
    0,
    0,
    0,
    0,
    0,
    0,
    0,
    0,
    0,
    0,
    0,
    0,
    0,
    0,
    0,
    0,
    0,
    0,
    0,
    0,
    0,
    0,
    0,
    0,
    0,
    0,
    0,
    0,
    0,
    0,
    0,
    0,
    0,
    0,
    0,
    0,
    0,
    0,
    0,
    0,
    0,
    0,
    0,
    0,
    0,
    0,
    0,
    0,
    0,
    0,
    0,
    0,
    0,
    0,
    0,
    0,
    0,
    0,
    0,
    0,
    0,
    0,
    0,
    0,
    0,
    0,
    0,
    0,
    0,
    0,
    0,
    0,
    0,
    0,
    0,
    0,
    0,
    0,
    0,
    0,
    0,
    0,
    0,
    0,
    0,
    0,
    0,
    0,
    0,
    0,
    0,
    0,
    0,
    0,
    0,
    0,
    0,
    0,
    0,
    0,
    0,
    0,
    0,
    0,
    0,
    0,
    0,
    0,
    0,
    0,
    0,
    0,
    0,
    0,
    0,
    0,
    0,
    0,
    0,
    0,
    0,
    0,
    0,
    0,
    0,
    0,
    0,
    0,
    0,
    0,
    0,
    0,
    0,
    0,
    0,
    0,
    0,
    0,
    0,
    0,
    0,
    0,
    0,
    0,
    0,
    0,
    0,
    0,
    0,
    0,
    0,
    0,
    0,
    0,
    0,
    0,
    0,
    0,
    0,
    0,
    0,
    0,
    0,
    0,
    0,
    0,
    0,
    0,
    0,
    0,
    0,
    0,
    0,
    0,
    0,
    0,
    0,
    0,
    0,
    0,
    0,
    0,
    0,
    0,
    0,
    0,
    0,
    0,
    0,
    0,
    0,
    0,
    0,
    0,
    0,
    0,
    0,
    0,
    0,
    0,
    0,
    0,
    0,
    0,
    0,
    0,
    0,
    0,
    0,
    0,
    0,
    0,
    0,
    0,
    0,
    0,
    0,
    0,
    0,
    0,
    0,
    0,
    0,
    0,
    0,
    0,
    0,
    0,
    0,
    0,
    0,
    0,
    0,
    0,
    0,
    0,
    0,
    0,
    0,
    0,
    0,
    0,
    0,
    0,
    0,
    0,
    0,
    0,
    0,
    0,
    0,
    0,
    0,
    0,
    0,
    0,
    0,
    0,
    0,
    0,
    0,
    0,
    0,
    0,
    0,
    0,
    0,
    0,
    0,
    0,
    0,
    0,
    0,
    0,
    0,
    0,
    0,
    0,
    0,
    0,
    0,
    0,
    0,
    0,
    0,
    0,
    0,
    0,
    0,
    0,
    0,
    0,
    0,
    0,
    0,
    0,
    0,
    0,
    0,
    0,
    0,
    0,
    0,
    0,
    0,
    0,
    0,
    0,
    0,
    0,
    0,
    0,
    0,
    0,
    0,
    0,
    0,
    0,
    0,
    0,
    0,
    0,
    0,
    0,
    0,
    0,
    0,
    0,
    0,
    0,
    0,
    0,
    0,
    0,
    0,
    0,
    0,
    0,
    0,
    0,
    0,
    0,
    0,
    0,
    0,
    0,
    0,
    0,
    0,
    0,
    0,
    0,
    0,
    0,
    0,
    0,
    0,
    0,
    0,
    0,
    0,
    0,
    0,
    0,
    0,
    0,
    0,
    0,
    0,
    0,
    0,
    0,
    0,
    0,
    0,
    0,
    0,
    0,
    0,
    0,
    0,
    0,
    0,
    0,
    0,
    0,
    0,
    0,
    0,
    0,
    0,
    0,
    0,
    0,
    0,
    0,
    0,
    0,
    0,
    0,
    0,
    0,
    0,
    0,
    0,
    0,
    0,
    0,
    0,
    0,
    0,
    0,
    0,
    0,
    0,
    0,
    0,
    0,
    0,
    0,
    0,
    0,
    0,
    0,
    0,
    0,
    0,
    0,
    0,
    0,
    0,
    0,
    0,
    0,
    0,
    0,
    0,
    0,
    0,
    0,
    0,
    0,
    0,
    0,
    0,
    0,
    0,
    0,
    0,
    0,
    0,
    0,
    0,
    0,
    0,
    0,
    0,
    0,
    0,
    0,
    0,
    0,
    0,
    0,
    0,
    0,
    0,
    0,
    0,
    0,
    0,
    0,
    0,
    0,
    0,
    0,
    0,
    0,
    0,
    0,
    0,
    0,
    0,
    0,
    0,
    0,
    0,
    0,
    0,
    0,
    0,
    0,
    0,
    0,
    0,
    0,
    0,
    0,
    0,
    0,
    0,
    0,
    0,
    0,
    0,
    0,
    0,
    0,
    0,
    0,
    0,
    0,
    0,
    0,
    0,
    0,
    0,
    0,
    0,
    0,
    0,
    0,
    0,
    0,
    0,
    0,
    0,
    0,
    0,
    0,
    0,
    0,
    0,
    0,
    0,
    0,
    0,
    0,
    0,
    0,
    0,
    0,
    0,
    0,
    0,
    0,
    0,
    0,
    0,
    0,
    0,
    0,
    0,
    0,
    0,
    0,
    0,
    0,
    0,
    0,
    0,
    0,
    0,
    0,
    0,
    0,
    0,
    0,
    0,
    0,
    0,
    0,
    0,
    0,
    0,
    0,
    0,
    0,
    0,
    0,
    0,
    0,
    0,
    0,
    0,
    0,
    0,
    0,
    0,
    0,
    0,
    0,
    0,
    0,
    0,
    0,
    0,
    0,
    0,
    0,
    0,
    0,
    0,
    0,
    0,
    0,
    0,
    0,
    0,
    0,
    0,
    0,
    0,
    0,
    0,
    0,
    0,
    0,
    0,
    0,
    0,
    0,
    0,
    0,
    0,
    0,
    0,
    0,
    0,
    0,
    0,
    0,
    0,
    0,
    0,
    0,
    0,
    0,
    0,
    0,
    0,
    0,
    0,
    0,
    0,
    0,
    0,
    0,
    0,
    0,
    0,
    0,
    0,
    0,
    0,
    0,
    0,
    0,
    0,
    0,
    0,
    0,
    0,
    0,
    0,
    0,
    0,
    0,
    0,
    0,
    0,
    0,
    0,
    0,
    0,
    0,
    0,
    0,
    0,
    0,
    0,
    0,
    0,
    0,
    0,
    0,
    0,
    0,
    0,
    0,
    0,
    0,
    0,
    0,
    0,
    0,
    0,
    0,
    0,
    0,
    0,
    0,
    0,
    0,
    0,
    0,
    0,
    0,
    0,
    0,
    0,
    0,
    0,
    0,
    0,
    0,
    0,
    0,
    0,
    0,
    0,
    0,
    0,
    0,
    0,
    0,
    0,
    0,
    0,
    0,
    0,
    0,
    0,
    0,
    0,
    0,
    0,
    0,
    0,
    0,
    0,
    0,
    0,
    0,
    0,
    0,
    0,
    0,
    0,
    0,
    0,
    0,
    0,
    0,
    0,
    0,
    0,
    0,
    0,
    0,
    0,
    0,
    0,
    0,
    0,
    0,
    0,
    0,
    0,
    0,
    0,
    0,
    0,
    0,
    0,
    0,
    0,
    0,
    0,
    0,
    0,
    0,
    0,
    0,
    0,
    0,
    0,
    0,
    0,
    0,
    0,
    0,
    0,
    0,
    0,
    0,
    0,
    0,
    0,
    0,
    0,
    0,
    0,
    0,
    0,
    0,
    0,
    0,
    0,
    0,
    0,
    0,
    0,
    0,
    0,
    0,
    0,
    0,
    0,
    0,
    0,
    0,
    0,
    0,
    0,
    0,
    0,
    0,
    0,
    0,
    0,
    0,
    0,
    0,
    0,
    0,
    0,
    0,
    0,
    0,
    0,
    0,
    0,
    0,
    0,
    0,
    0,
    0,
    0,
    0,
    0,
    0,
    0,
    0,
    0,
    0,
    0,
    0,
    0,
    0,
    0,
    0,
    0,
    0,
    0,
    0,
    0,
    0,
    0,
    0,
    0,
    0,
    0,
    0,
    0,
    0,
    0,
    0,
    0,
    0,
    0,
    0,
    0,
    0,
    0,
    0,
    0,
    0,
    0,
    0,
    0,
    0,
    0,
    0,
    0,
    0,
    0,
    0,
    0,
    0,
    0,
    0,
    0,
    0,
    0,
    0,
    0,
    0,
    0,
    0,
    0,
    0,
    0,
    0,
    0,
    0,
    0,
    0,
    0,
    0,
    0,
    0,
    0,
    0,
    0,
    0,
    0,
    0,
    0,
    0,
    0,
    0,
    0,
    0,
    0,
    0,
    0,
    0,
    0,
    0,
    0,
    0,
    0,
    0,
    0,
    0,
    0,
    0,
    0,
    0,
    0,
    0,
    0,
    0,
    0,
    0,
    0,
    0,
    0,
    0,
    0,
    0,
    0,
    0,
    0,
    0,
    0,
    0,
    0,
    0,
    0,
    0,
    0,
    0,
    0,
    0,
    0,
    0,
    0,
    0,
    0,
    0,
    0,
    0,
    0,
    0,
    0,
    0,
    0,
    0,
    0,
    0,
    0,
    0,
    0,
    0,
    0,
    0,
    0,
    0,
    0,
    0,
    0,
    0,
    0,
    0,
    0,
    0,
    0,
    0,
    0,
    0,
    0,
    0,
    0,
    0,
    0,
    0,
    0,
    0,
    0,
    0,
    0,
    0,
    0,
    0,
    0,
    0,
    0,
    0,
    0,
    0,
    0,
    0,
    0,
    0,
    0,
    0,
    0,
    0,
    0,
    0,
    0,
    0,
    0,
    0,
    0,
    0,
    0,
    0,
    0,
    0,
    0,
    0,
    0,
    0,
    0,
    0,
    0,
    0,
    0,
    0,
    0,
    0,
    0,
    0,
    0,
    0,
    0,
    0,
    0,
    0,
    0,
    0,
    0,
    0,
    0,
    0,
    0,
    0,
    0,
    0,
    0,
    0,
    0,
    0,
    0,
    0,
    0,
    0,
    0,
    0,
    0,
    0,
    0,
    0,
    0,
    0,
    0,
    0,
    0,
    0,
    0,
    0,
    0,
    0,
    0,
    0,
    0,
    0,
    0,
    0,
    0,
    0,
    0,
    0,
    0,
    0,
    0,
    0,
    0,
    0,
    0,
    0,
    0,
    0,
    0,
    0,
    0,
    0,
    0,
    0,
    0,
    0,
    0,
    0,
    0,
    0,
    0,
    0,
    0,
    0,
    0,
    0,
    0,
    0,
    0,
    0,
    0,
    0,
    0,
    0,
    0,
    0,
    0,
    0,
    0,
    0,
    0,
    0,
    0,
    0,
    0,
    0,
    0,
    0,
    0,
    0,
    0,
    0,
    0,
    0,
    0,
    0,
    0,
    0,
    0,
    0,
    0,
    0,
    0,
    0,
    0,
    0,
    0,
    0,
    0,
    0,
    0,
    0,
    0,
    0,
    0,
    0,
    0,
    0,
    0,
    0,
    0,
    0,
    0,
    0,
    0,
    0,
    0,
    0,
    0,
    0,
    0,
    0,
    0,
    0,
    0,
    0,
    0,
    0,
    0,
    0,
    0,
    0,
    0,
    0,
    0,
    0,
    0,
    0,
    0,
    0,
    0,
    0,
    0,
    0,
    0,
    0,
    0,
    0,
    0,
    0,
    0,
    0,
    0,
    0,
    0,
    0,
    0,
    0,
    0,
    0,
    0,
    0,
    0,
    0,
    0,
    0,
    0,
    0,
    0,
    0,
    0,
    0,
    0,
    0,
    0,
    0,
    0,
    0,
    0,
    0,
    0,
    0,
    0,
    0,
    0,
    0,
    0,
    0,
    0,
    0,
    0,
    0,
    0,
    0,
    0,
    0,
    0,
    0,
    0,
    0,
    0,
    0,
    0,
    0,
    0,
    0,
    0,
    0,
    0,
    0,
    0,
    0,
    0,
    0,
    0,
    0,
    0,
    0,
    0,
    0,
    0,
    0,
    0,
    0,
    0,
    0,
    0,
    0,
    0,
    0,
    0,
    0,
    0,
    0,
    0,
    0,
    0,
    0,
    0,
    0,
    0,
    0,
    0,
    0,
    0,
    0,
    0,
    0,
    0,
    0,
    0,
    0,
    0,
    0,
    0,
    0,
    0,
    0,
    0,
    0,
    0,
    0,
    0,
    0,
    0,
    0,
    0,
    0,
    0,
    0,
    0,
    0,
    0,
    0,
    0,
    0,
    0,
    0,
    0,
    0,
    0,
    0,
    0,
    0,
    0,
    0,
    0,
    0,
    0,
    0,
    0,
    0,
    0,
    0,
    0,
    0,
    0,
    0,
    0,
    0,
    0,
    0,
    0,
    0,
    0,
    0,
    0,
    0,
    0,
    0,
    0,
    0,
    0,
    0,
    0,
    0,
    0,
    0,
    0,
    0,
    0,
    0,
    0,
    0,
    0,
    0,
    0,
    0,
    0,
    0,
    0,
    0,
    0,
    0,
    0,
    0,
    0,
    0,
    0,
    0,
    0,
    0,
    0,
    0,
    0,
    0,
    0,
    0,
    0,
    0,
    0,
    0,
    0,
    0,
    0,
    0,
    0,
    0,
    0,
    0,
    0,
    0,
    0,
    0,
    0,
    0,
    0,
    0,
    0,
    0,
    0,
    0,
    0,
    0,
    0,
    0,
    0,
    0,
    0,
    0,
    0,
    0,
    0,
    0,
    0,
    0,
    0,
    0,
    0,
    0,
    0,
    0,
    0,
    0,
    0,
    0,
    0,
    0,
    0,
    0,
    0,
    0,
    0,
    0,
    0,
    0,
    0,
    0,
    0,
    0,
    0,
    0,
    0,
    0,
    0,
    0,
    0,
    0,
    0,
    0,
    0,
    0,
    0,
    0,
    0,
    0,
    0,
    0,
    0,
    0,
    0,
    0,
    0,
    0,
    0,
    0,
    0,
    0,
    0,
    0,
    0,
    0,
    0,
    0,
    0,
    0,
    0,
    0,
    0,
    0,
    0,
    0,
    0,
    0,
    0,
    0,
    0,
    0,
    0,
    0,
    0,
    0,
    0,
    0,
    0,
    0,
    0,
    0,
    0,
    0,
    0,
    0,
    0,
    0,
    0,
    0,
    0,
    0,
    0,
    0,
    0,
    0,
    0,
    0,
    0,
    0,
    0,
    0,
    0,
    0,
    0,
    0,
    0,
    0,
    0,
    0,
    0,
    0,
    0,
    0,
    0,
    0,
    0,
    0,
    0,
    0,
    0,
    0,
    0,
    0,
    0,
    0,
    0,
    0,
    0,
    0,
    0,
    0,
    0,
    0,
    0,
    0,
    0,
    0,
    0,
    0,
    0,
    0,
    0,
    0,
    0,
    0,
    0,
    0,
    0,
    0,
    0,
    0,
    0,
    0,
    0,
    0,
    0,
    0,
    0,
    0,
    0,
    0,
    0,
    0,
    0,
    0,
    0,
    0,
    0,
    0,
    0,
    0,
    0,
    0,
    0,
    0,
    0,
    0,
    0,
    0,
    0,
    0,
    0,
    0,
    0,
    0,
    0,
    0,
    0,
    0,
    0,
    0,
    0,
    0,
    0,
    0,
    0,
    0,
    0,
    0,
    0,
    0,
    0,
    0,
    0,
    0,
    0,
    0,
    0,
    0,
    0,
    0,
    0,
    0,
    0,
    0,
    0,
    0,
    0,
    0,
    0,
    0,
    0,
    0,
    0,
    0,
    0,
    0,
    0,
    0,
    0,
    0,
    0,
    0,
    0,
    0,
    0,
    0,
    0,
    0,
    0,
    0,
    0,
    0,
    0,
    0,
    0,
    0,
    0,
    0,
    0,
    0,
    0,
    0,
    0,
    0,
    0,
    0,
    0,
    0,
    0,
    0,
    0,
    0,
    0,
    0,
    0,
    0,
    0,
    0,
    0,
    0,
    0,
    0,
    0,
    0,
    0,
    0,
    0,
    0,
    0,
    0,
    0,
    0,
    0,
    0,
    0,
    0,
    0,
    0,
    0,
    0,
    0,
    0,
    0,
    0,
    0,
    0,
    0,
    0,
    0,
    0,
    0,
    0,
    0,
    0,
    0,
    0,
    0,
    0,
    0,
    0,
    0,
    0,
    0,
    0,
    0,
    0,
    0,
    0,
    0,
    0,
    0,
    0,
    0,
    0,
    0,
    0,
    0,
    0,
    0,
    0,
    0,
    0,
    0,
    0,
    0,
    0,
    0,
    0,
    0,
    0,
    0,
    0,
    0,
    0,
    0,
    0,
    0,
    0,
    0,
    0,
    0,
    0,
    0,
    0,
    0,
    0,
    0,
    0,
    0,
    0,
    0,
    0,
    0,
    0,
    0,
    0,
    0,
    0,
    0,
    0,
    0,
    0,
    0,
    0,
    0,
    0,
    0,
    0,
    0,
    0,
    0,
    0,
    0,
    0,
    0,
    0,
    0,
    0,
    0,
    0,
    0,
    0,
    0,
    0,
    0,
    0,
    0,
    0,
    0,
    0,
    0,
    0,
    0,
    0,
    0,
    0,
    0,
    0,
    0,
    0,
    0,
    0,
    0,
    0,
    0,
    0,
    0,
    0,
    0,
    0,
    0,
    0,
    0,
    0,
    0,
    0,
    0,
    0,
    0,
    0,
    0,
    0,
    0,
    0,
    0,
    0,
    0,
    0,
    0,
    0,
    0,
    0,
    0,
    0,
    0,
    0,
    0,
    0,
    0,
    0,
    0,
    0,
    0,
    0,
    0,
    0,
    0,
    0,
    0,
    0,
    0,
    0,
    0,
    0,
    0,
    0,
    0,
    0,
    0,
    0,
    0,
    0,
    0,
    0,
    0,
    0,
    0,
    0,
    0,
    0,
    0,
    0,
    0,
    0,
    0,
    0,
    0,
    0,
    0,
    0,
    0,
    0,
    0,
    0,
    0,
    0,
    0,
    0,
    0,
    0,
    0,
    0,
    0,
    0,
    0,
    0,
    0,
    0,
    0,
    0,
    0,
    0,
    0,
    0,
    0,
    0,
    0,
    0,
    0,
    0,
    0,
    0,
    0,
    0,
    0,
    0,
    0,
    0,
    0,
    0,
    0,
    0,
    0,
    0,
    0,
    0,
    0,
    0,
    0,
    0,
    0,
    0,
    0,
    0,
    0,
    0,
    0,
    0,
    0,
    0,
    0,
    0,
    0,
    0,
    0,
    0,
    0,
    0,
    0,
    0,
    0,
    0,
    0,
    0,
    0,
    0,
    0,
    0,
    0,
    0,
    0,
    0,
    0,
    0,
    0,
    0,
    0,
    0,
    0,
    0,
    0,
    0,
    0,
    0,
    0,
    0,
    0,
    0,
    0,
    0,
    0,
    0,
    0,
    0,
    0,
    0,
    0,
    0,
    0,
    0,
    0,
    0,
    0,
    0,
    0,
    0,
    0,
    0,
    0,
    0,
    0,
    0,
    0,
    0,
    0,
    0,
    0,
    0,
    0,
    0,
    0,
    0,
    0,
    0,
    0,
    0,
    0,
    0,
    0,
    0,
    0,
    0,
    0,
    0,
    0,
    0,
    0,
    0,
    0,
    0,
    0,
    0,
    0,
    0,
    0,
    0,
    0,
    0,
    0,
    0,
    0,
    0,
    0,
    0,
    0,
    0,
    0,
    0,
    0,
    0,
    0,
    0,
    0,
    0,
    0,
    0,
    0,
    0,
    0,
    0,
    0,
    0,
    0,
    0,
    0,
    0,
    0,
    0,
    0,
    0,
    0,
    0,
    0,
    0,
    0,
    0,
    0,
    0,
    0,
    0,
    0,
    0,
    0,
    0,
    0,
    0,
    0,
    0,
    0,
    0,
    0,
    0,
    0,
    0,
    0,
    0,
    0,
    0,
    0,
    0,
    0,
    0,
    0,
    0,
    0,
    0,
    0,
    0,
    0,
    0,
    0,
    0,
    0,
    0,
    0,
    0,
    0,
    0,
    0,
    0,
    0,
    0,
    0,
    0,
    0,
    0,
    0,
    0,
    0,
    0,
    0,
    0,
    0,
    0,
    0,
    0,
    0,
    0,
    0,
    0,
    0,
    0,
    0,
    0,
    0,
    0,
    0,
    0,
    0,
    0,
    0,
    0,
    0,
    0,
    0,
    0,
    0,
    0,
    0,
    0,
    0,
    0,
    0,
    0,
    0,
    0,
    0,
    0,
    0,
    0,
    0,
    0,
    0,
    0,
    0,
    0,
    0,
    0,
    0,
    0,
    0,
    0,
    0,
    0,
    0,
    0,
    0,
    0,
    0,
    0,
    0,
    0,
    0,
    0,
    0,
    0,
    0,
    0,
    0,
    0,
    0,
    0,
    0,
    0,
    0,
    0,
    0,
    0,
    0,
    0,
    0,
    0,
    0,
    0,
    0,
    0,
    0,
    0,
    0,
    0,
    0,
    0,
    0,
    0,
    0,
    0,
    0,
    0,
    0,
    0,
    0,
    0,
    0,
    0,
    0,
    0,
    0,
    0,
    0,
    0,
    0,
    0,
    0,
    0,
    0,
    0,
    0,
    0,
    0,
    0,
    0,
    0,
    0,
    0,
    0,
    0,
    0,
    0,
    0,
    0,
    0,
    0,
    0,
    0,
    0,
    0,
    0,
    0,
    0,
    0,
    0,
    0,
    0,
    0,
    0,
    0,
    0,
    0,
    0,
    0,
    0,
    0,
    0,
    0,
    0,
    0,
    0,
    0,
    0,
    0,
    0,
    0,
    0,
    0,
    0,
    0,
    0,
    0,
    0,
    0,
    0,
    0,
    0,
    0,
    0,
    0,
    0,
    0,
    0,
    0,
    0,
    0,
    0,
    0,
    0,
    0,
    0,
    0,
    0,
    0,
    0,
    0,
    0,
    0,
    0,
    0,
    0,
    0,
    0,
    0,
    0,
    0,
    0,
    0,
    0,
    0,
    0,
    0,
    0,
    0,
    0,
    0,
    0,
    0,
    0,
    0,
    0,
    0,
    1,
    1,
    1,
    1,
    0,
    0,
    0,
    0,
    0,
    0,
    0,
    0,
    0,
    0,
    0,
    0,
    0,
    0,
    0,
    0,
    0,
    0,
    0,
    0,
    0,
    0,
    0,
    0,
    0,
    0,
    0,
    0,
    0,
    0,
    0,
    0,
    0,
    0,
    0,
    0,
    0,
    0,
    0,
    0,
    0,
    0,
    0,
    0,
    0,
    0,
    0,
    0,
    0,
    0,
    0,
    0,
    0,
    0,
    0,
    0,
    0,
    0,
    0,
    0,
    0,
    0,
    0,
    0,
    0,
    0,
    0,
    0,
    0,
    0,
    0,
    0,
    0,
    0,
    0,
    0,
    0,
    0,
    0,
    0,
    0,
    0,
    0,
    0,
    0,
    0,
    0,
    0,
    0,
    0,
    0,
    0,
    0,
    0,
    0,
    0,
    0,
    0,
    0,
    0,
    0,
    0,
    0,
    0,
    0,
    0,
    0,
    0,
    0,
    0,
    0,
    0,
    0,
    0,
    0,
    0,
    0,
    0,
    0,
    0,
    0,
    0,
    0,
    0,
    0,
    0,
    0,
    0,
    0,
    0,
    0,
    0,
    0,
    0,
    0,
    0,
    0,
    0,
    0,
    0,
    0,
    0,
    0,
    0,
    0,
    0,
    0,
    0,
    0,
    0,
    0,
    0,
    0,
    0,
    0,
    0,
    0,
    0,
    0,
    0,
    0,
    0,
    0,
    0,
    0,
    0,
    0,
    0,
    0,
    0,
    0,
    0,
    0,
    0,
    0,
    0,
    0,
    0,
    0,
    0,
    0,
    0,
    0,
    0,
    0,
    0,
    0,
    0,
    0,
    0,
    0,
    0,
    0,
    0,
    0,
    0,
    0,
    0,
    0,
    0,
    0,
    0,
    0,
    0,
    0,
    0,
    0,
    0,
    0,
    0,
    0,
    0,
    0,
    0,
    0,
    0,
    0,
    0,
    0,
    0,
    0,
    0,
    0,
    0,
    0,
    0,
    0,
    0,
    0,
    0,
    0,
    0,
    0,
    0,
    0,
    0,
    0,
    0,
    0,
    0,
    0,
    0,
    0,
    0,
    0,
    0,
    0,
    0,
    0,
    0,
    0,
    0,
    0,
    0,
    0,
    0,
    0,
    0,
    0,
    0,
    0,
    0,
    0,
    0,
    0,
    0,
    0,
    0,
    0,
    0,
    0,
    0,
    0,
    0,
    0,
    0,
    0,
    0,
    0,
    0,
    0,
    0,
    0,
    0,
    0,
    0,
    0,
    0,
    0,
    0,
    0,
    0,
    0,
    0,
    0,
    0,
    0,
    0,
    0,
    0,
    0,
    0,
    0,
    0,
    0,
    0,
    0,
    0,
    0,
    0,
    0,
    0,
    0,
    0,
    0,
    0,
    0,
    0,
    0,
    0,
    0,
    0,
    0,
    0,
    0,
    0,
    0,
    0,
    0,
    0,
    0,
    0,
    0,
    0,
    0,
    0,
    0,
    0,
    0,
    0,
    0,
    0,
    0,
    0,
    0,
    0,
    0,
    0,
    0,
    0,
    0,
    0,
    0,
    0,
    0,
    0,
    0,
    0,
    0,
    0,
    0,
    0,
    0,
    0,
    0,
    0,
    0,
    0,
    0,
    0,
    0,
    0,
    0,
    0,
    0,
    0,
    0,
    0,
    0,
    0,
    0,
    0,
    0,
    0,
    0,
    0,
    0,
    0,
    0,
    0,
    0,
    0,
    0,
    0,
    0,
    0,
    0,
    0,
    0,
    0,
    0,
    0,
    0,
    0,
    0,
    0,
    0,
    0,
    0,
    0,
    0,
    0,
    0,
    0,
    0,
    0,
    0,
    0,
    0,
    0,
    0
   ]
  },
  {
   "id": 90,
   "name": "floorLayer",
   "type": "objectgroup",
   "class": "floorLayer",
   "visible": true,
   "opacity": 1,
   "x": 0,
   "y": 0,
   "draworder": "topdown",
   "objects": [
    {
     "id": 2,
     "name": "video-t01",
     "type": "area",
     "class": "area",
     "x": 160,
     "y": 2816,
     "width": 96,
     "height": 64,
     "rotation": 0,
     "visible": true,
     "ellipse": false,
     "properties": [
      {
       "name": "openWebsite",
       "type": "string",
       "value": "https://www.youtube.com/embed/PgkMgBNo_CQ?autoplay=1&mute=1&loop=1&playlist=PgkMgBNo_CQ"
      },
      {
       "name": "openWebsiteTrigger",
       "type": "string",
       "value": "onaction"
      },
      {
       "name": "openWebsitePolicy",
       "type": "string",
       "value": "autoplay; fullscreen"
      },
      {
       "name": "openWebsiteWidth",
       "type": "int",
       "value": 45
      },
      {
       "name": "focusable",
       "type": "bool",
       "value": true
      }
     ]
    },
    {
     "id": 3,
     "name": "site-t01",
     "type": "area",
     "class": "area",
     "x": 160,
     "y": 2944,
     "width": 64,
     "height": 64,
     "rotation": 0,
     "visible": true,
     "ellipse": false,
     "properties": [
      {
       "name": "openWebsite",
       "type": "string",
       "value": "https://water-delivery-system-prod.vercel.app/"
      },
      {
       "name": "openWebsiteTrigger",
       "type": "string",
       "value": "onaction"
      },
      {
       "name": "openWebsitePolicy",
       "type": "string",
       "value": "autoplay; fullscreen"
      },
      {
       "name": "openWebsiteWidth",
       "type": "int",
       "value": 45
      },
      {
       "name": "focusable",
       "type": "bool",
       "value": true
      }
     ]
    },
    {
     "id": 4,
     "name": "qa-t01",
     "type": "area",
     "class": "area",
     "x": 256,
     "y": 2912,
     "width": 96,
     "height": 96,
     "rotation": 0,
     "visible": true,
     "ellipse": false,
     "properties": [
      {
       "name": "jitsiRoom",
       "type": "string",
       "value": "team-01-booth"
      },
      {
       "name": "jitsiTrigger",
       "type": "string",
       "value": "onaction"
      },
      {
       "name": "jitsiConfig",
       "type": "string",
       "value": "{\"startWithAudioMuted\":true}"
      },
      {
       "name": "focusable",
       "type": "bool",
       "value": true
      }
     ]
    },
    {
     "id": 5,
     "name": "name-t01",
     "type": "",
     "x": 128,
     "y": 3040,
     "width": 256,
     "height": 64,
     "rotation": 0,
     "visible": true,
     "text": {
      "text": "01 · Yay Thal Pya Zat",
      "fontfamily": "Sans Serif",
      "pixelsize": 12,
      "wrap": true,
      "color": "#ffffff",
      "bold": true
     }
    },
    {
     "id": 7,
     "name": "site-t02",
     "type": "area",
     "class": "area",
     "x": 160,
     "y": 2560,
     "width": 64,
     "height": 64,
     "rotation": 0,
     "visible": true,
     "ellipse": false,
     "properties": [
      {
       "name": "openWebsite",
       "type": "string",
       "value": "https://github.com/vibe-code-tours/Team-02-app"
      },
      {
       "name": "openWebsiteTrigger",
       "type": "string",
       "value": "onaction"
      },
      {
       "name": "openWebsitePolicy",
       "type": "string",
       "value": "autoplay; fullscreen"
      },
      {
       "name": "openWebsiteWidth",
       "type": "int",
       "value": 45
      },
      {
       "name": "focusable",
       "type": "bool",
       "value": true
      }
     ]
    },
    {
     "id": 8,
     "name": "qa-t02",
     "type": "area",
     "class": "area",
     "x": 256,
     "y": 2528,
     "width": 96,
     "height": 96,
     "rotation": 0,
     "visible": true,
     "ellipse": false,
     "properties": [
      {
       "name": "jitsiRoom",
       "type": "string",
       "value": "team-02-booth"
      },
      {
       "name": "jitsiTrigger",
       "type": "string",
       "value": "onaction"
      },
      {
       "name": "jitsiConfig",
       "type": "string",
       "value": "{\"startWithAudioMuted\":true}"
      },
      {
       "name": "focusable",
       "type": "bool",
       "value": true
      }
     ]
    },
    {
     "id": 9,
     "name": "name-t02",
     "type": "",
     "x": 128,
     "y": 2656,
     "width": 256,
     "height": 64,
     "rotation": 0,
     "visible": true,
     "text": {
      "text": "02 · SonicSavor",
      "fontfamily": "Sans Serif",
      "pixelsize": 12,
      "wrap": true,
      "color": "#ffffff",
      "bold": true
     }
    },
    {
     "id": 11,
     "name": "video-t03",
     "type": "area",
     "class": "area",
     "x": 160,
     "y": 2048,
     "width": 96,
     "height": 64,
     "rotation": 0,
     "visible": true,
     "ellipse": false,
     "properties": [
      {
       "name": "openWebsite",
       "type": "string",
       "value": "https://www.youtube.com/embed/liQ1GLD-Yjw?autoplay=1&mute=1&loop=1&playlist=liQ1GLD-Yjw"
      },
      {
       "name": "openWebsiteTrigger",
       "type": "string",
       "value": "onaction"
      },
      {
       "name": "openWebsitePolicy",
       "type": "string",
       "value": "autoplay; fullscreen"
      },
      {
       "name": "openWebsiteWidth",
       "type": "int",
       "value": 45
      },
      {
       "name": "focusable",
       "type": "bool",
       "value": true
      }
     ]
    },
    {
     "id": 12,
     "name": "site-t03",
     "type": "area",
     "class": "area",
     "x": 160,
     "y": 2176,
     "width": 64,
     "height": 64,
     "rotation": 0,
     "visible": true,
     "ellipse": false,
     "properties": [
      {
       "name": "openWebsite",
       "type": "string",
       "value": "https://dev.pwe-mm.site/"
      },
      {
       "name": "openWebsiteTrigger",
       "type": "string",
       "value": "onaction"
      },
      {
       "name": "openWebsitePolicy",
       "type": "string",
       "value": "autoplay; fullscreen"
      },
      {
       "name": "openWebsiteWidth",
       "type": "int",
       "value": 45
      },
      {
       "name": "focusable",
       "type": "bool",
       "value": true
      }
     ]
    },
    {
     "id": 13,
     "name": "qa-t03",
     "type": "area",
     "class": "area",
     "x": 256,
     "y": 2144,
     "width": 96,
     "height": 96,
     "rotation": 0,
     "visible": true,
     "ellipse": false,
     "properties": [
      {
       "name": "jitsiRoom",
       "type": "string",
       "value": "team-03-booth"
      },
      {
       "name": "jitsiTrigger",
       "type": "string",
       "value": "onaction"
      },
      {
       "name": "jitsiConfig",
       "type": "string",
       "value": "{\"startWithAudioMuted\":true}"
      },
      {
       "name": "focusable",
       "type": "bool",
       "value": true
      }
     ]
    },
    {
     "id": 14,
     "name": "name-t03",
     "type": "",
     "x": 128,
     "y": 2272,
     "width": 256,
     "height": 64,
     "rotation": 0,
     "visible": true,
     "text": {
      "text": "03 · Pwe",
      "fontfamily": "Sans Serif",
      "pixelsize": 12,
      "wrap": true,
      "color": "#ffffff",
      "bold": true
     }
    },
    {
     "id": 16,
     "name": "video-t04",
     "type": "area",
     "class": "area",
     "x": 160,
     "y": 1664,
     "width": 96,
     "height": 64,
     "rotation": 0,
     "visible": true,
     "ellipse": false,
     "properties": [
      {
       "name": "openWebsite",
       "type": "string",
       "value": "https://www.youtube.com/embed/vUt2PTLdMFk?autoplay=1&mute=1&loop=1&playlist=vUt2PTLdMFk"
      },
      {
       "name": "openWebsiteTrigger",
       "type": "string",
       "value": "onaction"
      },
      {
       "name": "openWebsitePolicy",
       "type": "string",
       "value": "autoplay; fullscreen"
      },
      {
       "name": "openWebsiteWidth",
       "type": "int",
       "value": 45
      },
      {
       "name": "focusable",
       "type": "bool",
       "value": true
      }
     ]
    },
    {
     "id": 17,
     "name": "site-t04",
     "type": "area",
     "class": "area",
     "x": 160,
     "y": 1792,
     "width": 64,
     "height": 64,
     "rotation": 0,
     "visible": true,
     "ellipse": false,
     "properties": [
      {
       "name": "openWebsite",
       "type": "string",
       "value": "https://job-your-love.megiapps.workers.dev/"
      },
      {
       "name": "openWebsiteTrigger",
       "type": "string",
       "value": "onaction"
      },
      {
       "name": "openWebsitePolicy",
       "type": "string",
       "value": "autoplay; fullscreen"
      },
      {
       "name": "openWebsiteWidth",
       "type": "int",
       "value": 45
      },
      {
       "name": "focusable",
       "type": "bool",
       "value": true
      }
     ]
    },
    {
     "id": 18,
     "name": "qa-t04",
     "type": "area",
     "class": "area",
     "x": 256,
     "y": 1760,
     "width": 96,
     "height": 96,
     "rotation": 0,
     "visible": true,
     "ellipse": false,
     "properties": [
      {
       "name": "jitsiRoom",
       "type": "string",
       "value": "team-04-booth"
      },
      {
       "name": "jitsiTrigger",
       "type": "string",
       "value": "onaction"
      },
      {
       "name": "jitsiConfig",
       "type": "string",
       "value": "{\"startWithAudioMuted\":true}"
      },
      {
       "name": "focusable",
       "type": "bool",
       "value": true
      }
     ]
    },
    {
     "id": 19,
     "name": "name-t04",
     "type": "",
     "x": 128,
     "y": 1888,
     "width": 256,
     "height": 64,
     "rotation": 0,
     "visible": true,
     "text": {
      "text": "04 · Job Your Love",
      "fontfamily": "Sans Serif",
      "pixelsize": 12,
      "wrap": true,
      "color": "#ffffff",
      "bold": true
     }
    },
    {
     "id": 21,
     "name": "site-t05",
     "type": "area",
     "class": "area",
     "x": 160,
     "y": 1408,
     "width": 64,
     "height": 64,
     "rotation": 0,
     "visible": true,
     "ellipse": false,
     "properties": [
      {
       "name": "openWebsite",
       "type": "string",
       "value": "https://team-05-app.vercel.app"
      },
      {
       "name": "openWebsiteTrigger",
       "type": "string",
       "value": "onaction"
      },
      {
       "name": "openWebsitePolicy",
       "type": "string",
       "value": "autoplay; fullscreen"
      },
      {
       "name": "openWebsiteWidth",
       "type": "int",
       "value": 45
      },
      {
       "name": "focusable",
       "type": "bool",
       "value": true
      }
     ]
    },
    {
     "id": 22,
     "name": "qa-t05",
     "type": "area",
     "class": "area",
     "x": 256,
     "y": 1376,
     "width": 96,
     "height": 96,
     "rotation": 0,
     "visible": true,
     "ellipse": false,
     "properties": [
      {
       "name": "jitsiRoom",
       "type": "string",
       "value": "team-05-booth"
      },
      {
       "name": "jitsiTrigger",
       "type": "string",
       "value": "onaction"
      },
      {
       "name": "jitsiConfig",
       "type": "string",
       "value": "{\"startWithAudioMuted\":true}"
      },
      {
       "name": "focusable",
       "type": "bool",
       "value": true
      }
     ]
    },
    {
     "id": 23,
     "name": "name-t05",
     "type": "",
     "x": 128,
     "y": 1504,
     "width": 256,
     "height": 64,
     "rotation": 0,
     "visible": true,
     "text": {
      "text": "05 · CrossMart",
      "fontfamily": "Sans Serif",
      "pixelsize": 12,
      "wrap": true,
      "color": "#ffffff",
      "bold": true
     }
    },
    {
     "id": 25,
     "name": "video-t06",
     "type": "area",
     "class": "area",
     "x": 160,
     "y": 896,
     "width": 96,
     "height": 64,
     "rotation": 0,
     "visible": true,
     "ellipse": false,
     "properties": [
      {
       "name": "openWebsite",
       "type": "string",
       "value": "https://www.youtube.com/embed/TYp_2D272RA?autoplay=1&mute=1&loop=1&playlist=TYp_2D272RA"
      },
      {
       "name": "openWebsiteTrigger",
       "type": "string",
       "value": "onaction"
      },
      {
       "name": "openWebsitePolicy",
       "type": "string",
       "value": "autoplay; fullscreen"
      },
      {
       "name": "openWebsiteWidth",
       "type": "int",
       "value": 45
      },
      {
       "name": "focusable",
       "type": "bool",
       "value": true
      }
     ]
    },
    {
     "id": 26,
     "name": "site-t06",
     "type": "area",
     "class": "area",
     "x": 160,
     "y": 1024,
     "width": 64,
     "height": 64,
     "rotation": 0,
     "visible": true,
     "ellipse": false,
     "properties": [
      {
       "name": "openWebsite",
       "type": "string",
       "value": "https://qrdine-demo.vercel.app/"
      },
      {
       "name": "openWebsiteTrigger",
       "type": "string",
       "value": "onaction"
      },
      {
       "name": "openWebsitePolicy",
       "type": "string",
       "value": "autoplay; fullscreen"
      },
      {
       "name": "openWebsiteWidth",
       "type": "int",
       "value": 45
      },
      {
       "name": "focusable",
       "type": "bool",
       "value": true
      }
     ]
    },
    {
     "id": 27,
     "name": "qa-t06",
     "type": "area",
     "class": "area",
     "x": 256,
     "y": 992,
     "width": 96,
     "height": 96,
     "rotation": 0,
     "visible": true,
     "ellipse": false,
     "properties": [
      {
       "name": "jitsiRoom",
       "type": "string",
       "value": "team-06-booth"
      },
      {
       "name": "jitsiTrigger",
       "type": "string",
       "value": "onaction"
      },
      {
       "name": "jitsiConfig",
       "type": "string",
       "value": "{\"startWithAudioMuted\":true}"
      },
      {
       "name": "focusable",
       "type": "bool",
       "value": true
      }
     ]
    },
    {
     "id": 28,
     "name": "name-t06",
     "type": "",
     "x": 128,
     "y": 1120,
     "width": 256,
     "height": 64,
     "rotation": 0,
     "visible": true,
     "text": {
      "text": "06 · QRDine",
      "fontfamily": "Sans Serif",
      "pixelsize": 12,
      "wrap": true,
      "color": "#ffffff",
      "bold": true
     }
    },
    {
     "id": 30,
     "name": "video-t07",
     "type": "area",
     "class": "area",
     "x": 160,
     "y": 512,
     "width": 96,
     "height": 64,
     "rotation": 0,
     "visible": true,
     "ellipse": false,
     "properties": [
      {
       "name": "openWebsite",
       "type": "string",
       "value": "https://www.youtube.com/embed/l21W5o0iajs?autoplay=1&mute=1&loop=1&playlist=l21W5o0iajs"
      },
      {
       "name": "openWebsiteTrigger",
       "type": "string",
       "value": "onaction"
      },
      {
       "name": "openWebsitePolicy",
       "type": "string",
       "value": "autoplay; fullscreen"
      },
      {
       "name": "openWebsiteWidth",
       "type": "int",
       "value": 45
      },
      {
       "name": "focusable",
       "type": "bool",
       "value": true
      }
     ]
    },
    {
     "id": 31,
     "name": "site-t07",
     "type": "area",
     "class": "area",
     "x": 160,
     "y": 640,
     "width": 64,
     "height": 64,
     "rotation": 0,
     "visible": true,
     "ellipse": false,
     "properties": [
      {
       "name": "openWebsite",
       "type": "string",
       "value": "https://argus-scanner.duckdns.org/"
      },
      {
       "name": "openWebsiteTrigger",
       "type": "string",
       "value": "onaction"
      },
      {
       "name": "openWebsitePolicy",
       "type": "string",
       "value": "autoplay; fullscreen"
      },
      {
       "name": "openWebsiteWidth",
       "type": "int",
       "value": 45
      },
      {
       "name": "focusable",
       "type": "bool",
       "value": true
      }
     ]
    },
    {
     "id": 32,
     "name": "qa-t07",
     "type": "area",
     "class": "area",
     "x": 256,
     "y": 608,
     "width": 96,
     "height": 96,
     "rotation": 0,
     "visible": true,
     "ellipse": false,
     "properties": [
      {
       "name": "jitsiRoom",
       "type": "string",
       "value": "team-07-booth"
      },
      {
       "name": "jitsiTrigger",
       "type": "string",
       "value": "onaction"
      },
      {
       "name": "jitsiConfig",
       "type": "string",
       "value": "{\"startWithAudioMuted\":true}"
      },
      {
       "name": "focusable",
       "type": "bool",
       "value": true
      }
     ]
    },
    {
     "id": 33,
     "name": "name-t07",
     "type": "",
     "x": 128,
     "y": 736,
     "width": 256,
     "height": 64,
     "rotation": 0,
     "visible": true,
     "text": {
      "text": "07 · ARGUS",
      "fontfamily": "Sans Serif",
      "pixelsize": 12,
      "wrap": true,
      "color": "#ffffff",
      "bold": true
     }
    },
    {
     "id": 35,
     "name": "video-t08",
     "type": "area",
     "class": "area",
     "x": 512,
     "y": 512,
     "width": 96,
     "height": 64,
     "rotation": 0,
     "visible": true,
     "ellipse": false,
     "properties": [
      {
       "name": "openWebsite",
       "type": "string",
       "value": "https://www.youtube.com/embed/8BOzHHbaYcY?autoplay=1&mute=1&loop=1&playlist=8BOzHHbaYcY"
      },
      {
       "name": "openWebsiteTrigger",
       "type": "string",
       "value": "onaction"
      },
      {
       "name": "openWebsitePolicy",
       "type": "string",
       "value": "autoplay; fullscreen"
      },
      {
       "name": "openWebsiteWidth",
       "type": "int",
       "value": 45
      },
      {
       "name": "focusable",
       "type": "bool",
       "value": true
      }
     ]
    },
    {
     "id": 36,
     "name": "site-t08",
     "type": "area",
     "class": "area",
     "x": 512,
     "y": 640,
     "width": 64,
     "height": 64,
     "rotation": 0,
     "visible": true,
     "ellipse": false,
     "properties": [
      {
       "name": "openWebsite",
       "type": "string",
       "value": "https://vibecode.tours/team-08-app/"
      },
      {
       "name": "openWebsiteTrigger",
       "type": "string",
       "value": "onaction"
      },
      {
       "name": "openWebsitePolicy",
       "type": "string",
       "value": "autoplay; fullscreen"
      },
      {
       "name": "openWebsiteWidth",
       "type": "int",
       "value": 45
      },
      {
       "name": "focusable",
       "type": "bool",
       "value": true
      }
     ]
    },
    {
     "id": 37,
     "name": "qa-t08",
     "type": "area",
     "class": "area",
     "x": 608,
     "y": 608,
     "width": 96,
     "height": 96,
     "rotation": 0,
     "visible": true,
     "ellipse": false,
     "properties": [
      {
       "name": "jitsiRoom",
       "type": "string",
       "value": "team-08-booth"
      },
      {
       "name": "jitsiTrigger",
       "type": "string",
       "value": "onaction"
      },
      {
       "name": "jitsiConfig",
       "type": "string",
       "value": "{\"startWithAudioMuted\":true}"
      },
      {
       "name": "focusable",
       "type": "bool",
       "value": true
      }
     ]
    },
    {
     "id": 38,
     "name": "name-t08",
     "type": "",
     "x": 480,
     "y": 736,
     "width": 256,
     "height": 64,
     "rotation": 0,
     "visible": true,
     "text": {
      "text": "08 · TheChosenOne",
      "fontfamily": "Sans Serif",
      "pixelsize": 12,
      "wrap": true,
      "color": "#ffffff",
      "bold": true
     }
    },
    {
     "id": 40,
     "name": "video-t09",
     "type": "area",
     "class": "area",
     "x": 864,
     "y": 512,
     "width": 96,
     "height": 64,
     "rotation": 0,
     "visible": true,
     "ellipse": false,
     "properties": [
      {
       "name": "openWebsite",
       "type": "string",
       "value": "https://www.youtube.com/embed/KDyi62aT0LM?autoplay=1&mute=1&loop=1&playlist=KDyi62aT0LM"
      },
      {
       "name": "openWebsiteTrigger",
       "type": "string",
       "value": "onaction"
      },
      {
       "name": "openWebsitePolicy",
       "type": "string",
       "value": "autoplay; fullscreen"
      },
      {
       "name": "openWebsiteWidth",
       "type": "int",
       "value": 45
      },
      {
       "name": "focusable",
       "type": "bool",
       "value": true
      }
     ]
    },
    {
     "id": 41,
     "name": "site-t09",
     "type": "area",
     "class": "area",
     "x": 864,
     "y": 640,
     "width": 64,
     "height": 64,
     "rotation": 0,
     "visible": true,
     "ellipse": false,
     "properties": [
      {
       "name": "openWebsite",
       "type": "string",
       "value": "https://expo.dev/accounts/thet-naing/projects/mhat-tan/builds/6932f97e-ac8b-4fb2-98ef-0a07fbccef21"
      },
      {
       "name": "openWebsiteTrigger",
       "type": "string",
       "value": "onaction"
      },
      {
       "name": "openWebsitePolicy",
       "type": "string",
       "value": "autoplay; fullscreen"
      },
      {
       "name": "openWebsiteWidth",
       "type": "int",
       "value": 45
      },
      {
       "name": "focusable",
       "type": "bool",
       "value": true
      }
     ]
    },
    {
     "id": 42,
     "name": "qa-t09",
     "type": "area",
     "class": "area",
     "x": 960,
     "y": 608,
     "width": 96,
     "height": 96,
     "rotation": 0,
     "visible": true,
     "ellipse": false,
     "properties": [
      {
       "name": "jitsiRoom",
       "type": "string",
       "value": "team-09-booth"
      },
      {
       "name": "jitsiTrigger",
       "type": "string",
       "value": "onaction"
      },
      {
       "name": "jitsiConfig",
       "type": "string",
       "value": "{\"startWithAudioMuted\":true}"
      },
      {
       "name": "focusable",
       "type": "bool",
       "value": true
      }
     ]
    },
    {
     "id": 43,
     "name": "name-t09",
     "type": "",
     "x": 832,
     "y": 736,
     "width": 256,
     "height": 64,
     "rotation": 0,
     "visible": true,
     "text": {
      "text": "09 · Mhat Tan",
      "fontfamily": "Sans Serif",
      "pixelsize": 12,
      "wrap": true,
      "color": "#ffffff",
      "bold": true
     }
    },
    {
     "id": 45,
     "name": "video-t10",
     "type": "area",
     "class": "area",
     "x": 1216,
     "y": 512,
     "width": 96,
     "height": 64,
     "rotation": 0,
     "visible": true,
     "ellipse": false,
     "properties": [
      {
       "name": "openWebsite",
       "type": "string",
       "value": "https://www.youtube.com/embed/Ri1Lsn1pFu4?autoplay=1&mute=1&loop=1&playlist=Ri1Lsn1pFu4"
      },
      {
       "name": "openWebsiteTrigger",
       "type": "string",
       "value": "onaction"
      },
      {
       "name": "openWebsitePolicy",
       "type": "string",
       "value": "autoplay; fullscreen"
      },
      {
       "name": "openWebsiteWidth",
       "type": "int",
       "value": 45
      },
      {
       "name": "focusable",
       "type": "bool",
       "value": true
      }
     ]
    },
    {
     "id": 46,
     "name": "site-t10",
     "type": "area",
     "class": "area",
     "x": 1216,
     "y": 640,
     "width": 64,
     "height": 64,
     "rotation": 0,
     "visible": true,
     "ellipse": false,
     "properties": [
      {
       "name": "openWebsite",
       "type": "string",
       "value": "https://yoeyarzay.vercel.app/"
      },
      {
       "name": "openWebsiteTrigger",
       "type": "string",
       "value": "onaction"
      },
      {
       "name": "openWebsitePolicy",
       "type": "string",
       "value": "autoplay; fullscreen"
      },
      {
       "name": "openWebsiteWidth",
       "type": "int",
       "value": 45
      },
      {
       "name": "focusable",
       "type": "bool",
       "value": true
      }
     ]
    },
    {
     "id": 47,
     "name": "qa-t10",
     "type": "area",
     "class": "area",
     "x": 1312,
     "y": 608,
     "width": 96,
     "height": 96,
     "rotation": 0,
     "visible": true,
     "ellipse": false,
     "properties": [
      {
       "name": "jitsiRoom",
       "type": "string",
       "value": "team-10-booth"
      },
      {
       "name": "jitsiTrigger",
       "type": "string",
       "value": "onaction"
      },
      {
       "name": "jitsiConfig",
       "type": "string",
       "value": "{\"startWithAudioMuted\":true}"
      },
      {
       "name": "focusable",
       "type": "bool",
       "value": true
      }
     ]
    },
    {
     "id": 48,
     "name": "name-t10",
     "type": "",
     "x": 1184,
     "y": 736,
     "width": 256,
     "height": 64,
     "rotation": 0,
     "visible": true,
     "text": {
      "text": "10 · Yoe Yar Zay",
      "fontfamily": "Sans Serif",
      "pixelsize": 12,
      "wrap": true,
      "color": "#ffffff",
      "bold": true
     }
    },
    {
     "id": 50,
     "name": "video-t11",
     "type": "area",
     "class": "area",
     "x": 1568,
     "y": 512,
     "width": 96,
     "height": 64,
     "rotation": 0,
     "visible": true,
     "ellipse": false,
     "properties": [
      {
       "name": "openWebsite",
       "type": "string",
       "value": "https://www.youtube.com/embed/uN-XO4f1miA?autoplay=1&mute=1&loop=1&playlist=uN-XO4f1miA"
      },
      {
       "name": "openWebsiteTrigger",
       "type": "string",
       "value": "onaction"
      },
      {
       "name": "openWebsitePolicy",
       "type": "string",
       "value": "autoplay; fullscreen"
      },
      {
       "name": "openWebsiteWidth",
       "type": "int",
       "value": 45
      },
      {
       "name": "focusable",
       "type": "bool",
       "value": true
      }
     ]
    },
    {
     "id": 51,
     "name": "site-t11",
     "type": "area",
     "class": "area",
     "x": 1568,
     "y": 640,
     "width": 64,
     "height": 64,
     "rotation": 0,
     "visible": true,
     "ellipse": false,
     "properties": [
      {
       "name": "openWebsite",
       "type": "string",
       "value": "https://personal-analytics-amber.vercel.app/"
      },
      {
       "name": "openWebsiteTrigger",
       "type": "string",
       "value": "onaction"
      },
      {
       "name": "openWebsitePolicy",
       "type": "string",
       "value": "autoplay; fullscreen"
      },
      {
       "name": "openWebsiteWidth",
       "type": "int",
       "value": 45
      },
      {
       "name": "focusable",
       "type": "bool",
       "value": true
      }
     ]
    },
    {
     "id": 52,
     "name": "qa-t11",
     "type": "area",
     "class": "area",
     "x": 1664,
     "y": 608,
     "width": 96,
     "height": 96,
     "rotation": 0,
     "visible": true,
     "ellipse": false,
     "properties": [
      {
       "name": "jitsiRoom",
       "type": "string",
       "value": "team-11-booth"
      },
      {
       "name": "jitsiTrigger",
       "type": "string",
       "value": "onaction"
      },
      {
       "name": "jitsiConfig",
       "type": "string",
       "value": "{\"startWithAudioMuted\":true}"
      },
      {
       "name": "focusable",
       "type": "bool",
       "value": true
      }
     ]
    },
    {
     "id": 53,
     "name": "name-t11",
     "type": "",
     "x": 1536,
     "y": 736,
     "width": 256,
     "height": 64,
     "rotation": 0,
     "visible": true,
     "text": {
      "text": "11 · Personal Analytics",
      "fontfamily": "Sans Serif",
      "pixelsize": 12,
      "wrap": true,
      "color": "#ffffff",
      "bold": true
     }
    },
    {
     "id": 55,
     "name": "video-t12",
     "type": "area",
     "class": "area",
     "x": 1920,
     "y": 512,
     "width": 96,
     "height": 64,
     "rotation": 0,
     "visible": true,
     "ellipse": false,
     "properties": [
      {
       "name": "openWebsite",
       "type": "string",
       "value": "https://www.youtube.com/embed/yt_O3LG9xvU?autoplay=1&mute=1&loop=1&playlist=yt_O3LG9xvU"
      },
      {
       "name": "openWebsiteTrigger",
       "type": "string",
       "value": "onaction"
      },
      {
       "name": "openWebsitePolicy",
       "type": "string",
       "value": "autoplay; fullscreen"
      },
      {
       "name": "openWebsiteWidth",
       "type": "int",
       "value": 45
      },
      {
       "name": "focusable",
       "type": "bool",
       "value": true
      }
     ]
    },
    {
     "id": 56,
     "name": "site-t12",
     "type": "area",
     "class": "area",
     "x": 1920,
     "y": 640,
     "width": 64,
     "height": 64,
     "rotation": 0,
     "visible": true,
     "ellipse": false,
     "properties": [
      {
       "name": "openWebsite",
       "type": "string",
       "value": "https://dr-note-demo.vercel.app/login"
      },
      {
       "name": "openWebsiteTrigger",
       "type": "string",
       "value": "onaction"
      },
      {
       "name": "openWebsitePolicy",
       "type": "string",
       "value": "autoplay; fullscreen"
      },
      {
       "name": "openWebsiteWidth",
       "type": "int",
       "value": 45
      },
      {
       "name": "focusable",
       "type": "bool",
       "value": true
      }
     ]
    },
    {
     "id": 57,
     "name": "qa-t12",
     "type": "area",
     "class": "area",
     "x": 2016,
     "y": 608,
     "width": 96,
     "height": 96,
     "rotation": 0,
     "visible": true,
     "ellipse": false,
     "properties": [
      {
       "name": "jitsiRoom",
       "type": "string",
       "value": "team-12-booth"
      },
      {
       "name": "jitsiTrigger",
       "type": "string",
       "value": "onaction"
      },
      {
       "name": "jitsiConfig",
       "type": "string",
       "value": "{\"startWithAudioMuted\":true}"
      },
      {
       "name": "focusable",
       "type": "bool",
       "value": true
      }
     ]
    },
    {
     "id": 58,
     "name": "name-t12",
     "type": "",
     "x": 1888,
     "y": 736,
     "width": 256,
     "height": 64,
     "rotation": 0,
     "visible": true,
     "text": {
      "text": "12 · Dr.Note",
      "fontfamily": "Sans Serif",
      "pixelsize": 12,
      "wrap": true,
      "color": "#ffffff",
      "bold": true
     }
    },
    {
     "id": 60,
     "name": "video-t13",
     "type": "area",
     "class": "area",
     "x": 2272,
     "y": 512,
     "width": 96,
     "height": 64,
     "rotation": 0,
     "visible": true,
     "ellipse": false,
     "properties": [
      {
       "name": "openWebsite",
       "type": "string",
       "value": "https://www.youtube.com/embed/ixVA1mZvpTI?autoplay=1&mute=1&loop=1&playlist=ixVA1mZvpTI"
      },
      {
       "name": "openWebsiteTrigger",
       "type": "string",
       "value": "onaction"
      },
      {
       "name": "openWebsitePolicy",
       "type": "string",
       "value": "autoplay; fullscreen"
      },
      {
       "name": "openWebsiteWidth",
       "type": "int",
       "value": 45
      },
      {
       "name": "focusable",
       "type": "bool",
       "value": true
      }
     ]
    },
    {
     "id": 61,
     "name": "site-t13",
     "type": "area",
     "class": "area",
     "x": 2272,
     "y": 640,
     "width": 64,
     "height": 64,
     "rotation": 0,
     "visible": true,
     "ellipse": false,
     "properties": [
      {
       "name": "openWebsite",
       "type": "string",
       "value": "https://auto-apply-pied.vercel.app/"
      },
      {
       "name": "openWebsiteTrigger",
       "type": "string",
       "value": "onaction"
      },
      {
       "name": "openWebsitePolicy",
       "type": "string",
       "value": "autoplay; fullscreen"
      },
      {
       "name": "openWebsiteWidth",
       "type": "int",
       "value": 45
      },
      {
       "name": "focusable",
       "type": "bool",
       "value": true
      }
     ]
    },
    {
     "id": 62,
     "name": "qa-t13",
     "type": "area",
     "class": "area",
     "x": 2368,
     "y": 608,
     "width": 96,
     "height": 96,
     "rotation": 0,
     "visible": true,
     "ellipse": false,
     "properties": [
      {
       "name": "jitsiRoom",
       "type": "string",
       "value": "team-13-booth"
      },
      {
       "name": "jitsiTrigger",
       "type": "string",
       "value": "onaction"
      },
      {
       "name": "jitsiConfig",
       "type": "string",
       "value": "{\"startWithAudioMuted\":true}"
      },
      {
       "name": "focusable",
       "type": "bool",
       "value": true
      }
     ]
    },
    {
     "id": 63,
     "name": "name-t13",
     "type": "",
     "x": 2240,
     "y": 736,
     "width": 256,
     "height": 64,
     "rotation": 0,
     "visible": true,
     "text": {
      "text": "13 · Auto Apply",
      "fontfamily": "Sans Serif",
      "pixelsize": 12,
      "wrap": true,
      "color": "#ffffff",
      "bold": true
     }
    },
    {
     "id": 65,
     "name": "video-t14",
     "type": "area",
     "class": "area",
     "x": 2624,
     "y": 512,
     "width": 96,
     "height": 64,
     "rotation": 0,
     "visible": true,
     "ellipse": false,
     "properties": [
      {
       "name": "openWebsite",
       "type": "string",
       "value": "https://www.youtube.com/embed/Eob5ethv_QA?autoplay=1&mute=1&loop=1&playlist=Eob5ethv_QA"
      },
      {
       "name": "openWebsiteTrigger",
       "type": "string",
       "value": "onaction"
      },
      {
       "name": "openWebsitePolicy",
       "type": "string",
       "value": "autoplay; fullscreen"
      },
      {
       "name": "openWebsiteWidth",
       "type": "int",
       "value": 45
      },
      {
       "name": "focusable",
       "type": "bool",
       "value": true
      }
     ]
    },
    {
     "id": 66,
     "name": "site-t14",
     "type": "area",
     "class": "area",
     "x": 2624,
     "y": 640,
     "width": 64,
     "height": 64,
     "rotation": 0,
     "visible": true,
     "ellipse": false,
     "properties": [
      {
       "name": "openWebsite",
       "type": "string",
       "value": "https://workervoice.help/"
      },
      {
       "name": "openWebsiteTrigger",
       "type": "string",
       "value": "onaction"
      },
      {
       "name": "openWebsitePolicy",
       "type": "string",
       "value": "autoplay; fullscreen"
      },
      {
       "name": "openWebsiteWidth",
       "type": "int",
       "value": 45
      },
      {
       "name": "focusable",
       "type": "bool",
       "value": true
      }
     ]
    },
    {
     "id": 67,
     "name": "qa-t14",
     "type": "area",
     "class": "area",
     "x": 2720,
     "y": 608,
     "width": 96,
     "height": 96,
     "rotation": 0,
     "visible": true,
     "ellipse": false,
     "properties": [
      {
       "name": "jitsiRoom",
       "type": "string",
       "value": "team-14-booth"
      },
      {
       "name": "jitsiTrigger",
       "type": "string",
       "value": "onaction"
      },
      {
       "name": "jitsiConfig",
       "type": "string",
       "value": "{\"startWithAudioMuted\":true}"
      },
      {
       "name": "focusable",
       "type": "bool",
       "value": true
      }
     ]
    },
    {
     "id": 68,
     "name": "name-t14",
     "type": "",
     "x": 2592,
     "y": 736,
     "width": 256,
     "height": 64,
     "rotation": 0,
     "visible": true,
     "text": {
      "text": "14 · Worker Voice",
      "fontfamily": "Sans Serif",
      "pixelsize": 12,
      "wrap": true,
      "color": "#ffffff",
      "bold": true
     }
    },
    {
     "id": 70,
     "name": "video-t15",
     "type": "area",
     "class": "area",
     "x": 2624,
     "y": 896,
     "width": 96,
     "height": 64,
     "rotation": 0,
     "visible": true,
     "ellipse": false,
     "properties": [
      {
       "name": "openWebsite",
       "type": "string",
       "value": "https://www.youtube.com/embed/lk3owT9c5NU?autoplay=1&mute=1&loop=1&playlist=lk3owT9c5NU"
      },
      {
       "name": "openWebsiteTrigger",
       "type": "string",
       "value": "onaction"
      },
      {
       "name": "openWebsitePolicy",
       "type": "string",
       "value": "autoplay; fullscreen"
      },
      {
       "name": "openWebsiteWidth",
       "type": "int",
       "value": 45
      },
      {
       "name": "focusable",
       "type": "bool",
       "value": true
      }
     ]
    },
    {
     "id": 71,
     "name": "site-t15",
     "type": "area",
     "class": "area",
     "x": 2624,
     "y": 1024,
     "width": 64,
     "height": 64,
     "rotation": 0,
     "visible": true,
     "ellipse": false,
     "properties": [
      {
       "name": "openWebsite",
       "type": "string",
       "value": "https://team-15-app.vercel.app/"
      },
      {
       "name": "openWebsiteTrigger",
       "type": "string",
       "value": "onaction"
      },
      {
       "name": "openWebsitePolicy",
       "type": "string",
       "value": "autoplay; fullscreen"
      },
      {
       "name": "openWebsiteWidth",
       "type": "int",
       "value": 45
      },
      {
       "name": "focusable",
       "type": "bool",
       "value": true
      }
     ]
    },
    {
     "id": 72,
     "name": "qa-t15",
     "type": "area",
     "class": "area",
     "x": 2720,
     "y": 992,
     "width": 96,
     "height": 96,
     "rotation": 0,
     "visible": true,
     "ellipse": false,
     "properties": [
      {
       "name": "jitsiRoom",
       "type": "string",
       "value": "team-15-booth"
      },
      {
       "name": "jitsiTrigger",
       "type": "string",
       "value": "onaction"
      },
      {
       "name": "jitsiConfig",
       "type": "string",
       "value": "{\"startWithAudioMuted\":true}"
      },
      {
       "name": "focusable",
       "type": "bool",
       "value": true
      }
     ]
    },
    {
     "id": 73,
     "name": "name-t15",
     "type": "",
     "x": 2592,
     "y": 1120,
     "width": 256,
     "height": 64,
     "rotation": 0,
     "visible": true,
     "text": {
      "text": "15 · ReVive",
      "fontfamily": "Sans Serif",
      "pixelsize": 12,
      "wrap": true,
      "color": "#ffffff",
      "bold": true
     }
    },
    {
     "id": 75,
     "name": "video-t16",
     "type": "area",
     "class": "area",
     "x": 2624,
     "y": 1280,
     "width": 96,
     "height": 64,
     "rotation": 0,
     "visible": true,
     "ellipse": false,
     "properties": [
      {
       "name": "openWebsite",
       "type": "string",
       "value": "https://www.youtube.com/embed/dpZXsGV3w5s?autoplay=1&mute=1&loop=1&playlist=dpZXsGV3w5s"
      },
      {
       "name": "openWebsiteTrigger",
       "type": "string",
       "value": "onaction"
      },
      {
       "name": "openWebsitePolicy",
       "type": "string",
       "value": "autoplay; fullscreen"
      },
      {
       "name": "openWebsiteWidth",
       "type": "int",
       "value": 45
      },
      {
       "name": "focusable",
       "type": "bool",
       "value": true
      }
     ]
    },
    {
     "id": 76,
     "name": "site-t16",
     "type": "area",
     "class": "area",
     "x": 2624,
     "y": 1408,
     "width": 64,
     "height": 64,
     "rotation": 0,
     "visible": true,
     "ellipse": false,
     "properties": [
      {
       "name": "openWebsite",
       "type": "string",
       "value": "https://nerdquiz-16.netlify.app"
      },
      {
       "name": "openWebsiteTrigger",
       "type": "string",
       "value": "onaction"
      },
      {
       "name": "openWebsitePolicy",
       "type": "string",
       "value": "autoplay; fullscreen"
      },
      {
       "name": "openWebsiteWidth",
       "type": "int",
       "value": 45
      },
      {
       "name": "focusable",
       "type": "bool",
       "value": true
      }
     ]
    },
    {
     "id": 77,
     "name": "qa-t16",
     "type": "area",
     "class": "area",
     "x": 2720,
     "y": 1376,
     "width": 96,
     "height": 96,
     "rotation": 0,
     "visible": true,
     "ellipse": false,
     "properties": [
      {
       "name": "jitsiRoom",
       "type": "string",
       "value": "team-16-booth"
      },
      {
       "name": "jitsiTrigger",
       "type": "string",
       "value": "onaction"
      },
      {
       "name": "jitsiConfig",
       "type": "string",
       "value": "{\"startWithAudioMuted\":true}"
      },
      {
       "name": "focusable",
       "type": "bool",
       "value": true
      }
     ]
    },
    {
     "id": 78,
     "name": "name-t16",
     "type": "",
     "x": 2592,
     "y": 1504,
     "width": 256,
     "height": 64,
     "rotation": 0,
     "visible": true,
     "text": {
      "text": "16 · NerdQuiz",
      "fontfamily": "Sans Serif",
      "pixelsize": 12,
      "wrap": true,
      "color": "#ffffff",
      "bold": true
     }
    },
    {
     "id": 80,
     "name": "video-t17",
     "type": "area",
     "class": "area",
     "x": 2624,
     "y": 1664,
     "width": 96,
     "height": 64,
     "rotation": 0,
     "visible": true,
     "ellipse": false,
     "properties": [
      {
       "name": "openWebsite",
       "type": "string",
       "value": "https://www.youtube.com/embed/mSDow1yT1nY?autoplay=1&mute=1&loop=1&playlist=mSDow1yT1nY"
      },
      {
       "name": "openWebsiteTrigger",
       "type": "string",
       "value": "onaction"
      },
      {
       "name": "openWebsitePolicy",
       "type": "string",
       "value": "autoplay; fullscreen"
      },
      {
       "name": "openWebsiteWidth",
       "type": "int",
       "value": 45
      },
      {
       "name": "focusable",
       "type": "bool",
       "value": true
      }
     ]
    },
    {
     "id": 81,
     "name": "site-t17",
     "type": "area",
     "class": "area",
     "x": 2624,
     "y": 1792,
     "width": 64,
     "height": 64,
     "rotation": 0,
     "visible": true,
     "ellipse": false,
     "properties": [
      {
       "name": "openWebsite",
       "type": "string",
       "value": "https://team-17-app-dulg.vercel.app"
      },
      {
       "name": "openWebsiteTrigger",
       "type": "string",
       "value": "onaction"
      },
      {
       "name": "openWebsitePolicy",
       "type": "string",
       "value": "autoplay; fullscreen"
      },
      {
       "name": "openWebsiteWidth",
       "type": "int",
       "value": 45
      },
      {
       "name": "focusable",
       "type": "bool",
       "value": true
      }
     ]
    },
    {
     "id": 82,
     "name": "qa-t17",
     "type": "area",
     "class": "area",
     "x": 2720,
     "y": 1760,
     "width": 96,
     "height": 96,
     "rotation": 0,
     "visible": true,
     "ellipse": false,
     "properties": [
      {
       "name": "jitsiRoom",
       "type": "string",
       "value": "team-17-booth"
      },
      {
       "name": "jitsiTrigger",
       "type": "string",
       "value": "onaction"
      },
      {
       "name": "jitsiConfig",
       "type": "string",
       "value": "{\"startWithAudioMuted\":true}"
      },
      {
       "name": "focusable",
       "type": "bool",
       "value": true
      }
     ]
    },
    {
     "id": 83,
     "name": "name-t17",
     "type": "",
     "x": 2592,
     "y": 1888,
     "width": 256,
     "height": 64,
     "rotation": 0,
     "visible": true,
     "text": {
      "text": "17 · Adaptive Interview Assessment Platform",
      "fontfamily": "Sans Serif",
      "pixelsize": 12,
      "wrap": true,
      "color": "#ffffff",
      "bold": true
     }
    },
    {
     "id": 85,
     "name": "video-t18",
     "type": "area",
     "class": "area",
     "x": 2624,
     "y": 2048,
     "width": 96,
     "height": 64,
     "rotation": 0,
     "visible": true,
     "ellipse": false,
     "properties": [
      {
       "name": "openWebsite",
       "type": "string",
       "value": "https://www.youtube.com/embed/N66wR8bJDZU?autoplay=1&mute=1&loop=1&playlist=N66wR8bJDZU"
      },
      {
       "name": "openWebsiteTrigger",
       "type": "string",
       "value": "onaction"
      },
      {
       "name": "openWebsitePolicy",
       "type": "string",
       "value": "autoplay; fullscreen"
      },
      {
       "name": "openWebsiteWidth",
       "type": "int",
       "value": 45
      },
      {
       "name": "focusable",
       "type": "bool",
       "value": true
      }
     ]
    },
    {
     "id": 86,
     "name": "site-t18",
     "type": "area",
     "class": "area",
     "x": 2624,
     "y": 2176,
     "width": 64,
     "height": 64,
     "rotation": 0,
     "visible": true,
     "ellipse": false,
     "properties": [
      {
       "name": "openWebsite",
       "type": "string",
       "value": "https://fraud-awareness-hub-sable.vercel.app/"
      },
      {
       "name": "openWebsiteTrigger",
       "type": "string",
       "value": "onaction"
      },
      {
       "name": "openWebsitePolicy",
       "type": "string",
       "value": "autoplay; fullscreen"
      },
      {
       "name": "openWebsiteWidth",
       "type": "int",
       "value": 45
      },
      {
       "name": "focusable",
       "type": "bool",
       "value": true
      }
     ]
    },
    {
     "id": 87,
     "name": "qa-t18",
     "type": "area",
     "class": "area",
     "x": 2720,
     "y": 2144,
     "width": 96,
     "height": 96,
     "rotation": 0,
     "visible": true,
     "ellipse": false,
     "properties": [
      {
       "name": "jitsiRoom",
       "type": "string",
       "value": "team-18-booth"
      },
      {
       "name": "jitsiTrigger",
       "type": "string",
       "value": "onaction"
      },
      {
       "name": "jitsiConfig",
       "type": "string",
       "value": "{\"startWithAudioMuted\":true}"
      },
      {
       "name": "focusable",
       "type": "bool",
       "value": true
      }
     ]
    },
    {
     "id": 88,
     "name": "name-t18",
     "type": "",
     "x": 2592,
     "y": 2272,
     "width": 256,
     "height": 64,
     "rotation": 0,
     "visible": true,
     "text": {
      "text": "18 · Fraud Awareness Hub",
      "fontfamily": "Sans Serif",
      "pixelsize": 12,
      "wrap": true,
      "color": "#ffffff",
      "bold": true
     }
    },
    {
     "id": 90,
     "name": "video-t19",
     "type": "area",
     "class": "area",
     "x": 2624,
     "y": 2432,
     "width": 96,
     "height": 64,
     "rotation": 0,
     "visible": true,
     "ellipse": false,
     "properties": [
      {
       "name": "openWebsite",
       "type": "string",
       "value": "https://www.youtube.com/embed/rKaBqSJWF9s?autoplay=1&mute=1&loop=1&playlist=rKaBqSJWF9s"
      },
      {
       "name": "openWebsiteTrigger",
       "type": "string",
       "value": "onaction"
      },
      {
       "name": "openWebsitePolicy",
       "type": "string",
       "value": "autoplay; fullscreen"
      },
      {
       "name": "openWebsiteWidth",
       "type": "int",
       "value": 45
      },
      {
       "name": "focusable",
       "type": "bool",
       "value": true
      }
     ]
    },
    {
     "id": 91,
     "name": "site-t19",
     "type": "area",
     "class": "area",
     "x": 2624,
     "y": 2560,
     "width": 64,
     "height": 64,
     "rotation": 0,
     "visible": true,
     "ellipse": false,
     "properties": [
      {
       "name": "openWebsite",
       "type": "string",
       "value": "https://soul-script-nu.vercel.app/"
      },
      {
       "name": "openWebsiteTrigger",
       "type": "string",
       "value": "onaction"
      },
      {
       "name": "openWebsitePolicy",
       "type": "string",
       "value": "autoplay; fullscreen"
      },
      {
       "name": "openWebsiteWidth",
       "type": "int",
       "value": 45
      },
      {
       "name": "focusable",
       "type": "bool",
       "value": true
      }
     ]
    },
    {
     "id": 92,
     "name": "qa-t19",
     "type": "area",
     "class": "area",
     "x": 2720,
     "y": 2528,
     "width": 96,
     "height": 96,
     "rotation": 0,
     "visible": true,
     "ellipse": false,
     "properties": [
      {
       "name": "jitsiRoom",
       "type": "string",
       "value": "team-19-booth"
      },
      {
       "name": "jitsiTrigger",
       "type": "string",
       "value": "onaction"
      },
      {
       "name": "jitsiConfig",
       "type": "string",
       "value": "{\"startWithAudioMuted\":true}"
      },
      {
       "name": "focusable",
       "type": "bool",
       "value": true
      }
     ]
    },
    {
     "id": 93,
     "name": "name-t19",
     "type": "",
     "x": 2592,
     "y": 2656,
     "width": 256,
     "height": 64,
     "rotation": 0,
     "visible": true,
     "text": {
      "text": "19 · SoulScript",
      "fontfamily": "Sans Serif",
      "pixelsize": 12,
      "wrap": true,
      "color": "#ffffff",
      "bold": true
     }
    },
    {
     "id": 95,
     "name": "video-t20",
     "type": "area",
     "class": "area",
     "x": 2624,
     "y": 2816,
     "width": 96,
     "height": 64,
     "rotation": 0,
     "visible": true,
     "ellipse": false,
     "properties": [
      {
       "name": "openWebsite",
       "type": "string",
       "value": "https://www.youtube.com/embed/Dha-jETmrks?autoplay=1&mute=1&loop=1&playlist=Dha-jETmrks"
      },
      {
       "name": "openWebsiteTrigger",
       "type": "string",
       "value": "onaction"
      },
      {
       "name": "openWebsitePolicy",
       "type": "string",
       "value": "autoplay; fullscreen"
      },
      {
       "name": "openWebsiteWidth",
       "type": "int",
       "value": 45
      },
      {
       "name": "focusable",
       "type": "bool",
       "value": true
      }
     ]
    },
    {
     "id": 96,
     "name": "site-t20",
     "type": "area",
     "class": "area",
     "x": 2624,
     "y": 2944,
     "width": 64,
     "height": 64,
     "rotation": 0,
     "visible": true,
     "ellipse": false,
     "properties": [
      {
       "name": "openWebsite",
       "type": "string",
       "value": "https://develop-konesonesine.netlify.app/"
      },
      {
       "name": "openWebsiteTrigger",
       "type": "string",
       "value": "onaction"
      },
      {
       "name": "openWebsitePolicy",
       "type": "string",
       "value": "autoplay; fullscreen"
      },
      {
       "name": "openWebsiteWidth",
       "type": "int",
       "value": 45
      },
      {
       "name": "focusable",
       "type": "bool",
       "value": true
      }
     ]
    },
    {
     "id": 97,
     "name": "qa-t20",
     "type": "area",
     "class": "area",
     "x": 2720,
     "y": 2912,
     "width": 96,
     "height": 96,
     "rotation": 0,
     "visible": true,
     "ellipse": false,
     "properties": [
      {
       "name": "jitsiRoom",
       "type": "string",
       "value": "team-20-booth"
      },
      {
       "name": "jitsiTrigger",
       "type": "string",
       "value": "onaction"
      },
      {
       "name": "jitsiConfig",
       "type": "string",
       "value": "{\"startWithAudioMuted\":true}"
      },
      {
       "name": "focusable",
       "type": "bool",
       "value": true
      }
     ]
    },
    {
     "id": 98,
     "name": "name-t20",
     "type": "",
     "x": 2592,
     "y": 3040,
     "width": 256,
     "height": 64,
     "rotation": 0,
     "visible": true,
     "text": {
      "text": "20 · Kone Sone Sine",
      "fontfamily": "Sans Serif",
      "pixelsize": 12,
      "wrap": true,
      "color": "#ffffff",
      "bold": true
     }
    },
    {
     "id": 99,
     "name": "sign-vote",
     "type": "",
     "x": 128,
     "y": 128,
     "width": 2720,
     "height": 64,
     "rotation": 0,
     "visible": true,
     "text": {
      "text": "🗳️ VOTE — walk up to a counter and press SPACE",
      "fontfamily": "Sans Serif",
      "pixelsize": 16,
      "wrap": true,
      "color": "#ffffff",
      "bold": true
     }
    },
    {
     "id": 100,
     "name": "l-vote-personal",
     "type": "",
     "x": 960,
     "y": 192,
     "width": 256,
     "height": 64,
     "rotation": 0,
     "visible": true,
     "text": {
      "text": "⭐ PERSONAL People's Choice",
      "fontfamily": "Sans Serif",
      "pixelsize": 14,
      "wrap": true,
      "color": "#ffffff",
      "bold": true
     }
    },
    {
     "id": 101,
     "name": "vote-personal",
     "type": "area",
     "class": "area",
     "x": 1024,
     "y": 288,
     "width": 128,
     "height": 64,
     "rotation": 0,
     "visible": true,
     "ellipse": false,
     "properties": [
      {
       "name": "openWebsite",
       "type": "string",
       "value": "https://proxy.vibecode.tours/vote/pvote.html"
      },
      {
       "name": "openWebsiteTrigger",
       "type": "string",
       "value": "onaction"
      },
      {
       "name": "openWebsitePolicy",
       "type": "string",
       "value": "autoplay; fullscreen"
      },
      {
       "name": "openWebsiteWidth",
       "type": "int",
       "value": 45
      },
      {
       "name": "focusable",
       "type": "bool",
       "value": true
      },
      {
       "name": "openWebsiteAllowApi",
       "type": "bool",
       "value": true
      }
     ]
    },
    {
     "id": 102,
     "name": "l-vote-team",
     "type": "",
     "x": 1792,
     "y": 192,
     "width": 256,
     "height": 64,
     "rotation": 0,
     "visible": true,
     "text": {
      "text": "🏆 TEAM People's Choice",
      "fontfamily": "Sans Serif",
      "pixelsize": 14,
      "wrap": true,
      "color": "#ffffff",
      "bold": true
     }
    },
    {
     "id": 103,
     "name": "vote-team",
     "type": "area",
     "class": "area",
     "x": 1856,
     "y": 288,
     "width": 128,
     "height": 64,
     "rotation": 0,
     "visible": true,
     "ellipse": false,
     "properties": [
      {
       "name": "openWebsite",
       "type": "string",
       "value": "https://proxy.vibecode.tours/vote/vote.html"
      },
      {
       "name": "openWebsiteTrigger",
       "type": "string",
       "value": "onaction"
      },
      {
       "name": "openWebsitePolicy",
       "type": "string",
       "value": "autoplay; fullscreen"
      },
      {
       "name": "openWebsiteWidth",
       "type": "int",
       "value": 45
      },
      {
       "name": "focusable",
       "type": "bool",
       "value": true
      },
      {
       "name": "openWebsiteAllowApi",
       "type": "bool",
       "value": true
      }
     ]
    },
    {
     "id": 104,
     "name": "sign-gallery",
     "type": "",
     "x": 128,
     "y": 3136,
     "width": 2720,
     "height": 64,
     "rotation": 0,
     "visible": true,
     "text": {
      "text": "🖼️ GALLERY — browse every project before you vote",
      "fontfamily": "Sans Serif",
      "pixelsize": 16,
      "wrap": true,
      "color": "#ffffff",
      "bold": true
     }
    },
    {
     "id": 105,
     "name": "l-gallery-personal",
     "type": "",
     "x": 960,
     "y": 3200,
     "width": 256,
     "height": 64,
     "rotation": 0,
     "visible": true,
     "text": {
      "text": "🖼️ PERSONAL projects (78)",
      "fontfamily": "Sans Serif",
      "pixelsize": 14,
      "wrap": true,
      "color": "#ffffff",
      "bold": true
     }
    },
    {
     "id": 106,
     "name": "gallery-personal",
     "type": "area",
     "class": "area",
     "x": 1024,
     "y": 3296,
     "width": 128,
     "height": 64,
     "rotation": 0,
     "visible": true,
     "ellipse": false,
     "properties": [
      {
       "name": "openWebsite",
       "type": "string",
       "value": "https://vibecode.tours/projects/personal/"
      },
      {
       "name": "openWebsiteTrigger",
       "type": "string",
       "value": "onaction"
      },
      {
       "name": "openWebsitePolicy",
       "type": "string",
       "value": "autoplay; fullscreen"
      },
      {
       "name": "openWebsiteWidth",
       "type": "int",
       "value": 45
      },
      {
       "name": "focusable",
       "type": "bool",
       "value": true
      }
     ]
    },
    {
     "id": 107,
     "name": "l-gallery-team",
     "type": "",
     "x": 1792,
     "y": 3200,
     "width": 256,
     "height": 64,
     "rotation": 0,
     "visible": true,
     "text": {
      "text": "🏗️ TEAM projects (20)",
      "fontfamily": "Sans Serif",
      "pixelsize": 14,
      "wrap": true,
      "color": "#ffffff",
      "bold": true
     }
    },
    {
     "id": 108,
     "name": "gallery-team",
     "type": "area",
     "class": "area",
     "x": 1856,
     "y": 3296,
     "width": 128,
     "height": 64,
     "rotation": 0,
     "visible": true,
     "ellipse": false,
     "properties": [
      {
       "name": "openWebsite",
       "type": "string",
       "value": "https://vibecode.tours/projects/teams/"
      },
      {
       "name": "openWebsiteTrigger",
       "type": "string",
       "value": "onaction"
      },
      {
       "name": "openWebsitePolicy",
       "type": "string",
       "value": "autoplay; fullscreen"
      },
      {
       "name": "openWebsiteWidth",
       "type": "int",
       "value": 45
      },
      {
       "name": "focusable",
       "type": "bool",
       "value": true
      }
     ]
    },
    {
     "id": 109,
     "name": "sign-stage",
     "type": "",
     "x": 1280,
     "y": 1824,
     "width": 512,
     "height": 64,
     "rotation": 0,
     "visible": true,
     "text": {
      "text": "🎬 MAIN STAGE — reels + awards",
      "fontfamily": "Sans Serif",
      "pixelsize": 18,
      "wrap": true,
      "color": "#ffffff",
      "bold": true
     }
    },
    {
     "id": 110,
     "name": "stage-bbb",
     "type": "area",
     "class": "area",
     "x": 1344,
     "y": 1920,
     "width": 160,
     "height": 128,
     "rotation": 0,
     "visible": true,
     "ellipse": false,
     "properties": [
      {
       "name": "bbbMeeting",
       "type": "string",
       "value": "demo-day-stage"
      },
      {
       "name": "bbbTrigger",
       "type": "string",
       "value": "onaction"
      },
      {
       "name": "focusable",
       "type": "bool",
       "value": true
      }
     ]
    },
    {
     "id": 111,
     "name": "stage-reel",
     "type": "area",
     "class": "area",
     "x": 1536,
     "y": 1920,
     "width": 128,
     "height": 128,
     "rotation": 0,
     "visible": true,
     "ellipse": false,
     "properties": [
      {
       "name": "openWebsite",
       "type": "string",
       "value": "https://www.youtube.com/embed/live_stream?channel=REPLACE_CHANNEL"
      },
      {
       "name": "openWebsiteTrigger",
       "type": "string",
       "value": "onaction"
      },
      {
       "name": "openWebsitePolicy",
       "type": "string",
       "value": "autoplay; fullscreen"
      },
      {
       "name": "openWebsiteWidth",
       "type": "int",
       "value": 45
      },
      {
       "name": "focusable",
       "type": "bool",
       "value": true
      }
     ]
    },
    {
     "id": 112,
     "name": "l-stage-bbb",
     "type": "",
     "x": 1344,
     "y": 2112,
     "width": 192,
     "height": 64,
     "rotation": 0,
     "visible": true,
     "text": {
      "text": "🎤 Stage room",
      "fontfamily": "Sans Serif",
      "pixelsize": 12,
      "wrap": true,
      "color": "#ffffff",
      "bold": true
     }
    },
    {
     "id": 113,
     "name": "l-stage-reel",
     "type": "",
     "x": 1536,
     "y": 2112,
     "width": 160,
     "height": 64,
     "rotation": 0,
     "visible": true,
     "text": {
      "text": "▶️ Reel screen",
      "fontfamily": "Sans Serif",
      "pixelsize": 12,
      "wrap": true,
      "color": "#ffffff",
      "bold": true
     }
    },
    {
     "id": 114,
     "name": "welcome",
     "type": "",
     "x": 128,
     "y": 3488,
     "width": 2720,
     "height": 64,
     "rotation": 0,
     "visible": true,
     "text": {
      "text": "🎉 Vibe Code Tours — Cohort 1 Demo Day",
      "fontfamily": "Sans Serif",
      "pixelsize": 20,
      "wrap": true,
      "color": "#ffffff",
      "bold": true
     }
    },
    {
     "id": 115,
     "name": "wayfinding",
     "type": "",
     "x": 128,
     "y": 3552,
     "width": 2720,
     "height": 64,
     "rotation": 0,
     "visible": true,
     "text": {
      "text": "⬆️ Walk UP: gallery → stage → 20 team booths → vote. SPACE opens a screen.",
      "fontfamily": "Sans Serif",
      "pixelsize": 14,
      "wrap": true,
      "color": "#ffffff",
      "bold": true
     }
    },
    {
     "id": 116,
     "name": "sponsor",
     "type": "",
     "x": 128,
     "y": 3616,
     "width": 2720,
     "height": 64,
     "rotation": 0,
     "visible": true,
     "text": {
      "text": "🤝 Venue by WorkAdventure",
      "fontfamily": "Sans Serif",
      "pixelsize": 12,
      "wrap": true,
      "color": "#ffffff",
      "bold": true
     }
    }
   ]
  },
  {
   "id": 91,
   "name": "logos",
   "type": "objectgroup",
   "visible": true,
   "opacity": 1,
   "x": 0,
   "y": 0,
   "draworder": "topdown",
   "objects": [
    {
     "id": 1,
     "gid": 20001,
     "name": "logo-t01",
     "x": 224,
     "y": 2848,
     "width": 64,
     "height": 64,
     "visible": true,
     "rotation": 0
    },
    {
     "id": 6,
     "gid": 20002,
     "name": "logo-t02",
     "x": 224,
     "y": 2464,
     "width": 64,
     "height": 64,
     "visible": true,
     "rotation": 0
    },
    {
     "id": 10,
     "gid": 20003,
     "name": "logo-t03",
     "x": 224,
     "y": 2080,
     "width": 64,
     "height": 64,
     "visible": true,
     "rotation": 0
    },
    {
     "id": 15,
     "gid": 20004,
     "name": "logo-t04",
     "x": 224,
     "y": 1696,
     "width": 64,
     "height": 64,
     "visible": true,
     "rotation": 0
    },
    {
     "id": 20,
     "gid": 20005,
     "name": "logo-t05",
     "x": 224,
     "y": 1312,
     "width": 64,
     "height": 64,
     "visible": true,
     "rotation": 0
    },
    {
     "id": 24,
     "gid": 20006,
     "name": "logo-t06",
     "x": 224,
     "y": 928,
     "width": 64,
     "height": 64,
     "visible": true,
     "rotation": 0
    },
    {
     "id": 29,
     "gid": 20007,
     "name": "logo-t07",
     "x": 224,
     "y": 544,
     "width": 64,
     "height": 64,
     "visible": true,
     "rotation": 0
    },
    {
     "id": 34,
     "gid": 20008,
     "name": "logo-t08",
     "x": 576,
     "y": 544,
     "width": 64,
     "height": 64,
     "visible": true,
     "rotation": 0
    },
    {
     "id": 39,
     "gid": 20009,
     "name": "logo-t09",
     "x": 928,
     "y": 544,
     "width": 64,
     "height": 64,
     "visible": true,
     "rotation": 0
    },
    {
     "id": 44,
     "gid": 20010,
     "name": "logo-t10",
     "x": 1280,
     "y": 544,
     "width": 64,
     "height": 64,
     "visible": true,
     "rotation": 0
    },
    {
     "id": 49,
     "gid": 20011,
     "name": "logo-t11",
     "x": 1632,
     "y": 544,
     "width": 64,
     "height": 64,
     "visible": true,
     "rotation": 0
    },
    {
     "id": 54,
     "gid": 20012,
     "name": "logo-t12",
     "x": 1984,
     "y": 544,
     "width": 64,
     "height": 64,
     "visible": true,
     "rotation": 0
    },
    {
     "id": 59,
     "gid": 20013,
     "name": "logo-t13",
     "x": 2336,
     "y": 544,
     "width": 64,
     "height": 64,
     "visible": true,
     "rotation": 0
    },
    {
     "id": 64,
     "gid": 20014,
     "name": "logo-t14",
     "x": 2688,
     "y": 544,
     "width": 64,
     "height": 64,
     "visible": true,
     "rotation": 0
    },
    {
     "id": 69,
     "gid": 20015,
     "name": "logo-t15",
     "x": 2688,
     "y": 928,
     "width": 64,
     "height": 64,
     "visible": true,
     "rotation": 0
    },
    {
     "id": 74,
     "gid": 20016,
     "name": "logo-t16",
     "x": 2688,
     "y": 1312,
     "width": 64,
     "height": 64,
     "visible": true,
     "rotation": 0
    },
    {
     "id": 79,
     "gid": 20017,
     "name": "logo-t17",
     "x": 2688,
     "y": 1696,
     "width": 64,
     "height": 64,
     "visible": true,
     "rotation": 0
    },
    {
     "id": 84,
     "gid": 20018,
     "name": "logo-t18",
     "x": 2688,
     "y": 2080,
     "width": 64,
     "height": 64,
     "visible": true,
     "rotation": 0
    },
    {
     "id": 89,
     "gid": 20019,
     "name": "logo-t19",
     "x": 2688,
     "y": 2464,
     "width": 64,
     "height": 64,
     "visible": true,
     "rotation": 0
    },
    {
     "id": 94,
     "gid": 20020,
     "name": "logo-t20",
     "x": 2688,
     "y": 2848,
     "width": 64,
     "height": 64,
     "visible": true,
     "rotation": 0
    }
   ]
  }
 ],
 "properties": [
  {
   "name": "mapName",
   "type": "string",
   "value": "Vibe Code Tours — Demo Day"
  },
  {
   "name": "mapDescription",
   "type": "string",
   "value": "Cohort 1 finale: entrance → gallery → stage → 20 team booths → vote"
  },
  {
   "name": "mapImage",
   "type": "string",
   "value": "demo-day.png"
  }
 ]
}